P3
257 257
255
113 171 216 121 178 222 121 178 222 132 184 227 132 184 227 140 192 234 140 192 234 150 201 240 150 201 240 150 201 240 150 201 240 160 210 247 160 210 247 160 210 247 160 210 247 172 218 250 172 218 250 184 227 255 184 227 255 197 235 255 216 242 254 216 242 254 172 208 165 172 208 165 147 191 139 147 191 139 167 197 142 167 197 142 189 204 150 189 204 150 209 215 171 209 215 171 224 228 180 224 228 180 224 228 180 224 228 180 224 228 180 224 228 180 224 228 180 224 228 180 224 228 180 238 235 191 238 235 191 231 224 182 231 224 182 231 224 182 231 224 182 231 224 182 231 224 182 222 214 163 222 214 163 222 214 163 222 214 163 222 214 163 222 214 163 222 214 163 222 214 163 222 214 163 210 202 157 210 202 157 210 202 157 210 202 157 202 184 129 202 184 129 202 184 129 202 184 129 202 184 129 202 184 129 202 184 129 202 184 129 202 184 129 202 184 129 202 184 129 202 184 129 202 184 129 210 202 157 210 202 157 210 202 157 210 202 157 210 202 157 210 202 157 210 202 157 222 214 163 222 214 163 222 214 163 231 224 182 231 224 182 231 224 182 238 235 191 238 235 191 238 235 191 238 235 191 238 235 191 238 235 191 238 235 191 224 228 180 224 228 180 224 228 180 238 235 191 238 235 191 238 235 191 238 235 191 238 235 191 238 235 191 238 235 191 238 235 191 238 235 191 238 235 191 231 224 182 231 224 182 231 224 182 231 224 182 222 214 163 222 214 163 222 214 163 222 214 163 222 214 163 222 214 163 222 214 163 222 214 163 222 214 163 210 202 157 210 202 157 210 202 157 210 202 157 202 184 129 202 184 129 202 184 129 195 166 107 202 184 129 202 184 129 202 184 129 202 184 129 210 202 157 210 202 157 210 202 157 202 184 129 210 202 157 210 202 157 210 202 157 210 202 157 222 214 163 222 214 163 222 214 163 222 214 163 231 224 182 231 224 182 231 224 182 231 224 182 238 235 191 238 235 191 238 235 191 238 235 191 238 235 191 224 228 180 224 228 180 224 228 180 209 215 171 209 215 171 189 204 150 189 204 150 189 204 150 167 197 142 167 197 142 167 197 142 147 191 139 147 191 139 147 191 139 147 191 139 172 208 165 172 208 165 172 208 165 216 242 254 216 242 254 216 242 254 216 242 254 216 242 254 216 242 254 197 235 255 197 235 255 197 235 255 197 235 255 197 235 255 197 235 255 197 235 255 184 227 255 184 227 255 184 227 255 184 227 255 172 218 250 172 218 250 160 210 247 160 210 247 160 210 247 160 210 247 160 210 247 172 218 250 172 218 250 172 218 250 184 227 255 184 227 255 184 227 255 184 227 255 184 227 255 197 235 255 197 235 255 197 235 255 197 235 255 197 235 255 197 235 255 197 235 255 197 235 255 197 235 255 197 235 255 216 242 254 197 235 255 216 242 254 216 242 254 216 242 254 216 242 254 216 242 254 216 242 254 216 242 254 216 242 254 172 208 165 172 208 165 216 242 254 216 242 254 216 242 254 216 242 254 216 242 254 197 235 255 197 235 255 197 235 255 197 235 255 197 235 255 184 227 255 184 227 255 184 227 255 184 227 255 184 227 255 184 227 255 184 227 255 184 227 255 184 227 255 184 227 255 184 227 255 184 227 255 184 227 255 172 218 250 172 218 250 172 218 250 172 218 250 172 218 250 172 218 250 160 210 247 160 210 247

121 178 222 121 178 222 132 184 227 132 184 227 132 184 227 140 192 234 140 192 234 150 201 240 150 201 240 150 201 240 160 210 247 160 210 247 160 210 247 160 210 247 172 218 250 172 218 250 184 227 255 184 227 255 184 227 255 197 235 255 216 242 254 216 242 254 172 208 165 172 208 165 147 191 139 147 191 139 167 197 142 167 197 142 189 204 150 189 204 150 189 204 150 209 215 171 209 215 171 146 150 119 156 159 126 224 228 180 224 228 180 224 228 180 224 228 180 224 228 180 224 228 180 238 235 191 238 235 191 238 235 191 231 224 182 231 224 182 231 224 182 231 224 182 231 224 182 222 214 163 155 149 114 155 149 114 222 214 163 222 214 163 222 214 163 155 149 114 155 149 114 222 214 163 222 214 163 210 202 157 210 202 157 210 202 157 202 184 129 202 184 129 202 184 129 141 128 90 141 128 90 202 184 129 141 128 90 141 128 90 141 128 90 202 184 129 202 184 129 141 128 90 141 128 90 147 141 109 147 141 109 147 141 109 147 141 109 147 141 109 147 141 109 155 149 114 155 149 114 155 149 114 155 149 114 161 156 127 161 156 127 161 156 127 166 164 133 166 164 133 166 164 133 166 164 133 166 164 133 166 164 133 166 164 133 156 159 126 156 159 126 224 228 180 238 235 191 238 235 191 238 235 191 238 235 191 238 235 191 238 235 191 238 235 191 238 235 191 238 235 191 238 235 191 231 224 182 231 224 182 231 224 182 231 224 182 161 156 127 161 156 127 161 156 127 161 156 127 161 156 127 222 214 163 222 214 163 155 149 114 222 214 163 222 214 163 210 202 157 210 202 157 210 202 157 147 141 109 147 141 109 202 184 129 202 184 129 141 128 90 141 128 90 141 128 90 147 141 109 141 128 90 147 141 109 147 141 109 147 141 109 147 141 109 147 141 109 147 141 109 155 149 114 155 149 114 155 149 114 155 149 114 161 156 127 161 156 127 161 156 127 161 156 127 166 164 133 166 164 133 166 164 133 238 235 191 238 235 191 166 164 133 156 159 126 156 159 126 156 159 126 146 150 119 146 150 119 132 142 105 132 142 105 132 142 105 132 142 105 167 197 142 167 197 142 116 137 99 102 133 97 147 191 139 102 133 97 102 133 97 172 208 165 120 145 115 120 145 115 172 208 165 151 169 177 151 169 177 151 169 177 151 169 177 137 164 178 137 164 178 137 164 178 137 164 178 137 164 178 137 164 178 128 158 178 128 158 178 128 158 178 128 158 178 128 158 178 120 152 175 120 152 175 112 147 172 112 147 172 160 210 247 160 210 247 172 218 250 172 218 250 172 218 250 172 218 250 184 227 255 184 227 255 184 227 255 184 227 255 184 227 255 184 227 255 128 158 178 197 235 255 197 235 255 197 235 255 197 235 255 197 235 255 197 235 255 197 235 255 197 235 255 216 242 254 216 242 254 216 242 254 216 242 254 151 169 177 216 242 254 216 242 254 216 242 254 216 242 254 216 242 254 216 242 254 151 169 177 151 169 177 216 242 254 151 169 177 151 169 177 151 169 177 137 164 178 197 235 255 137 164 178 137 164 178 137 164 178 128 158 178 128 158 178 128 158 178 128 158 178 184 227 255 184 227 255 184 227 255 128 158 178 128 158 178 128 158 178 128 158 178 184 227 255 184 227 255 120 152 175 120 152 175 172 218 250 120 152 175 172 218 250 172 218 250 120 152 175 172 218 250

132 184 227 132 184 227 132 184 227 132 184 227 140 192 234 140 192 234 140 192 234 150 201 240 150 201 240 150 201 240 160 210 247 160 210 247 160 210 247 160 210 247 172 218 250 172 218 250 184 227 255 184 227 255 184 227 255 197 235 255 197 235 255 216 242 254 172 208 165 172 208 165 147 191 139 147 191 139 167 197 142 167 197 142 189 204 150 189 204 150 189 204 150 209 215 171 209 215 171 209 215 171 224 228 180 224 228 180 224 228 180 224 228 180 224 228 180 224 228 180 156 159 126 238 235 191 238 235 191 231 224 182 231 224 182 231 224 182 231 224 182 231 224 182 231 224 182 231 224 182 222 214 163 222 214 163 222 214 163 222 214 163 222 214 163 155 149 114 222 214 163 222 214 163 222 214 163 210 202 157 210 202 157 210 202 157 202 184 129 147 141 109 202 184 129 202 184 129 202 184 129 202 184 129 141 128 90 202 184 129 202 184 129 202 184 129 202 184 129 141 128 90 147 141 109 147 141 109 147 141 109 147 141 109 210 202 157 147 141 109 147 141 109 155 149 114 155 149 114 161 156 127 161 156 127 161 156 127 161 156 127 166 164 133 166 164 133 166 164 133 238 235 191 166 164 133 238 235 191 156 159 126 238 235 191 238 235 191 238 235 191 238 235 191 238 235 191 238 235 191 166 164 133 238 235 191 238 235 191 166 164 133 166 164 133 238 235 191 238 235 191 238 235 191 231 224 182 231 224 182 231 224 182 231 224 182 161 156 127 161 156 127 231 224 182 231 224 182 231 224 182 222 214 163 222 214 163 222 214 163 222 214 163 222 214 163 210 202 157 210 202 157 210 202 157 210 202 157 210 202 157 210 202 157 141 128 90 141 128 90 141 128 90 141 128 90 141 128 90 210 202 157 147 141 109 210 202 157 147 141 109 147 141 109 155 149 114 155 149 114 155 149 114 155 149 114 155 149 114 161 156 127 161 156 127 161 156 127 161 156 127 161 156 127 166 164 133 166 164 133 166 164 133 166 164 133 238 235 191 166 164 133 156 159 126 156 159 126 224 228 180 146 150 119 146 150 119 146 150 119 132 142 105 132 142 105 132 142 105 116 137 99 116 137 99 116 137 99 167 197 142 102 133 97 102 133 97 102 133 97 120 145 115 120 145 115 120 145 115 120 145 115 151 169 177 151 169 177 151 169 177 151 169 177 137 164 178 137 164 178 137 164 178 197 235 255 137 164 178 197 235 255 137 164 178 128 158 178 128 158 178 128 158 178 128 158 178 120 152 175 120 152 175 172 218 250 160 210 247 172 218 250 172 218 250 172 218 250 172 218 250 172 218 250 172 218 250 184 227 255 184 227 255 184 227 255 184 227 255 184 227 255 128 158 178 128 158 178 197 235 255 197 235 255 197 235 255 197 235 255 197 235 255 197 235 255 197 235 255 197 235 255 216 242 254 216 242 254 216 242 254 216 242 254 216 242 254 216 242 254 216 242 254 216 242 254 216 242 254 216 242 254 216 242 254 216 242 254 216 242 254 216 242 254 216 242 254 151 169 177 151 169 177 137 164 178 197 235 255 137 164 178 137 164 178 137 164 178 128 158 178 128 158 178 184 227 255 128 158 178 184 227 255 184 227 255 184 227 255 128 158 178 128 158 178 184 227 255 184 227 255 184 227 255 184 227 255 128 158 178 172 218 250 172 218 250 172 218 250 172 218 250 172 218 250 172 218 250 172 218 250

132 184 227 132 184 227 132 184 227 140 192 234 140 192 234 140 192 234 140 192 234 150 201 240 150 201 240 150 201 240 150 201 240 160 210 247 160 210 247 172 218 250 172 218 250 172 218 250 184 227 255 184 227 255 184 227 255 197 235 255 197 235 255 216 242 254 172 208 165 172 208 165 147 191 139 147 191 139 167 197 142 167 197 142 189 204 150 189 204 150 189 204 150 209 215 171 209 215 171 209 215 171 209 215 171 224 228 180 224 228 180 224 228 180 224 228 180 224 228 180 238 235 191 238 235 191 238 235 191 231 224 182 231 224 182 231 224 182 231 224 182 161 156 127 161 156 127 161 156 127 231 224 182 222 214 163 222 214 163 222 214 163 222 214 163 155 149 114 155 149 114 222 214 163 222 214 163 222 214 163 210 202 157 210 202 157 210 202 157 147 141 109 202 184 129 202 184 129 202 184 129 202 184 129 141 128 90 202 184 129 141 128 90 141 128 90 141 128 90 141 128 90 147 141 109 147 141 109 147 141 109 147 141 109 147 141 109 147 141 109 155 149 114 155 149 114 155 149 114 161 156 127 161 156 127 161 156 127 161 156 127 166 164 133 166 164 133 166 164 133 238 235 191 238 235 191 238 235 191 238 235 191 238 235 191 238 235 191 238 235 191 238 235 191 238 235 191 238 235 191 238 235 191 238 235 191 238 235 191 166 164 133 238 235 191 238 235 191 238 235 191 238 235 191 231 224 182 231 224 182 231 224 182 161 156 127 161 156 127 161 156 127 231 224 182 231 224 182 222 214 163 222 214 163 222 214 163 155 149 114 155 149 114 222 214 163 222 214 163 210 202 157 210 202 157 210 202 157 147 141 109 210 202 157 147 141 109 141 128 90 147 141 109 147 141 109 147 141 109 147 141 109 147 141 109 147 141 109 147 141 109 147 141 109 155 149 114 155 149 114 155 149 114 155 149 114 155 149 114 161 156 127 161 156 127 161 156 127 161 156 127 161 156 127 166 164 133 166 164 133 166 164 133 166 164 133 166 164 133 166 164 133 156 159 126 156 159 126 156 159 126 146 150 119 146 150 119 132 142 105 132 142 105 189 204 150 189 204 150 132 142 105 116 137 99 167 197 142 116 137 99 102 133 97 102 133 97 102 133 97 102 133 97 120 145 115 120 145 115 120 145 115 151 169 177 151 169 177 151 169 177 151 169 177 137 164 178 137 164 178 137 164 178 197 235 255 137 164 178 197 235 255 137 164 178 128 158 178 128 158 178 128 158 178 184 227 255 128 158 178 120 152 175 172 218 250 172 218 250 172 218 250 172 218 250 172 218 250 172 218 250 172 218 250 172 218 250 184 227 255 184 227 255 184 227 255 184 227 255 184 227 255 184 227 255 197 235 255 197 235 255 197 235 255 197 235 255 197 235 255 197 235 255 197 235 255 197 235 255 216 242 254 216 242 254 216 242 254 216 242 254 216 242 254 216 242 254 151 169 177 151 169 177 216 242 254 216 242 254 151 169 177 216 242 254 151 169 177 151 169 177 151 169 177 151 169 177 151 169 177 151 169 177 137 164 178 137 164 178 137 164 178 197 235 255 137 164 178 128 158 178 184 227 255 184 227 255 184 227 255 184 227 255 197 235 255 197 235 255 184 227 255 184 227 255 184 227 255 184 227 255 184 227 255 184 227 255 184 227 255 184 227 255 172 218 250 172 218 250 120 152 175 172 218 250 172 218 250 172 218 250

140 192 234 132 184 227 140 192 234 140 192 234 140 192 234 140 192 234 150 201 240 150 201 240 150 201 240 150 201 240 160 210 247 160 210 247 160 210 247 160 210 247 172 218 250 172 218 250 184 227 255 184 227 255 184 227 255 197 235 255 197 235 255 216 242 254 172 208 165 172 208 165 147 191 139 147 191 139 167 197 142 167 197 142 189 204 150 189 204 150 189 204 150 209 215 171 209 215 171 209 215 171 224 228 180 224 228 180 224 228 180 224 228 180 224 228 180 238 235 191 238 235 191 238 235 191 238 235 191 231 224 182 231 224 182 231 224 182 231 224 182 161 156 127 231 224 182 231 224 182 222 214 163 222 214 163 222 214 163 222 214 163 155 149 114 222 214 163 222 214 163 222 214 163 222 214 163 222 214 163 210 202 157 210 202 157 210 202 157 202 184 129 202 184 129 202 184 129 202 184 129 202 184 129 202 184 129 202 184 129 141 128 90 141 128 90 141 128 90 147 141 109 147 141 109 147 141 109 147 141 109 147 141 109 147 141 109 147 141 109 210 202 157 155 149 114 155 149 114 161 156 127 161 156 127 161 156 127 161 156 127 166 164 133 166 164 133 166 164 133 238 235 191 238 235 191 238 235 191 238 235 191 238 235 191 238 235 191 238 235 191 166 164 133 238 235 191 166 164 133 238 235 191 238 235 191 238 235 191 238 235 191 166 164 133 238 235 191 166 164 133 166 164 133 238 235 191 161 156 127 231 224 182 161 156 127 231 224 182 231 224 182 231 224 182 231 224 182 222 214 163 222 214 163 222 214 163 222 214 163 222 214 163 222 214 163 222 214 163 210 202 157 210 202 157 210 202 157 210 202 157 210 202 157 147 141 109 210 202 157 147 141 109 210 202 157 210 202 157 147 141 109 147 141 109 147 141 109 147 141 109 147 141 109 155 149 114 155 149 114 155 149 114 155 149 114 155 149 114 161 156 127 161 156 127 161 156 127 166 164 133 166 164 133 166 164 133 238 235 191 166 164 133 166 164 133 238 235 191 166 164 133 156 159 126 156 159 126 156 159 126 146 150 119 146 150 119 146 150 119 132 142 105 132 142 105 132 142 105 132 142 105 189 204 150 116 137 99 116 137 99 102 133 97 147 191 139 102 133 97 102 133 97 120 145 115 120 145 115 120 145 115 151 169 177 151 169 177 151 169 177 216 242 254 216 242 254 137 164 178 137 164 178 137 164 178 137 164 178 137 164 178 137 164 178 128 158 178 128 158 178 128 158 178 184 227 255 128 158 178 184 227 255 120 152 175 172 218 250 172 218 250 172 218 250 172 218 250 172 218 250 172 218 250 184 227 255 184 227 255 184 227 255 184 227 255 184 227 255 184 227 255 184 227 255 184 227 255 197 235 255 197 235 255 197 235 255 197 235 255 197 235 255 197 235 255 216 242 254 216 242 254 216 242 254 216 242 254 216 242 254 216 242 254 151 169 177 151 169 177 151 169 177 216 242 254 151 169 177 151 169 177 216 242 254 216 242 254 216 242 254 151 169 177 151 169 177 151 169 177 137 164 178 137 164 178 137 164 178 137 164 178 137 164 178 137 164 178 128 158 178 184 227 255 197 235 255 197 235 255 197 235 255 197 235 255 197 235 255 197 235 255 197 235 255 184 227 255 184 227 255 184 227 255 184 227 255 184 227 255 128 158 178 128 158 178 184 227 255 120 152 175 120 152 175 172 218 250 172 218 250

140 192 234 140 192 234 140 192 234 140 192 234 140 192 234 150 201 240 150 201 240 150 201 240 150 201 240 150 201 240 160 210 247 160 210 247 160 210 247 160 210 247 172 218 250 172 218 250 184 227 255 184 227 255 184 227 255 197 235 255 197 235 255 216 242 254 216 242 254 172 208 165 147 191 139 147 191 139 167 197 142 167 197 142 167 197 142 132 142 105 189 204 150 189 204 150 209 215 171 209 215 171 209 215 171 224 228 180 224 228 180 224 228 180 238 235 191 238 235 191 238 235 191 238 235 191 238 235 191 231 224 182 231 224 182 231 224 182 231 224 182 231 224 182 222 214 163 231 224 182 222 214 163 222 214 163 222 214 163 155 149 114 222 214 163 222 214 163 222 214 163 222 214 163 222 214 163 222 214 163 210 202 157 210 202 157 210 202 157 210 202 157 202 184 129 202 184 129 202 184 129 141 128 90 141 128 90 141 128 90 141 128 90 147 141 109 147 141 109 147 141 109 147 141 109 147 141 109 147 141 109 147 141 109 147 141 109 155 149 114 155 149 114 155 149 114 155 149 114 161 156 127 161 156 127 161 156 127 161 156 127 166 164 133 166 164 133 166 164 133 166 164 133 166 164 133 238 235 191 166 164 133 238 235 191 166 164 133 166 164 133 166 164 133 166 164 133 166 164 133 238 235 191 166 164 133 166 164 133 166 164 133 166 164 133 238 235 191 238 235 191 238 235 191 238 235 191 231 224 182 231 224 182 161 156 127 231 224 182 161 156 127 231 224 182 231 224 182 222 214 163 222 214 163 222 214 163 222 214 163 222 214 163 222 214 163 222 214 163 210 202 157 210 202 157 147 141 109 210 202 157 210 202 157 210 202 157 147 141 109 147 141 109 147 141 109 147 141 109 147 141 109 147 141 109 147 141 109 147 141 109 155 149 114 155 149 114 155 149 114 155 149 114 161 156 127 161 156 127 161 156 127 161 156 127 161 156 127 166 164 133 166 164 133 166 164 133 166 164 133 166 164 133 166 164 133 166 164 133 156 159 126 156 159 126 156 159 126 224 228 180 146 150 119 146 150 119 146 150 119 132 142 105 132 142 105 189 204 150 132 142 105 132 142 105 116 137 99 116 137 99 116 137 99 147 191 139 102 133 97 102 133 97 120 145 115 120 145 115 120 145 115 151 169 177 151 169 177 151 169 177 151 169 177 137 164 178 137 164 178 137 164 178 197 235 255 137 164 178 197 235 255 197 235 255 128 158 178 128 158 178 128 158 178 184 227 255 128 158 178 128 158 178 184 227 255 172 218 250 120 152 175 172 218 250 172 218 250 172 218 250 172 218 250 184 227 255 184 227 255 184 227 255 128 158 178 184 227 255 184 227 255 184 227 255 197 235 255 197 235 255 197 235 255 197 235 255 197 235 255 197 235 255 197 235 255 216 242 254 216 242 254 216 242 254 216 242 254 216 242 254 151 169 177 216 242 254 216 242 254 216 242 254 216 242 254 216 242 254 216 242 254 216 242 254 216 242 254 151 169 177 151 169 177 151 169 177 151 169 177 137 164 178 137 164 178 137 164 178 137 164 178 137 164 178 137 164 178 197 235 255 197 235 255 197 235 255 197 235 255 197 235 255 197 235 255 197 235 255 197 235 255 197 235 255 128 158 178 128 158 178 128 158 178 128 158 178 128 158 178 128 158 178 128 158 178 184 227 255 120 152 175 172 218 250 172 218 250 172 218 250

140 192 234 140 192 234 140 192 234 140 192 234 150 201 240 140 192 234 150 201 240 150 201 240 150 201 240 150 201 240 160 210 247 160 210 247 160 210 247 172 218 250 172 218 250 172 218 250 184 227 255 184 227 255 184 227 255 197 235 255 216 242 254 216 242 254 172 208 165 172 208 165 147 191 139 147 191 139 147 191 139 167 197 142 167 197 142 189 204 150 189 204 150 189 204 150 209 215 171 209 215 171 209 215 171 224 228 180 224 228 180 224 228 180 238 235 191 238 235 191 238 235 191 238 235 191 231 224 182 231 224 182 231 224 182 231 224 182 231 224 182 231 224 182 222 214 163 222 214 163 222 214 163 222 214 163 222 214 163 155 149 114 155 149 114 222 214 163 222 214 163 222 214 163 222 214 163 210 202 157 210 202 157 210 202 157 210 202 157 210 202 157 202 184 129 147 141 109 141 128 90 141 128 90 147 141 109 147 141 109 147 141 109 147 141 109 210 202 157 147 141 109 147 141 109 147 141 109 210 202 157 147 141 109 147 141 109 155 149 114 155 149 114 155 149 114 155 149 114 161 156 127 161 156 127 161 156 127 231 224 182 166 164 133 166 164 133 166 164 133 166 164 133 238 235 191 166 164 133 166 164 133 238 235 191 166 164 133 238 235 191 166 164 133 166 164 133 238 235 191 238 235 191 238 235 191 238 235 191 166 164 133 238 235 191 238 235 191 238 235 191 238 235 191 238 235 191 231 224 182 231 224 182 231 224 182 231 224 182 161 156 127 231 224 182 231 224 182 222 214 163 222 214 163 222 214 163 222 214 163 222 214 163 222 214 163 222 214 163 210 202 157 210 202 157 210 202 157 210 202 157 210 202 157 210 202 157 147 141 109 147 141 109 147 141 109 147 141 109 147 141 109 147 141 109 147 141 109 147 141 109 155 149 114 155 149 114 161 156 127 161 156 127 161 156 127 161 156 127 161 156 127 166 164 133 166 164 133 166 164 133 166 164 133 166 164 133 166 164 133 166 164 133 238 235 191 166 164 133 166 164 133 224 228 180 156 159 126 156 159 126 156 159 126 146 150 119 146 150 119 132 142 105 132 142 105 132 142 105 132 142 105 189 204 150 189 204 150 116 137 99 167 197 142 102 133 97 102 133 97 102 133 97 120 145 115 120 145 115 120 145 115 151 169 177 151 169 177 151 169 177 151 169 177 151 169 177 137 164 178 137 164 178 137 164 178 137 164 178 197 235 255 128 158 178 137 164 178 184 227 255 128 158 178 184 227 255 128 158 178 184 227 255 120 152 175 120 152 175 172 218 250 184 227 255 172 218 250 172 218 250 184 227 255 184 227 255 184 227 255 184 227 255 184 227 255 184 227 255 184 227 255 197 235 255 197 235 255 197 235 255 197 235 255 197 235 255 197 235 255 197 235 255 197 235 255 216 242 254 216 242 254 216 242 254 216 242 254 216 242 254 216 242 254 216 242 254 151 169 177 151 169 177 216 242 254 216 242 254 151 169 177 151 169 177 151 169 177 216 242 254 151 169 177 151 169 177 137 164 178 137 164 178 137 164 178 197 235 255 137 164 178 197 235 255 197 235 255 137 164 178 197 235 255 197 235 255 197 235 255 197 235 255 197 235 255 137 164 178 137 164 178 137 164 178 128 158 178 184 227 255 184 227 255 184 227 255 184 227 255 128 158 178 128 158 178 184 227 255 120 152 175 172 218 250 172 218 250 184 227 255

140 192 234 140 192 234 140 192 234 150 201 240 150 201 240 150 201 240 150 201 240 150 201 240 150 201 240 150 201 240 160 210 247 160 210 247 160 210 247 160 210 247 172 218 250 172 218 250 172 218 250 184 227 255 184 227 255 197 235 255 197 235 255 216 242 254 172 208 165 172 208 165 147 191 139 147 191 139 167 197 142 167 197 142 167 197 142 189 204 150 189 204 150 209 215 171 209 215 171 209 215 171 209 215 171 224 228 180 224 228 180 238 235 191 238 235 191 238 235 191 238 235 191 238 235 191 231 224 182 231 224 182 231 224 182 231 224 182 231 224 182 222 214 163 222 214 163 222 214 163 155 149 114 222 214 163 222 214 163 222 214 163 222 214 163 222 214 163 155 149 114 155 149 114 222 214 163 222 214 163 210 202 157 210 202 157 210 202 157 210 202 157 202 184 129 147 141 109 202 184 129 147 141 109 147 141 109 147 141 109 147 141 109 147 141 109 147 141 109 147 141 109 147 141 109 210 202 157 210 202 157 147 141 109 147 141 109 155 149 114 155 149 114 155 149 114 155 149 114 155 149 114 161 156 127 161 156 127 161 156 127 166 164 133 166 164 133 238 235 191 166 164 133 166 164 133 166 164 133 166 164 133 238 235 191 166 164 133 238 235 191 156 159 126 156 159 126 238 235 191 238 235 191 166 164 133 238 235 191 166 164 133 238 235 191 238 235 191 166 164 133 238 235 191 238 235 191 238 235 191 231 224 182 166 164 133 231 224 182 231 224 182 231 224 182 231 224 182 231 224 182 222 214 163 222 214 163 222 214 163 222 214 163 222 214 163 210 202 157 210 202 157 210 202 157 210 202 157 210 202 157 210 202 157 147 141 109 147 141 109 210 202 157 210 202 157 147 141 109 147 141 109 147 141 109 155 149 114 155 149 114 155 149 114 155 149 114 161 156 127 161 156 127 161 156 127 161 156 127 166 164 133 166 164 133 166 164 133 166 164 133 166 164 133 166 164 133 238 235 191 166 164 133 166 164 133 166 164 133 156 159 126 156 159 126 156 159 126 156 159 126 146 150 119 146 150 119 146 150 119 132 142 105 189 204 150 132 142 105 189 204 150 189 204 150 132 142 105 116 137 99 116 137 99 116 137 99 102 133 97 102 133 97 102 133 97 120 145 115 120 145 115 151 169 177 151 169 177 151 169 177 151 169 177 137 164 178 137 164 178 137 164 178 137 164 178 197 235 255 137 164 178 137 164 178 197 235 255 197 235 255 128 158 178 184 227 255 128 158 178 128 158 178 128 158 178 184 227 255 172 218 250 184 227 255 184 227 255 184 227 255 184 227 255 184 227 255 184 227 255 184 227 255 184 227 255 184 227 255 184 227 255 197 235 255 197 235 255 197 235 255 197 235 255 197 235 255 197 235 255 197 235 255 197 235 255 216 242 254 216 242 254 216 242 254 216 242 254 216 242 254 216 242 254 151 169 177 151 169 177 151 169 177 151 169 177 151 169 177 151 169 177 216 242 254 151 169 177 151 169 177 151 169 177 137 164 178 137 164 178 137 164 178 137 164 178 197 235 255 197 235 255 137 164 178 137 164 178 197 235 255 197 235 255 197 235 255 197 235 255 197 235 255 137 164 178 197 235 255 197 235 255 128 158 178 128 158 178 184 227 255 184 227 255 184 227 255 128 158 178 128 158 178 128 158 178 184 227 255 128 158 178 172 218 250 172 218 250 184 227 255

150 201 240 140 192 234 150 201 240 150 201 240 150 201 240 150 201 240 150 201 240 150 201 240 150 201 240 150 201 240 160 210 247 160 210 247 160 210 247 172 218 250 172 218 250 172 218 250 172 218 250 184 227 255 184 227 255 197 235 255 197 235 255 216 242 254 216 242 254 172 208 165 172 208 165 147 191 139 147 191 139 167 197 142 167 197 142 189 204 150 189 204 150 209 215 171 209 215 171 209 215 171 209 215 171 224 228 180 224 228 180 224 228 180 238 235 191 238 235 191 238 235 191 238 235 191 231 224 182 231 224 182 231 224 182 231 224 182 231 224 182 222 214 163 222 214 163 222 214 163 222 214 163 222 214 163 222 214 163 222 214 163 155 149 114 155 149 114 155 149 114 222 214 163 222 214 163 222 214 163 210 202 157 210 202 157 210 202 157 210 202 157 210 202 157 147 141 109 147 141 109 147 141 109 147 141 109 147 141 109 147 141 109 147 141 109 147 141 109 147 141 109 147 141 109 147 141 109 210 202 157 147 141 109 147 141 109 155 149 114 222 214 163 155 149 114 155 149 114 161 156 127 161 156 127 161 156 127 161 156 127 166 164 133 166 164 133 166 164 133 166 164 133 238 235 191 238 235 191 166 164 133 238 235 191 166 164 133 166 164 133 156 159 126 156 159 126 224 228 180 166 164 133 238 235 191 238 235 191 238 235 191 238 235 191 238 235 191 238 235 191 238 235 191 166 164 133 238 235 191 166 164 133 231 224 182 231 224 182 231 224 182 231 224 182 231 224 182 222 214 163 222 214 163 222 214 163 222 214 163 222 214 163 222 214 163 210 202 157 210 202 157 210 202 157 210 202 157 210 202 157 210 202 157 210 202 157 147 141 109 210 202 157 147 141 109 147 141 109 155 149 114 155 149 114 155 149 114 222 214 163 155 149 114 161 156 127 161 156 127 161 156 127 161 156 127 166 164 133 166 164 133 166 164 133 166 164 133 166 164 133 238 235 191 166 164 133 166 164 133 166 164 133 166 164 133 238 235 191 156 159 126 156 159 126 156 159 126 156 159 126 146 150 119 146 150 119 146 150 119 209 215 171 209 215 171 189 204 150 189 204 150 189 204 150 189 204 150 116 137 99 116 137 99 116 137 99 102 133 97 147 191 139 102 133 97 120 145 115 120 145 115 172 208 165 172 208 165 151 169 177 151 169 177 151 169 177 216 242 254 197 235 255 197 235 255 137 164 178 197 235 255 197 235 255 197 235 255 128 158 178 128 158 178 184 227 255 128 158 178 184 227 255 184 227 255 120 152 175 184 227 255 184 227 255 184 227 255 184 227 255 184 227 255 184 227 255 184 227 255 184 227 255 184 227 255 197 235 255 197 235 255 197 235 255 197 235 255 197 235 255 197 235 255 197 235 255 197 235 255 197 235 255 197 235 255 216 242 254 216 242 254 216 242 254 216 242 254 172 208 165 216 242 254 216 242 254 216 242 254 151 169 177 151 169 177 151 169 177 216 242 254 216 242 254 151 169 177 216 242 254 151 169 177 151 169 177 137 164 178 137 164 178 137 164 178 137 164 178 137 164 178 137 164 178 197 235 255 197 235 255 197 235 255 197 235 255 197 235 255 197 235 255 197 235 255 197 235 255 137 164 178 128 158 178 128 158 178 184 227 255 128 158 178 128 158 178 128 158 178 128 158 178 128 158 178 184 227 255 184 227 255 120 152 175 184 227 255 184 227 255

150 201 240 150 201 240 150 201 240 150 201 240 150 201 240 105 140 168 150 201 240 150 201 240 150 201 240 150 201 240 160 210 247 160 210 247 160 210 247 172 218 250 172 218 250 172 218 250 184 227 255 184 227 255 184 227 255 197 235 255 197 235 255 216 242 254 216 242 254 172 208 165 147 191 139 147 191 139 147 191 139 167 197 142 167 197 142 189 204 150 189 204 150 209 215 171 209 215 171 209 215 171 224 228 180 224 228 180 224 228 180 238 235 191 238 235 191 238 235 191 238 235 191 231 224 182 231 224 182 231 224 182 231 224 182 231 224 182 231 224 182 222 214 163 222 214 163 155 149 114 222 214 163 222 214 163 222 214 163 155 149 114 155 149 114 155 149 114 155 149 114 155 149 114 155 149 114 222 214 163 222 214 163 147 141 109 147 141 109 147 141 109 147 141 109 147 141 109 147 141 109 147 141 109 147 141 109 147 141 109 147 141 109 147 141 109 147 141 109 147 141 109 147 141 109 147 141 109 155 149 114 147 141 109 155 149 114 155 149 114 155 149 114 155 149 114 155 149 114 155 149 114 161 156 127 161 156 127 161 156 127 166 164 133 166 164 133 238 235 191 238 235 191 238 235 191 166 164 133 238 235 191 238 235 191 166 164 133 238 235 191 238 235 191 238 235 191 238 235 191 238 235 191 238 235 191 166 164 133 238 235 191 166 164 133 166 164 133 166 164 133 166 164 133 238 235 191 166 164 133 238 235 191 238 235 191 166 164 133 231 224 182 231 224 182 231 224 182 231 224 182 161 156 127 222 214 163 222 214 163 222 214 163 222 214 163 222 214 163 210 202 157 210 202 157 147 141 109 147 141 109 147 141 109 147 141 109 147 141 109 155 149 114 155 149 114 155 149 114 155 149 114 155 149 114 155 149 114 155 149 114 161 156 127 161 156 127 161 156 127 161 156 127 166 164 133 166 164 133 166 164 133 166 164 133 166 164 133 166 164 133 166 164 133 166 164 133 156 159 126 156 159 126 156 159 126 156 159 126 156 159 126 156 159 126 156 159 126 146 150 119 146 150 119 146 150 119 146 150 119 146 150 119 132 142 105 209 215 171 132 142 105 189 204 150 132 142 105 132 142 105 116 137 99 116 137 99 102 133 97 147 191 139 102 133 97 147 191 139 172 208 165 172 208 165 120 145 115 151 169 177 151 169 177 216 242 254 216 242 254 137 164 178 137 164 178 197 235 255 197 235 255 137 164 178 137 164 178 197 235 255 197 235 255 128 158 178 128 158 178 184 227 255 128 158 178 128 158 178 184 227 255 184 227 255 184 227 255 184 227 255 184 227 255 184 227 255 184 227 255 184 227 255 197 235 255 197 235 255 197 235 255 197 235 255 197 235 255 197 235 255 197 235 255 197 235 255 197 235 255 197 235 255 216 242 254 216 242 254 216 242 254 216 242 254 216 242 254 216 242 254 151 169 177 151 169 177 151 169 177 151 169 177 216 242 254 216 242 254 216 242 254 151 169 177 151 169 177 216 242 254 151 169 177 137 164 178 137 164 178 137 164 178 137 164 178 197 235 255 197 235 255 197 235 255 197 235 255 197 235 255 197 235 255 197 235 255 197 235 255 197 235 255 137 164 178 137 164 178 137 164 178 128 158 178 184 227 255 128 158 178 184 227 255 128 158 178 128 158 178 128 158 178 184 227 255 184 227 255 184 227 255 120 152 175 184 227 255 184 227 255

150 201 240 150 201 240 150 201 240 150 201 240 150 201 240 150 201 240 150 201 240 150 201 240 150 201 240 150 201 240 160 210 247 160 210 247 160 210 247 172 218 250 172 218 250 172 218 250 184 227 255 184 227 255 197 235 255 197 235 255 216 242 254 216 242 254 172 208 165 172 208 165 147 191 139 147 191 139 147 191 139 167 197 142 167 197 142 189 204 150 209 215 171 209 215 171 209 215 171 209 215 171 224 228 180 224 228 180 238 235 191 238 235 191 238 235 191 238 235 191 231 224 182 231 224 182 231 224 182 231 224 182 231 224 182 231 224 182 231 224 182 231 224 182 222 214 163 155 149 114 222 214 163 222 214 163 222 214 163 155 149 114 155 149 114 222 214 163 155 149 114 222 214 163 222 214 163 222 214 163 222 214 163 155 149 114 155 149 114 147 141 109 155 149 114 147 141 109 147 141 109 147 141 109 147 141 109 147 141 109 147 141 109 210 202 157 155 149 114 147 141 109 210 202 157 155 149 114 155 149 114 155 149 114 210 202 157 155 149 114 155 149 114 155 149 114 155 149 114 155 149 114 161 156 127 161 156 127 161 156 127 161 156 127 166 164 133 238 235 191 238 235 191 166 164 133 238 235 191 166 164 133 238 235 191 156 159 126 156 159 126 238 235 191 238 235 191 238 235 191 156 159 126 238 235 191 238 235 191 238 235 191 238 235 191 238 235 191 166 164 133 166 164 133 166 164 133 166 164 133 238 235 191 238 235 191 238 235 191 231 224 182 231 224 182 231 224 182 231 224 182 161 156 127 161 156 127 222 214 163 222 214 163 222 214 163 222 214 163 155 149 114 155 149 114 155 149 114 147 141 109 155 149 114 155 149 114 155 149 114 155 149 114 155 149 114 155 149 114 155 149 114 155 149 114 155 149 114 161 156 127 161 156 127 161 156 127 166 164 133 161 156 127 166 164 133 166 164 133 166 164 133 166 164 133 156 159 126 166 164 133 156 159 126 156 159 126 156 159 126 156 159 126 156 159 126 156 159 126 156 159 126 146 150 119 156 159 126 146 150 119 146 150 119 146 150 119 146 150 119 146 150 119 146 150 119 209 215 171 132 142 105 132 142 105 132 142 105 132 142 105 116 137 99 116 137 99 116 137 99 102 133 97 102 133 97 102 133 97 102 133 97 120 145 115 120 145 115 120 145 115 151 169 177 216 242 254 151 169 177 137 164 178 137 164 178 197 235 255 137 164 178 137 164 178 197 235 255 197 235 255 128 158 178 128 158 178 184 227 255 184 227 255 184 227 255 184 227 255 184 227 255 184 227 255 184 227 255 184 227 255 184 227 255 197 235 255 197 235 255 197 235 255 197 235 255 197 235 255 197 235 255 197 235 255 197 235 255 197 235 255 197 235 255 197 235 255 197 235 255 216 242 254 216 242 254 216 242 254 216 242 254 216 242 254 216 242 254 216 242 254 151 169 177 216 242 254 151 169 177 216 242 254 151 169 177 216 242 254 151 169 177 151 169 177 216 242 254 137 164 178 137 164 178 137 164 178 197 235 255 137 164 178 197 235 255 197 235 255 197 235 255 197 235 255 197 235 255 197 235 255 197 235 255 197 235 255 197 235 255 197 235 255 137 164 178 137 164 178 137 164 178 128 158 178 128 158 178 128 158 178 184 227 255 128 158 178 184 227 255 184 227 255 184 227 255 184 227 255 128 158 178 128 158 178 184 227 255 184 227 255

150 201 240 150 201 240 150 201 240 150 201 240 105 140 168 150 201 240 150 201 240 150 201 240 150 201 240 160 210 247 160 210 247 160 210 247 160 210 247 172 218 250 172 218 250 172 218 250 184 227 255 184 227 255 197 235 255 197 235 255 216 242 254 216 242 254 172 208 165 172 208 165 147 191 139 147 191 139 147 191 139 167 197 142 189 204 150 189 204 150 189 204 150 209 215 171 209 215 171 224 228 180 224 228 180 224 228 180 224 228 180 238 235 191 238 235 191 238 235 191 231 224 182 231 224 182 231 224 182 161 156 127 231 224 182 161 156 127 161 156 127 161 156 127 161 156 127 161 156 127 222 214 163 155 149 114 222 214 163 155 149 114 222 214 163 155 149 114 155 149 114 222 214 163 222 214 163 222 214 163 222 214 163 155 149 114 155 149 114 155 149 114 155 149 114 155 149 114 155 149 114 155 149 114 147 141 109 147 141 109 210 202 157 147 141 109 155 149 114 210 202 157 210 202 157 155 149 114 155 149 114 155 149 114 155 149 114 155 149 114 155 149 114 155 149 114 155 149 114 161 156 127 161 156 127 161 156 127 161 156 127 161 156 127 166 164 133 238 235 191 238 235 191 166 164 133 166 164 133 166 164 133 238 235 191 166 164 133 238 235 191 238 235 191 156 159 126 238 235 191 156 159 126 238 235 191 238 235 191 166 164 133 238 235 191 166 164 133 238 235 191 166 164 133 238 235 191 238 235 191 238 235 191 238 235 191 166 164 133 231 224 182 161 156 127 161 156 127 161 156 127 161 156 127 231 224 182 231 224 182 222 214 163 222 214 163 155 149 114 155 149 114 155 149 114 155 149 114 155 149 114 155 149 114 155 149 114 155 149 114 155 149 114 155 149 114 155 149 114 155 149 114 161 156 127 161 156 127 161 156 127 161 156 127 166 164 133 166 164 133 166 164 133 166 164 133 166 164 133 166 164 133 156 159 126 156 159 126 224 228 180 156 159 126 156 159 126 156 159 126 156 159 126 156 159 126 156 159 126 156 159 126 146 150 119 146 150 119 146 150 119 146 150 119 146 150 119 146 150 119 146 150 119 146 150 119 209 215 171 132 142 105 132 142 105 132 142 105 132 142 105 116 137 99 167 197 142 116 137 99 102 133 97 102 133 97 102 133 97 102 133 97 120 145 115 120 145 115 172 208 165 120 145 115 151 169 177 151 169 177 216 242 254 197 235 255 197 235 255 137 164 178 137 164 178 137 164 178 137 164 178 197 235 255 184 227 255 197 235 255 197 235 255 184 227 255 184 227 255 184 227 255 184 227 255 184 227 255 184 227 255 197 235 255 197 235 255 197 235 255 197 235 255 197 235 255 197 235 255 197 235 255 197 235 255 197 235 255 137 164 178 197 235 255 197 235 255 197 235 255 216 242 254 216 242 254 216 242 254 216 242 254 216 242 254 151 169 177 216 242 254 216 242 254 216 242 254 151 169 177 216 242 254 216 242 254 216 242 254 151 169 177 216 242 254 216 242 254 216 242 254 197 235 255 197 235 255 197 235 255 197 235 255 197 235 255 197 235 255 137 164 178 197 235 255 197 235 255 197 235 255 197 235 255 197 235 255 197 235 255 197 235 255 137 164 178 137 164 178 137 164 178 197 235 255 184 227 255 128 158 178 184 227 255 184 227 255 128 158 178 184 227 255 184 227 255 128 158 178 184 227 255 184 227 255 184 227 255 184 227 255

150 201 240 150 201 240 150 201 240 150 201 240 150 201 240 150 201 240 160 210 247 160 210 247 160 210 247 160 210 247 160 210 247 160 210 247 172 218 250 172 218 250 172 218 250 184 227 255 184 227 255 197 235 255 197 235 255 216 242 254 216 242 254 216 242 254 172 208 165 172 208 165 147 191 139 147 191 139 167 197 142 167 197 142 189 204 150 189 204 150 209 215 171 209 215 171 209 215 171 224 228 180 224 228 180 224 228 180 238 235 191 238 235 191 238 235 191 238 235 191 231 224 182 231 224 182 231 224 182 161 156 127 231 224 182 231 224 182 231 224 182 231 224 182 231 224 182 161 156 127 161 156 127 155 149 114 222 214 163 155 149 114 155 149 114 161 156 127 161 156 127 161 156 127 222 214 163 222 214 163 222 214 163 155 149 114 155 149 114 155 149 114 155 149 114 155 149 114 222 214 163 155 149 114 210 202 157 155 149 114 147 141 109 155 149 114 155 149 114 155 149 114 155 149 114 155 149 114 155 149 114 155 149 114 155 149 114 155 149 114 222 214 163 155 149 114 155 149 114 161 156 127 231 224 182 161 156 127 161 156 127 161 156 127 161 156 127 166 164 133 238 235 191 238 235 191 238 235 191 238 235 191 238 235 191 166 164 133 238 235 191 166 164 133 166 164 133 156 159 126 156 159 126 238 235 191 238 235 191 238 235 191 238 235 191 166 164 133 166 164 133 166 164 133 166 164 133 156 159 126 166 164 133 166 164 133 238 235 191 231 224 182 231 224 182 231 224 182 161 156 127 161 156 127 231 224 182 231 224 182 222 214 163 155 149 114 155 149 114 222 214 163 222 214 163 155 149 114 155 149 114 155 149 114 155 149 114 155 149 114 161 156 127 161 156 127 161 156 127 161 156 127 161 156 127 161 156 127 161 156 127 161 156 127 166 164 133 166 164 133 166 164 133 166 164 133 166 164 133 156 159 126 156 159 126 224 228 180 156 159 126 156 159 126 156 159 126 156 159 126 156 159 126 146 150 119 146 150 119 146 150 119 146 150 119 146 150 119 146 150 119 146 150 119 146 150 119 146 150 119 209 215 171 209 215 171 209 215 171 132 142 105 189 204 150 132 142 105 132 142 105 116 137 99 116 137 99 116 137 99 116 137 99 102 133 97 147 191 139 102 133 97 102 133 97 120 145 115 172 208 165 172 208 165 172 208 165 216 242 254 216 242 254 216 242 254 197 235 255 137 164 178 137 164 178 137 164 178 197 235 255 197 235 255 197 235 255 197 235 255 197 235 255 197 235 255 197 235 255 197 235 255 197 235 255 197 235 255 197 235 255 197 235 255 197 235 255 197 235 255 216 242 254 197 235 255 216 242 254 216 242 254 216 242 254 216 242 254 216 242 254 197 235 255 216 242 254 216 242 254 216 242 254 216 242 254 216 242 254 216 242 254 216 242 254 216 242 254 216 242 254 216 242 254 216 242 254 151 169 177 216 242 254 216 242 254 151 169 177 151 169 177 216 242 254 216 242 254 216 242 254 151 169 177 216 242 254 197 235 255 216 242 254 137 164 178 137 164 178 197 235 255 197 235 255 197 235 255 197 235 255 137 164 178 197 235 255 197 235 255 197 235 255 137 164 178 197 235 255 197 235 255 197 235 255 197 235 255 128 158 178 184 227 255 184 227 255 184 227 255 184 227 255 128 158 178 184 227 255 184 227 255 128 158 178 184 227 255 128 158 178

150 201 240 150 201 240 150 201 240 160 210 247 160 210 247 160 210 247 160 210 247 160 210 247 160 210 247 160 210 247 160 210 247 160 210 247 172 218 250 172 218 250 184 227 255 184 227 255 184 227 255 197 235 255 197 235 255 216 242 254 216 242 254 216 242 254 172 208 165 147 191 139 147 191 139 147 191 139 167 197 142 167 197 142 189 204 150 189 204 150 189 204 150 209 215 171 209 215 171 224 228 180 224 228 180 238 235 191 238 235 191 238 235 191 238 235 191 238 235 191 238 235 191 161 156 127 231 224 182 231 224 182 231 224 182 231 224 182 231 224 182 231 224 182 231 224 182 231 224 182 231 224 182 222 214 163 222 214 163 155 149 114 155 149 114 161 156 127 161 156 127 231 224 182 161 156 127 222 214 163 222 214 163 222 214 163 155 149 114 222 214 163 155 149 114 155 149 114 155 149 114 155 149 114 155 149 114 155 149 114 155 149 114 155 149 114 155 149 114 155 149 114 155 149 114 155 149 114 155 149 114 222 214 163 155 149 114 155 149 114 155 149 114 155 149 114 161 156 127 161 156 127 161 156 127 161 156 127 161 156 127 161 156 127 166 164 133 166 164 133 238 235 191 238 235 191 166 164 133 166 164 133 238 235 191 166 164 133 166 164 133 156 159 126 238 235 191 156 159 126 224 228 180 224 228 180 238 235 191 238 235 191 238 235 191 166 164 133 166 164 133 166 164 133 238 235 191 156 159 126 238 235 191 166 164 133 238 235 191 238 235 191 166 164 133 166 164 133 231 224 182 161 156 127 231 224 182 231 224 182 231 224 182 161 156 127 161 156 127 161 156 127 155 149 114 155 149 114 155 149 114 161 156 127 155 149 114 161 156 127 161 156 127 161 156 127 161 156 127 161 156 127 161 156 127 161 156 127 166 164 133 166 164 133 166 164 133 166 164 133 156 159 126 156 159 126 156 159 126 156 159 126 156 159 126 156 159 126 156 159 126 156 159 126 156 159 126 156 159 126 146 150 119 146 150 119 146 150 119 146 150 119 146 150 119 146 150 119 146 150 119 146 150 119 146 150 119 209 215 171 146 150 119 209 215 171 209 215 171 132 142 105 132 142 105 132 142 105 132 142 105 132 142 105 116 137 99 116 137 99 167 197 142 167 197 142 147 191 139 147 191 139 102 133 97 147 191 139 172 208 165 120 145 115 120 145 115 172 208 165 151 169 177 151 169 177 151 169 177 197 235 255 197 235 255 197 235 255 197 235 255 197 235 255 137 164 178 197 235 255 197 235 255 197 235 255 197 235 255 197 235 255 197 235 255 197 235 255 197 235 255 197 235 255 197 235 255 216 242 254 216 242 254 216 242 254 216 242 254 216 242 254 216 242 254 216 242 254 216 242 254 216 242 254 216 242 254 216 242 254 216 242 254 216 242 254 216 242 254 216 242 254 216 242 254 151 169 177 151 169 177 151 169 177 151 169 177 151 169 177 216 242 254 151 169 177 151 169 177 151 169 177 137 164 178 151 169 177 151 169 177 216 242 254 216 242 254 216 242 254 216 242 254 137 164 178 197 235 255 197 235 255 197 235 255 216 242 254 216 242 254 137 164 178 216 242 254 197 235 255 137 164 178 137 164 178 137 164 178 137 164 178 137 164 178 197 235 255 197 235 255 197 235 255 197 235 255 197 235 255 184 227 255 184 227 255 184 227 255 184 227 255 184 227 255 184 227 255 184 227 255

160 210 247 160 210 247 160 210 247 160 210 247 160 210 247 160 210 247 160 210 247 160 210 247 160 210 247 160 210 247 160 210 247 172 218 250 172 218 250 172 218 250 184 227 255 184 227 255 184 227 255 197 235 255 197 235 255 216 242 254 216 242 254 172 208 165 172 208 165 147 191 139 147 191 139 147 191 139 167 197 142 167 197 142 189 204 150 189 204 150 209 215 171 209 215 171 224 228 180 224 228 180 224 228 180 238 235 191 238 235 191 238 235 191 238 235 191 238 235 191 231 224 182 231 224 182 231 224 182 231 224 182 231 224 182 231 224 182 231 224 182 231 224 182 231 224 182 161 156 127 231 224 182 231 224 182 222 214 163 161 156 127 161 156 127 161 156 127 161 156 127 231 224 182 231 224 182 222 214 163 222 214 163 222 214 163 222 214 163 222 214 163 155 149 114 155 149 114 222 214 163 155 149 114 155 149 114 155 149 114 155 149 114 155 149 114 155 149 114 155 149 114 155 149 114 155 149 114 222 214 163 155 149 114 155 149 114 155 149 114 155 149 114 155 149 114 161 156 127 161 156 127 161 156 127 161 156 127 161 156 127 161 156 127 166 164 133 238 235 191 166 164 133 166 164 133 166 164 133 238 235 191 166 164 133 166 164 133 156 159 126 156 159 126 224 228 180 156 159 126 224 228 180 224 228 180 238 235 191 238 235 191 238 235 191 166 164 133 166 164 133 238 235 191 166 164 133 156 159 126 156 159 126 238 235 191 238 235 191 238 235 191 238 235 191 238 235 191 166 164 133 231 224 182 231 224 182 231 224 182 161 156 127 231 224 182 161 156 127 161 156 127 161 156 127 161 156 127 161 156 127 161 156 127 231 224 182 161 156 127 161 156 127 161 156 127 161 156 127 166 164 133 161 156 127 166 164 133 166 164 133 166 164 133 166 164 133 166 164 133 156 159 126 156 159 126 156 159 126 156 159 126 156 159 126 156 159 126 224 228 180 156 159 126 156 159 126 146 150 119 146 150 119 146 150 119 146 150 119 146 150 119 146 150 119 146 150 119 146 150 119 146 150 119 146 150 119 209 215 171 209 215 171 209 215 171 209 215 171 132 142 105 132 142 105 189 204 150 132 142 105 189 204 150 189 204 150 167 197 142 167 197 142 116 137 99 102 133 97 147 191 139 102 133 97 147 191 139 147 191 139 120 145 115 172 208 165 120 145 115 151 169 177 216 242 254 151 169 177 216 242 254 216 242 254 137 164 178 137 164 178 197 235 255 197 235 255 197 235 255 197 235 255 197 235 255 197 235 255 197 235 255 197 235 255 197 235 255 197 235 255 197 235 255 216 242 254 216 242 254 216 242 254 216 242 254 216 242 254 216 242 254 216 242 254 216 242 254 216 242 254 216 242 254 216 242 254 216 242 254 216 242 254 216 242 254 216 242 254 216 242 254 216 242 254 151 169 177 216 242 254 216 242 254 172 208 165 216 242 254 216 242 254 151 169 177 151 169 177 151 169 177 216 242 254 216 242 254 216 242 254 216 242 254 216 242 254 216 242 254 216 242 254 216 242 254 216 242 254 197 235 255 137 164 178 216 242 254 216 242 254 137 164 178 216 242 254 216 242 254 216 242 254 137 164 178 137 164 178 197 235 255 137 164 178 197 235 255 197 235 255 197 235 255 197 235 255 197 235 255 197 235 255 197 235 255 184 227 255 128 158 178 184 227 255 128 158 178 184 227 255

160 210 247 160 210 247 160 210 247 160 210 247 160 210 247 160 210 247 160 210 247 160 210 247 160 210 247 160 210 247 172 218 250 172 218 250 172 218 250 172 218 250 184 227 255 184 227 255 197 235 255 197 235 255 197 235 255 216 242 254 216 242 254 172 208 165 172 208 165 147 191 139 147 191 139 167 197 142 167 197 142 167 197 142 189 204 150 189 204 150 209 215 171 209 215 171 224 228 180 224 228 180 224 228 180 238 235 191 238 235 191 238 235 191 238 235 191 231 224 182 231 224 182 231 224 182 231 224 182 231 224 182 231 224 182 231 224 182 231 224 182 231 224 182 231 224 182 231 224 182 231 224 182 231 224 182 161 156 127 161 156 127 161 156 127 161 156 127 161 156 127 231 224 182 231 224 182 161 156 127 155 149 114 155 149 114 155 149 114 155 149 114 155 149 114 155 149 114 155 149 114 155 149 114 155 149 114 222 214 163 155 149 114 161 156 127 161 156 127 161 156 127 222 214 163 155 149 114 222 214 163 155 149 114 155 149 114 222 214 163 161 156 127 161 156 127 161 156 127 161 156 127 161 156 127 161 156 127 161 156 127 161 156 127 166 164 133 166 164 133 166 164 133 166 164 133 238 235 191 238 235 191 166 164 133 166 164 133 156 159 126 156 159 126 156 159 126 224 228 180 238 235 191 238 235 191 238 235 191 166 164 133 166 164 133 166 164 133 166 164 133 166 164 133 156 159 126 156 159 126 156 159 126 224 228 180 156 159 126 238 235 191 238 235 191 166 164 133 166 164 133 238 235 191 231 224 182 231 224 182 161 156 127 231 224 182 161 156 127 161 156 127 161 156 127 161 156 127 161 156 127 231 224 182 231 224 182 161 156 127 161 156 127 161 156 127 161 156 127 166 164 133 166 164 133 166 164 133 166 164 133 166 164 133 156 159 126 156 159 126 156 159 126 156 159 126 156 159 126 156 159 126 156 159 126 156 159 126 224 228 180 156 159 126 156 159 126 146 150 119 146 150 119 146 150 119 146 150 119 146 150 119 146 150 119 146 150 119 146 150 119 146 150 119 209 215 171 209 215 171 209 215 171 146 150 119 146 150 119 132 142 105 132 142 105 189 204 150 132 142 105 132 142 105 116 137 99 116 137 99 116 137 99 116 137 99 167 197 142 147 191 139 102 133 97 147 191 139 147 191 139 147 191 139 120 145 115 120 145 115 172 208 165 151 169 177 151 169 177 216 242 254 151 169 177 216 242 254 197 235 255 197 235 255 197 235 255 197 235 255 197 235 255 197 235 255 197 235 255 197 235 255 197 235 255 197 235 255 197 235 255 216 242 254 216 242 254 216 242 254 216 242 254 216 242 254 216 242 254 216 242 254 216 242 254 216 242 254 216 242 254 172 208 165 216 242 254 172 208 165 151 169 177 216 242 254 216 242 254 216 242 254 216 242 254 216 242 254 216 242 254 216 242 254 151 169 177 151 169 177 151 169 177 151 169 177 151 169 177 151 169 177 151 169 177 137 164 178 137 164 178 137 164 178 137 164 178 151 169 177 151 169 177 151 169 177 137 164 178 216 242 254 216 242 254 216 242 254 216 242 254 216 242 254 216 242 254 216 242 254 137 164 178 137 164 178 197 235 255 197 235 255 197 235 255 197 235 255 197 235 255 197 235 255 197 235 255 197 235 255 197 235 255 197 235 255 197 235 255 128 158 178 128 158 178 128 158 178 184 227 255

160 210 247 160 210 247 160 210 247 160 210 247 160 210 247 160 210 247 160 210 247 160 210 247 160 210 247 160 210 247 172 218 250 172 218 250 172 218 250 172 218 250 184 227 255 184 227 255 197 235 255 197 235 255 216 242 254 216 242 254 172 208 165 172 208 165 172 208 165 147 191 139 147 191 139 167 197 142 167 197 142 189 204 150 189 204 150 209 215 171 209 215 171 224 228 180 224 228 180 224 228 180 238 235 191 238 235 191 238 235 191 238 235 191 231 224 182 231 224 182 231 224 182 231 224 182 231 224 182 231 224 182 231 224 182 231 224 182 231 224 182 222 214 163 222 214 163 231 224 182 231 224 182 161 156 127 161 156 127 161 156 127 161 156 127 161 156 127 161 156 127 231 224 182 161 156 127 231 224 182 222 214 163 161 156 127 161 156 127 155 149 114 222 214 163 222 214 163 222 214 163 155 149 114 155 149 114 222 214 163 161 156 127 161 156 127 161 156 127 161 156 127 161 156 127 161 156 127 161 156 127 155 149 114 222 214 163 161 156 127 161 156 127 161 156 127 231 224 182 161 156 127 161 156 127 161 156 127 231 224 182 231 224 182 231 224 182 238 235 191 238 235 191 166 164 133 238 235 191 166 164 133 166 164 133 238 235 191 238 235 191 238 235 191 224 228 180 224 228 180 238 235 191 238 235 191 156 159 126 238 235 191 238 235 191 166 164 133 238 235 191 156 159 126 156 159 126 224 228 180 156 159 126 224 228 180 156 159 126 224 228 180 238 235 191 238 235 191 238 235 191 238 235 191 231 224 182 231 224 182 231 224 182 231 224 182 161 156 127 161 156 127 161 156 127 161 156 127 231 224 182 161 156 127 231 224 182 161 156 127 161 156 127 166 164 133 166 164 133 166 164 133 166 164 133 166 164 133 156 159 126 156 159 126 156 159 126 156 159 126 156 159 126 156 159 126 156 159 126 224 228 180 224 228 180 224 228 180 224 228 180 156 159 126 156 159 126 146 150 119 146 150 119 146 150 119 146 150 119 146 150 119 146 150 119 146 150 119 146 150 119 146 150 119 209 215 171 209 215 171 209 215 171 146 150 119 146 150 119 132 142 105 189 204 150 132 142 105 132 142 105 132 142 105 132 142 105 116 137 99 116 137 99 116 137 99 167 197 142 116 137 99 102 133 97 147 191 139 147 191 139 102 133 97 102 133 97 120 145 115 120 145 115 151 169 177 216 242 254 216 242 254 216 242 254 216 242 254 137 164 178 137 164 178 197 235 255 137 164 178 197 235 255 197 235 255 137 164 178 197 235 255 216 242 254 197 235 255 216 242 254 216 242 254 216 242 254 216 242 254 216 242 254 216 242 254 216 242 254 216 242 254 216 242 254 216 242 254 216 242 254 172 208 165 172 208 165 216 242 254 151 169 177 216 242 254 216 242 254 216 242 254 216 242 254 216 242 254 172 208 165 216 242 254 216 242 254 151 169 177 216 242 254 151 169 177 151 169 177 151 169 177 137 164 178 137 164 178 197 235 255 197 235 255 216 242 254 216 242 254 216 242 254 216 242 254 216 242 254 216 242 254 216 242 254 216 242 254 216 242 254 216 242 254 216 242 254 151 169 177 137 164 178 137 164 178 197 235 255 216 242 254 216 242 254 216 242 254 197 235 255 197 235 255 216 242 254 197 235 255 137 164 178 137 164 178 137 164 178 128 158 178 184 227 255 184 227 255 128 158 178

160 210 247 112 147 172 160 210 247 160 210 247 160 210 247 160 210 247 160 210 247 172 218 250 172 218 250 172 218 250 172 218 250 184 227 255 184 227 255 184 227 255 184 227 255 197 235 255 197 235 255 197 235 255 216 242 254 216 242 254 172 208 165 172 208 165 172 208 165 147 191 139 147 191 139 167 197 142 167 197 142 189 204 150 189 204 150 209 215 171 209 215 171 224 228 180 224 228 180 238 235 191 238 235 191 238 235 191 238 235 191 238 235 191 238 235 191 231 224 182 231 224 182 231 224 182 231 224 182 231 224 182 231 224 182 231 224 182 231 224 182 231 224 182 161 156 127 161 156 127 161 156 127 161 156 127 231 224 182 231 224 182 231 224 182 231 224 182 231 224 182 231 224 182 231 224 182 231 224 182 161 156 127 161 156 127 231 224 182 222 214 163 222 214 163 161 156 127 161 156 127 161 156 127 161 156 127 161 156 127 161 156 127 231 224 182 231 224 182 231 224 182 231 224 182 161 156 127 231 224 182 231 224 182 161 156 127 161 156 127 161 156 127 161 156 127 161 156 127 161 156 127 161 156 127 161 156 127 231 224 182 166 164 133 166 164 133 166 164 133 166 164 133 166 164 133 166 164 133 166 164 133 166 164 133 238 235 191 238 235 191 238 235 191 238 235 191 238 235 191 238 235 191 238 235 191 156 159 126 238 235 191 238 235 191 238 235 191 156 159 126 156 159 126 238 235 191 224 228 180 156 159 126 224 228 180 156 159 126 224 228 180 238 235 191 238 235 191 238 235 191 238 235 191 166 164 133 166 164 133 161 156 127 161 156 127 161 156 127 161 156 127 161 156 127 231 224 182 161 156 127 161 156 127 161 156 127 161 156 127 166 164 133 166 164 133 166 164 133 166 164 133 166 164 133 166 164 133 156 159 126 156 159 126 156 159 126 156 159 126 156 159 126 156 159 126 224 228 180 156 159 126 156 159 126 156 159 126 156 159 126 146 150 119 146 150 119 146 150 119 146 150 119 146 150 119 146 150 119 146 150 119 132 142 105 132 142 105 132 142 105 132 142 105 146 150 119 146 150 119 146 150 119 146 150 119 132 142 105 132 142 105 132 142 105 132 142 105 132 142 105 132 142 105 132 142 105 116 137 99 116 137 99 116 137 99 116 137 99 116 137 99 102 133 97 102 133 97 102 133 97 102 133 97 102 133 97 120 145 115 120 145 115 172 208 165 151 169 177 151 169 177 216 242 254 216 242 254 216 242 254 216 242 254 216 242 254 216 242 254 197 235 255 197 235 255 197 235 255 197 235 255 197 235 255 216 242 254 216 242 254 216 242 254 216 242 254 216 242 254 216 242 254 216 242 254 216 242 254 216 242 254 216 242 254 172 208 165 172 208 165 172 208 165 172 208 165 120 145 115 172 208 165 172 208 165 216 242 254 151 169 177 216 242 254 216 242 254 216 242 254 151 169 177 151 169 177 151 169 177 151 169 177 151 169 177 151 169 177 151 169 177 151 169 177 197 235 255 197 235 255 216 242 254 216 242 254 216 242 254 151 169 177 137 164 178 151 169 177 137 164 178 137 164 178 216 242 254 151 169 177 151 169 177 151 169 177 151 169 177 137 164 178 137 164 178 197 235 255 216 242 254 216 242 254 151 169 177 216 242 254 197 235 255 197 235 255 137 164 178 137 164 178 137 164 178 137 164 178 128 158 178 184 227 255 184 227 255 184 227 255

160 210 247 112 147 172 160 210 247 160 210 247 160 210 247 160 210 247 172 218 250 172 218 250 172 218 250 172 218 250 172 218 250 184 227 255 184 227 255 184 227 255 197 235 255 197 235 255 197 235 255 216 242 254 216 242 254 216 242 254 172 208 165 172 208 165 147 191 139 147 191 139 147 191 139 167 197 142 189 204 150 189 204 150 209 215 171 209 215 171 209 215 171 224 228 180 224 228 180 238 235 191 238 235 191 238 235 191 238 235 191 238 235 191 238 235 191 231 224 182 231 224 182 231 224 182 231 224 182 231 224 182 231 224 182 231 224 182 231 224 182 231 224 182 161 156 127 161 156 127 161 156 127 161 156 127 231 224 182 161 156 127 231 224 182 161 156 127 231 224 182 231 224 182 231 224 182 231 224 182 231 224 182 231 224 182 161 156 127 161 156 127 161 156 127 161 156 127 161 156 127 161 156 127 231 224 182 161 156 127 161 156 127 231 224 182 231 224 182 231 224 182 222 214 163 231 224 182 231 224 182 231 224 182 231 224 182 161 156 127 161 156 127 161 156 127 161 156 127 161 156 127 161 156 127 161 156 127 166 164 133 166 164 133 166 164 133 166 164 133 166 164 133 166 164 133 238 235 191 166 164 133 166 164 133 238 235 191 238 235 191 238 235 191 166 164 133 238 235 191 238 235 191 238 235 191 166 164 133 238 235 191 238 235 191 238 235 191 156 159 126 238 235 191 238 235 191 156 159 126 224 228 180 224 228 180 224 228 180 224 228 180 238 235 191 238 235 191 166 164 133 166 164 133 166 164 133 166 164 133 166 164 133 166 164 133 166 164 133 231 224 182 161 156 127 161 156 127 161 156 127 161 156 127 166 164 133 166 164 133 166 164 133 166 164 133 166 164 133 166 164 133 166 164 133 156 159 126 156 159 126 224 228 180 224 228 180 156 159 126 156 159 126 224 228 180 224 228 180 156 159 126 156 159 126 146 150 119 156 159 126 146 150 119 146 150 119 146 150 119 146 150 119 146 150 119 132 142 105 132 142 105 132 142 105 189 204 150 132 142 105 189 204 150 209 215 171 132 142 105 132 142 105 132 142 105 132 142 105 132 142 105 132 142 105 132 142 105 132 142 105 189 204 150 189 204 150 116 137 99 167 197 142 116 137 99 116 137 99 102 133 97 167 197 142 102 133 97 102 133 97 102 133 97 102 133 97 120 145 115 120 145 115 120 145 115 151 169 177 216 242 254 216 242 254 216 242 254 216 242 254 216 242 254 216 242 254 216 242 254 216 242 254 216 242 254 216 242 254 216 242 254 216 242 254 216 242 254 151 169 177 216 242 254 216 242 254 216 242 254 172 208 165 216 242 254 172 208 165 172 208 165 172 208 165 172 208 165 172 208 165 172 208 165 120 145 115 120 145 115 172 208 165 172 208 165 151 169 177 216 242 254 172 208 165 216 242 254 172 208 165 216 242 254 216 242 254 151 169 177 151 169 177 151 169 177 151 169 177 151 169 177 216 242 254 216 242 254 216 242 254 216 242 254 216 242 254 216 242 254 151 169 177 216 242 254 216 242 254 137 164 178 216 242 254 197 235 255 151 169 177 216 242 254 151 169 177 137 164 178 137 164 178 197 235 255 197 235 255 197 235 255 137 164 178 216 242 254 216 242 254 216 242 254 216 242 254 137 164 178 137 164 178 137 164 178 197 235 255 137 164 178 197 235 255 184 227 255 184 227 255

172 218 250 112 147 172 160 210 247 160 210 247 172 218 250 172 218 250 172 218 250 172 218 250 172 218 250 172 218 250 184 227 255 184 227 255 184 227 255 197 235 255 197 235 255 197 235 255 197 235 255 216 242 254 216 242 254 172 208 165 172 208 165 147 191 139 147 191 139 147 191 139 167 197 142 167 197 142 189 204 150 189 204 150 209 215 171 209 215 171 209 215 171 224 228 180 224 228 180 224 228 180 238 235 191 238 235 191 238 235 191 238 235 191 238 235 191 238 235 191 166 164 133 231 224 182 161 156 127 161 156 127 231 224 182 231 224 182 161 156 127 161 156 127 161 156 127 161 156 127 161 156 127 231 224 182 161 156 127 161 156 127 231 224 182 231 224 182 231 224 182 161 156 127 231 224 182 161 156 127 161 156 127 161 156 127 161 156 127 161 156 127 161 156 127 161 156 127 161 156 127 231 224 182 161 156 127 161 156 127 161 156 127 231 224 182 161 156 127 161 156 127 231 224 182 161 156 127 231 224 182 231 224 182 161 156 127 161 156 127 161 156 127 161 156 127 161 156 127 161 156 127 166 164 133 161 156 127 166 164 133 166 164 133 166 164 133 166 164 133 166 164 133 238 235 191 238 235 191 166 164 133 166 164 133 166 164 133 166 164 133 166 164 133 166 164 133 238 235 191 238 235 191 166 164 133 156 159 126 166 164 133 156 159 126 166 164 133 156 159 126 238 235 191 156 159 126 156 159 126 224 228 180 156 159 126 156 159 126 224 228 180 224 228 180 238 235 191 238 235 191 238 235 191 238 235 191 166 164 133 166 164 133 238 235 191 166 164 133 238 235 191 166 164 133 166 164 133 166 164 133 166 164 133 166 164 133 166 164 133 166 164 133 166 164 133 166 164 133 166 164 133 166 164 133 156 159 126 156 159 126 224 228 180 156 159 126 156 159 126 156 159 126 156 159 126 156 159 126 156 159 126 156 159 126 146 150 119 146 150 119 146 150 119 146 150 119 146 150 119 146 150 119 132 142 105 132 142 105 132 142 105 132 142 105 189 204 150 132 142 105 189 204 150 132 142 105 132 142 105 132 142 105 132 142 105 189 204 150 132 142 105 132 142 105 132 142 105 132 142 105 132 142 105 116 137 99 116 137 99 116 137 99 116 137 99 116 137 99 167 197 142 102 133 97 102 133 97 102 133 97 102 133 97 120 145 115 120 145 115 172 208 165 120 145 115 120 145 115 216 242 254 151 169 177 216 242 254 216 242 254 216 242 254 216 242 254 216 242 254 216 242 254 216 242 254 216 242 254 216 242 254 216 242 254 216 242 254 216 242 254 216 242 254 216 242 254 216 242 254 216 242 254 172 208 165 216 242 254 172 208 165 172 208 165 172 208 165 172 208 165 172 208 165 120 145 115 172 208 165 172 208 165 120 145 115 172 208 165 172 208 165 216 242 254 151 169 177 172 208 165 151 169 177 151 169 177 151 169 177 151 169 177 151 169 177 216 242 254 216 242 254 216 242 254 216 242 254 216 242 254 216 242 254 216 242 254 151 169 177 216 242 254 216 242 254 137 164 178 137 164 178 216 242 254 216 242 254 197 235 255 216 242 254 151 169 177 137 164 178 137 164 178 197 235 255 197 235 255 197 235 255 216 242 254 216 242 254 151 169 177 151 169 177 151 169 177 137 164 178 137 164 178 137 164 178 197 235 255 137 164 178 197 235 255 197 235 255 197 235 255

172 218 250 112 147 172 172 218 250 172 218 250 172 218 250 172 218 250 172 218 250 172 218 250 172 218 250 184 227 255 184 227 255 184 227 255 197 235 255 197 235 255 197 235 255 197 235 255 216 242 254 216 242 254 172 208 165 172 208 165 172 208 165 147 191 139 147 191 139 167 197 142 167 197 142 167 197 142 189 204 150 189 204 150 209 215 171 209 215 171 209 215 171 224 228 180 224 228 180 224 228 180 224 228 180 238 235 191 238 235 191 166 164 133 166 164 133 166 164 133 238 235 191 231 224 182 231 224 182 231 224 182 231 224 182 231 224 182 161 156 127 231 224 182 231 224 182 161 156 127 161 156 127 231 224 182 231 224 182 231 224 182 231 224 182 231 224 182 231 224 182 231 224 182 231 224 182 231 224 182 231 224 182 231 224 182 231 224 182 161 156 127 161 156 127 231 224 182 231 224 182 231 224 182 161 156 127 161 156 127 231 224 182 231 224 182 161 156 127 161 156 127 161 156 127 231 224 182 222 214 163 161 156 127 161 156 127 161 156 127 161 156 127 161 156 127 161 156 127 161 156 127 166 164 133 166 164 133 166 164 133 166 164 133 166 164 133 166 164 133 166 164 133 238 235 191 238 235 191 166 164 133 166 164 133 238 235 191 238 235 191 238 235 191 238 235 191 238 235 191 238 235 191 166 164 133 166 164 133 238 235 191 238 235 191 238 235 191 238 235 191 224 228 180 238 235 191 238 235 191 238 235 191 156 159 126 156 159 126 224 228 180 238 235 191 238 235 191 238 235 191 166 164 133 238 235 191 166 164 133 238 235 191 238 235 191 166 164 133 166 164 133 166 164 133 166 164 133 166 164 133 166 164 133 166 164 133 166 164 133 166 164 133 166 164 133 166 164 133 166 164 133 156 159 126 156 159 126 156 159 126 224 228 180 156 159 126 156 159 126 224 228 180 156 159 126 156 159 126 156 159 126 146 150 119 146 150 119 146 150 119 146 150 119 146 150 119 146 150 119 146 150 119 132 142 105 189 204 150 189 204 150 189 204 150 132 142 105 132 142 105 132 142 105 132 142 105 189 204 150 132 142 105 132 142 105 132 142 105 132 142 105 132 142 105 116 137 99 116 137 99 116 137 99 116 137 99 116 137 99 116 137 99 116 137 99 116 137 99 102 133 97 102 133 97 102 133 97 102 133 97 102 133 97 120 145 115 120 145 115 172 208 165 120 145 115 120 145 115 172 208 165 172 208 165 172 208 165 172 208 165 216 242 254 216 242 254 216 242 254 216 242 254 216 242 254 216 242 254 216 242 254 216 242 254 216 242 254 216 242 254 216 242 254 216 242 254 216 242 254 172 208 165 172 208 165 172 208 165 172 208 165 172 208 165 120 145 115 120 145 115 120 145 115 120 145 115 172 208 165 172 208 165 172 208 165 172 208 165 172 208 165 172 208 165 216 242 254 172 208 165 151 169 177 151 169 177 151 169 177 151 169 177 151 169 177 216 242 254 216 242 254 216 242 254 216 242 254 216 242 254 216 242 254 216 242 254 151 169 177 216 242 254 151 169 177 137 164 178 197 235 255 216 242 254 216 242 254 216 242 254 216 242 254 216 242 254 216 242 254 137 164 178 197 235 255 216 242 254 216 242 254 216 242 254 151 169 177 216 242 254 216 242 254 216 242 254 216 242 254 137 164 178 197 235 255 197 235 255 197 235 255 197 235 255 197 235 255 197 235 255

172 218 250 172 218 250 172 218 250 172 218 250 172 218 250 172 218 250 172 218 250 172 218 250 172 218 250 184 227 255 184 227 255 184 227 255 197 235 255 197 235 255 197 235 255 216 242 254 216 242 254 216 242 254 172 208 165 172 208 165 172 208 165 147 191 139 147 191 139 147 191 139 167 197 142 167 197 142 189 204 150 189 204 150 209 215 171 209 215 171 209 215 171 224 228 180 224 228 180 224 228 180 238 235 191 238 235 191 238 235 191 166 164 133 166 164 133 166 164 133 238 235 191 231 224 182 231 224 182 231 224 182 231 224 182 161 156 127 161 156 127 231 224 182 161 156 127 161 156 127 231 224 182 231 224 182 231 224 182 231 224 182 231 224 182 161 156 127 161 156 127 161 156 127 161 156 127 161 156 127 231 224 182 161 156 127 161 156 127 161 156 127 161 156 127 231 224 182 161 156 127 161 156 127 231 224 182 161 156 127 231 224 182 231 224 182 231 224 182 161 156 127 231 224 182 231 224 182 231 224 182 161 156 127 161 156 127 161 156 127 161 156 127 161 156 127 166 164 133 166 164 133 166 164 133 166 164 133 166 164 133 166 164 133 166 164 133 238 235 191 238 235 191 238 235 191 238 235 191 166 164 133 238 235 191 238 235 191 238 235 191 166 164 133 166 164 133 238 235 191 238 235 191 166 164 133 238 235 191 238 235 191 238 235 191 238 235 191 238 235 191 238 235 191 238 235 191 156 159 126 166 164 133 156 159 126 156 159 126 224 228 180 238 235 191 238 235 191 238 235 191 238 235 191 238 235 191 238 235 191 238 235 191 238 235 191 166 164 133 166 164 133 166 164 133 166 164 133 166 164 133 166 164 133 166 164 133 166 164 133 166 164 133 166 164 133 156 159 126 166 164 133 156 159 126 156 159 126 156 159 126 156 159 126 156 159 126 156 159 126 156 159 126 156 159 126 146 150 119 146 150 119 146 150 119 146 150 119 209 215 171 146 150 119 146 150 119 146 150 119 146 150 119 146 150 119 189 204 150 189 204 150 132 142 105 132 142 105 132 142 105 132 142 105 132 142 105 132 142 105 132 142 105 132 142 105 132 142 105 132 142 105 116 137 99 116 137 99 116 137 99 116 137 99 116 137 99 116 137 99 116 137 99 116 137 99 102 133 97 102 133 97 102 133 97 102 133 97 147 191 139 102 133 97 147 191 139 172 208 165 172 208 165 120 145 115 172 208 165 172 208 165 172 208 165 172 208 165 172 208 165 120 145 115 172 208 165 172 208 165 216 242 254 216 242 254 216 242 254 216 242 254 216 242 254 216 242 254 216 242 254 216 242 254 216 242 254 172 208 165 172 208 165 172 208 165 172 208 165 172 208 165 172 208 165 172 208 165 172 208 165 172 208 165 172 208 165 172 208 165 172 208 165 120 145 115 120 145 115 120 145 115 172 208 165 151 169 177 151 169 177 151 169 177 151 169 177 151 169 177 151 169 177 216 242 254 216 242 254 151 169 177 216 242 254 151 169 177 216 242 254 216 242 254 216 242 254 216 242 254 216 242 254 151 169 177 137 164 178 216 242 254 197 235 255 216 242 254 137 164 178 151 169 177 151 169 177 137 164 178 137 164 178 197 235 255 216 242 254 216 242 254 216 242 254 216 242 254 216 242 254 216 242 254 151 169 177 151 169 177 137 164 178 197 235 255 197 235 255 197 235 255 197 235 255 197 235 255 197 235 255

172 218 250 172 218 250 120 152 175 172 218 250 172 218 250 172 218 250 172 218 250 172 218 250 184 227 255 184 227 255 184 227 255 184 227 255 197 235 255 197 235 255 197 235 255 216 242 254 216 242 254 172 208 165 172 208 165 172 208 165 147 191 139 147 191 139 147 191 139 167 197 142 167 197 142 189 204 150 189 204 150 189 204 150 209 215 171 209 215 171 209 215 171 224 228 180 224 228 180 238 235 191 238 235 191 238 235 191 238 235 191 238 235 191 238 235 191 238 235 191 238 235 191 238 235 191 231 224 182 231 224 182 231 224 182 231 224 182 231 224 182 231 224 182 231 224 182 161 156 127 231 224 182 161 156 127 231 224 182 231 224 182 222 214 163 222 214 163 222 214 163 222 214 163 231 224 182 161 156 127 231 224 182 161 156 127 161 156 127 161 156 127 161 156 127 231 224 182 231 224 182 231 224 182 231 224 182 231 224 182 231 224 182 231 224 182 231 224 182 231 224 182 231 224 182 231 224 182 222 214 163 161 156 127 161 156 127 161 156 127 161 156 127 161 156 127 166 164 133 166 164 133 166 164 133 166 164 133 166 164 133 166 164 133 238 235 191 238 235 191 238 235 191 238 235 191 238 235 191 166 164 133 166 164 133 166 164 133 166 164 133 238 235 191 238 235 191 238 235 191 238 235 191 166 164 133 166 164 133 166 164 133 238 235 191 156 159 126 156 159 126 166 164 133 238 235 191 238 235 191 238 235 191 156 159 126 156 159 126 224 228 180 224 228 180 166 164 133 166 164 133 238 235 191 238 235 191 166 164 133 238 235 191 166 164 133 166 164 133 238 235 191 166 164 133 166 164 133 238 235 191 238 235 191 238 235 191 166 164 133 166 164 133 156 159 126 156 159 126 156 159 126 156 159 126 156 159 126 156 159 126 156 159 126 156 159 126 146 150 119 146 150 119 146 150 119 146 150 119 146 150 119 146 150 119 146 150 119 146 150 119 146 150 119 209 215 171 146 150 119 209 215 171 146 150 119 209 215 171 189 204 150 132 142 105 132 142 105 189 204 150 189 204 150 132 142 105 189 204 150 189 204 150 132 142 105 132 142 105 132 142 105 116 137 99 116 137 99 116 137 99 116 137 99 116 137 99 116 137 99 116 137 99 102 133 97 102 133 97 102 133 97 147 191 139 147 191 139 102 133 97 102 133 97 102 133 97 102 133 97 120 145 115 172 208 165 172 208 165 172 208 165 172 208 165 172 208 165 120 145 115 172 208 165 172 208 165 172 208 165 172 208 165 172 208 165 172 208 165 216 242 254 216 242 254 216 242 254 216 242 254 172 208 165 172 208 165 172 208 165 172 208 165 172 208 165 172 208 165 172 208 165 172 208 165 172 208 165 172 208 165 172 208 165 172 208 165 172 208 165 172 208 165 172 208 165 172 208 165 172 208 165 120 145 115 151 169 177 172 208 165 216 242 254 151 169 177 151 169 177 151 169 177 151 169 177 151 169 177 216 242 254 216 242 254 216 242 254 216 242 254 216 242 254 216 242 254 151 169 177 216 242 254 151 169 177 137 164 178 216 242 254 216 242 254 197 235 255 151 169 177 216 242 254 216 242 254 216 242 254 216 242 254 216 242 254 216 242 254 216 242 254 216 242 254 216 242 254 216 242 254 216 242 254 216 242 254 216 242 254 216 242 254 216 242 254 216 242 254 216 242 254 216 242 254 216 242 254 216 242 254

172 218 250 120 152 175 172 218 250 172 218 250 172 218 250 172 218 250 184 227 255 184 227 255 184 227 255 184 227 255 184 227 255 197 235 255 197 235 255 197 235 255 216 242 254 216 242 254 216 242 254 172 208 165 172 208 165 172 208 165 147 191 139 147 191 139 147 191 139 167 197 142 167 197 142 189 204 150 189 204 150 189 204 150 209 215 171 209 215 171 209 215 171 224 228 180 224 228 180 224 228 180 238 235 191 238 235 191 238 235 191 238 235 191 238 235 191 238 235 191 238 235 191 231 224 182 231 224 182 231 224 182 231 224 182 231 224 182 231 224 182 231 224 182 161 156 127 161 156 127 231 224 182 231 224 182 231 224 182 231 224 182 231 224 182 222 214 163 222 214 163 222 214 163 161 156 127 161 156 127 231 224 182 161 156 127 161 156 127 161 156 127 231 224 182 231 224 182 231 224 182 161 156 127 231 224 182 231 224 182 231 224 182 231 224 182 231 224 182 231 224 182 161 156 127 231 224 182 231 224 182 161 156 127 231 224 182 161 156 127 231 224 182 161 156 127 161 156 127 166 164 133 166 164 133 166 164 133 166 164 133 238 235 191 166 164 133 238 235 191 238 235 191 238 235 191 166 164 133 166 164 133 166 164 133 166 164 133 166 164 133 238 235 191 166 164 133 166 164 133 166 164 133 166 164 133 156 159 126 238 235 191 238 235 191 156 159 126 224 228 180 224 228 180 156 159 126 238 235 191 156 159 126 156 159 126 224 228 180 224 228 180 224 228 180 238 235 191 238 235 191 238 235 191 238 235 191 238 235 191 238 235 191 166 164 133 238 235 191 166 164 133 166 164 133 166 164 133 238 235 191 166 164 133 166 164 133 166 164 133 156 159 126 156 159 126 156 159 126 156 159 126 156 159 126 156 159 126 156 159 126 156 159 126 146 150 119 146 150 119 146 150 119 146 150 119 146 150 119 146 150 119 146 150 119 146 150 119 146 150 119 146 150 119 209 215 171 146 150 119 209 215 171 209 215 171 209 215 171 146 150 119 189 204 150 132 142 105 189 204 150 132 142 105 132 142 105 189 204 150 132 142 105 132 142 105 132 142 105 116 137 99 116 137 99 167 197 142 116 137 99 116 137 99 116 137 99 116 137 99 102 133 97 102 133 97 102 133 97 147 191 139 102 133 97 102 133 97 147 191 139 102 133 97 102 133 97 102 133 97 147 191 139 172 208 165 147 191 139 172 208 165 147 191 139 172 208 165 172 208 165 172 208 165 172 208 165 172 208 165 172 208 165 172 208 165 172 208 165 172 208 165 172 208 165 172 208 165 172 208 165 172 208 165 172 208 165 172 208 165 172 208 165 172 208 165 172 208 165 172 208 165 172 208 165 172 208 165 172 208 165 172 208 165 172 208 165 172 208 165 172 208 165 172 208 165 172 208 165 120 145 115 120 145 115 151 169 177 151 169 177 151 169 177 151 169 177 151 169 177 216 242 254 216 242 254 216 242 254 216 242 254 216 242 254 216 242 254 216 242 254 216 242 254 151 169 177 151 169 177 216 242 254 151 169 177 216 242 254 216 242 254 151 169 177 216 242 254 216 242 254 216 242 254 216 242 254 216 242 254 216 242 254 216 242 254 216 242 254 216 242 254 216 242 254 216 242 254 151 169 177 216 242 254 216 242 254 216 242 254 151 169 177 216 242 254 216 242 254 216 242 254 216 242 254 216 242 254 216 242 254

172 218 250 172 218 250 172 218 250 172 218 250 172 218 250 172 218 250 184 227 255 184 227 255 197 235 255 184 227 255 197 235 255 197 235 255 197 235 255 216 242 254 216 242 254 172 208 165 172 208 165 172 208 165 172 208 165 172 208 165 172 208 165 147 191 139 147 191 139 167 197 142 167 197 142 167 197 142 189 204 150 189 204 150 209 215 171 209 215 171 224 228 180 224 228 180 238 235 191 224 228 180 238 235 191 238 235 191 238 235 191 238 235 191 238 235 191 231 224 182 231 224 182 231 224 182 231 224 182 231 224 182 231 224 182 231 224 182 231 224 182 161 156 127 161 156 127 161 156 127 231 224 182 161 156 127 231 224 182 161 156 127 231 224 182 222 214 163 222 214 163 222 214 163 161 156 127 161 156 127 161 156 127 231 224 182 231 224 182 231 224 182 231 224 182 231 224 182 231 224 182 231 224 182 222 214 163 231 224 182 161 156 127 231 224 182 222 214 163 231 224 182 161 156 127 231 224 182 231 224 182 161 156 127 161 156 127 161 156 127 161 156 127 161 156 127 161 156 127 166 164 133 166 164 133 166 164 133 238 235 191 166 164 133 166 164 133 238 235 191 238 235 191 166 164 133 166 164 133 166 164 133 166 164 133 166 164 133 166 164 133 166 164 133 166 164 133 238 235 191 238 235 191 166 164 133 156 159 126 156 159 126 238 235 191 156 159 126 238 235 191 156 159 126 238 235 191 224 228 180 156 159 126 156 159 126 224 228 180 224 228 180 238 235 191 238 235 191 238 235 191 238 235 191 238 235 191 238 235 191 238 235 191 166 164 133 166 164 133 166 164 133 166 164 133 166 164 133 166 164 133 166 164 133 166 164 133 156 159 126 156 159 126 156 159 126 156 159 126 156 159 126 156 159 126 156 159 126 224 228 180 146 150 119 146 150 119 146 150 119 146 150 119 209 215 171 146 150 119 146 150 119 146 150 119 209 215 171 209 215 171 209 215 171 209 215 171 146 150 119 132 142 105 209 215 171 146 150 119 132 142 105 132 142 105 132 142 105 132 142 105 132 142 105 132 142 105 189 204 150 189 204 150 132 142 105 189 204 150 116 137 99 116 137 99 116 137 99 116 137 99 116 137 99 116 137 99 102 133 97 102 133 97 102 133 97 102 133 97 147 191 139 147 191 139 102 133 97 147 191 139 147 191 139 147 191 139 147 191 139 147 191 139 147 191 139 147 191 139 147 191 139 147 191 139 147 191 139 147 191 139 147 191 139 147 191 139 147 191 139 172 208 165 120 145 115 120 145 115 172 208 165 172 208 165 172 208 165 172 208 165 172 208 165 172 208 165 172 208 165 172 208 165 172 208 165 172 208 165 172 208 165 147 191 139 147 191 139 147 191 139 120 145 115 120 145 115 120 145 115 172 208 165 172 208 165 172 208 165 120 145 115 172 208 165 151 169 177 151 169 177 151 169 177 216 242 254 216 242 254 151 169 177 216 242 254 216 242 254 216 242 254 172 208 165 216 242 254 216 242 254 151 169 177 151 169 177 151 169 177 151 169 177 216 242 254 216 242 254 216 242 254 216 242 254 216 242 254 216 242 254 216 242 254 216 242 254 216 242 254 216 242 254 216 242 254 216 242 254 216 242 254 216 242 254 216 242 254 216 242 254 216 242 254 151 169 177 216 242 254 216 242 254 216 242 254 216 242 254 216 242 254 216 242 254 216 242 254 172 208 165

172 218 250 172 218 250 172 218 250 172 218 250 172 218 250 172 218 250 184 227 255 184 227 255 197 235 255 197 235 255 197 235 255 197 235 255 197 235 255 216 242 254 216 242 254 172 208 165 172 208 165 172 208 165 172 208 165 172 208 165 147 191 139 147 191 139 147 191 139 167 197 142 167 197 142 167 197 142 189 204 150 189 204 150 209 215 171 209 215 171 209 215 171 224 228 180 224 228 180 156 159 126 238 235 191 238 235 191 238 235 191 238 235 191 238 235 191 231 224 182 161 156 127 161 156 127 231 224 182 231 224 182 161 156 127 161 156 127 161 156 127 161 156 127 161 156 127 161 156 127 161 156 127 231 224 182 231 224 182 231 224 182 231 224 182 222 214 163 222 214 163 161 156 127 161 156 127 161 156 127 231 224 182 231 224 182 161 156 127 161 156 127 161 156 127 161 156 127 161 156 127 231 224 182 231 224 182 161 156 127 161 156 127 231 224 182 231 224 182 161 156 127 161 156 127 231 224 182 231 224 182 161 156 127 161 156 127 161 156 127 161 156 127 161 156 127 231 224 182 166 164 133 166 164 133 166 164 133 238 235 191 238 235 191 238 235 191 238 235 191 238 235 191 238 235 191 238 235 191 166 164 133 166 164 133 156 159 126 156 159 126 156 159 126 156 159 126 156 159 126 156 159 126 156 159 126 156 159 126 156 159 126 224 228 180 156 159 126 156 159 126 156 159 126 224 228 180 156 159 126 156 159 126 156 159 126 224 228 180 224 228 180 224 228 180 166 164 133 166 164 133 238 235 191 238 235 191 166 164 133 166 164 133 166 164 133 166 164 133 166 164 133 238 235 191 166 164 133 238 235 191 238 235 191 166 164 133 156 159 126 156 159 126 156 159 126 156 159 126 224 228 180 156 159 126 156 159 126 156 159 126 146 150 119 146 150 119 146 150 119 146 150 119 146 150 119 146 150 119 146 150 119 146 150 119 209 215 171 146 150 119 146 150 119 146 150 119 146 150 119 146 150 119 209 215 171 132 142 105 132 142 105 132 142 105 132 142 105 132 142 105 132 142 105 189 204 150 189 204 150 132 142 105 116 137 99 116 137 99 116 137 99 167 197 142 116 137 99 116 137 99 116 137 99 116 137 99 102 133 97 147 191 139 102 133 97 102 133 97 147 191 139 102 133 97 102 133 97 102 133 97 102 133 97 102 133 97 147 191 139 102 133 97 102 133 97 147 191 139 147 191 139 147 191 139 147 191 139 147 191 139 147 191 139 147 191 139 102 133 97 120 145 115 120 145 115 172 208 165 172 208 165 172 208 165 120 145 115 172 208 165 172 208 165 172 208 165 172 208 165 172 208 165 172 208 165 147 191 139 147 191 139 172 208 165 102 133 97 147 191 139 120 145 115 120 145 115 172 208 165 172 208 165 172 208 165 172 208 165 120 145 115 120 145 115 120 145 115 216 242 254 216 242 254 216 242 254 216 242 254 216 242 254 216 242 254 151 169 177 216 242 254 216 242 254 151 169 177 151 169 177 151 169 177 151 169 177 216 242 254 151 169 177 216 242 254 216 242 254 151 169 177 216 242 254 216 242 254 216 242 254 151 169 177 216 242 254 216 242 254 216 242 254 216 242 254 216 242 254 216 242 254 216 242 254 151 169 177 151 169 177 216 242 254 216 242 254 216 242 254 216 242 254 216 242 254 216 242 254 216 242 254 216 242 254 172 208 165 172 208 165

172 218 250 172 218 250 172 218 250 184 227 255 184 227 255 184 227 255 184 227 255 184 227 255 197 235 255 197 235 255 197 235 255 197 235 255 197 235 255 216 242 254 216 242 254 172 208 165 172 208 165 172 208 165 172 208 165 172 208 165 147 191 139 147 191 139 147 191 139 167 197 142 167 197 142 167 197 142 189 204 150 189 204 150 209 215 171 209 215 171 224 228 180 224 228 180 224 228 180 224 228 180 238 235 191 238 235 191 238 235 191 238 235 191 166 164 133 166 164 133 231 224 182 231 224 182 231 224 182 231 224 182 231 224 182 161 156 127 231 224 182 231 224 182 161 156 127 231 224 182 231 224 182 231 224 182 231 224 182 231 224 182 231 224 182 161 156 127 161 156 127 161 156 127 161 156 127 161 156 127 231 224 182 161 156 127 231 224 182 231 224 182 231 224 182 231 224 182 231 224 182 231 224 182 231 224 182 161 156 127 231 224 182 231 224 182 161 156 127 161 156 127 231 224 182 161 156 127 231 224 182 161 156 127 161 156 127 161 156 127 231 224 182 161 156 127 161 156 127 166 164 133 166 164 133 238 235 191 238 235 191 238 235 191 238 235 191 166 164 133 166 164 133 166 164 133 166 164 133 156 159 126 156 159 126 156 159 126 156 159 126 156 159 126 156 159 126 156 159 126 156 159 126 156 159 126 224 228 180 156 159 126 156 159 126 156 159 126 224 228 180 224 228 180 224 228 180 156 159 126 156 159 126 156 159 126 156 159 126 224 228 180 156 159 126 156 159 126 238 235 191 238 235 191 238 235 191 166 164 133 166 164 133 166 164 133 166 164 133 156 159 126 156 159 126 156 159 126 156 159 126 238 235 191 156 159 126 156 159 126 156 159 126 156 159 126 156 159 126 156 159 126 156 159 126 156 159 126 156 159 126 146 150 119 146 150 119 146 150 119 146 150 119 146 150 119 146 150 119 146 150 119 209 215 171 209 215 171 209 215 171 146 150 119 146 150 119 132 142 105 209 215 171 209 215 171 209 215 171 132 142 105 132 142 105 132 142 105 132 142 105 132 142 105 189 204 150 132 142 105 116 137 99 116 137 99 116 137 99 116 137 99 167 197 142 116 137 99 116 137 99 102 133 97 102 133 97 102 133 97 102 133 97 102 133 97 102 133 97 102 133 97 102 133 97 102 133 97 147 191 139 147 191 139 147 191 139 147 191 139 147 191 139 147 191 139 102 133 97 147 191 139 147 191 139 147 191 139 147 191 139 147 191 139 147 191 139 147 191 139 147 191 139 147 191 139 172 208 165 172 208 165 172 208 165 120 145 115 172 208 165 172 208 165 172 208 165 172 208 165 172 208 165 172 208 165 147 191 139 147 191 139 102 133 97 147 191 139 147 191 139 147 191 139 147 191 139 172 208 165 172 208 165 172 208 165 147 191 139 120 145 115 120 145 115 172 208 165 172 208 165 151 169 177 151 169 177 216 242 254 216 242 254 216 242 254 216 242 254 216 242 254 216 242 254 151 169 177 151 169 177 151 169 177 151 169 177 216 242 254 151 169 177 216 242 254 216 242 254 216 242 254 216 242 254 216 242 254 216 242 254 216 242 254 151 169 177 216 242 254 216 242 254 216 242 254 216 242 254 216 242 254 216 242 254 216 242 254 216 242 254 216 242 254 216 242 254 216 242 254 172 208 165 172 208 165 172 208 165 172 208 165 172 208 165 172 208 165 172 208 165

172 218 250 172 218 250 184 227 255 184 227 255 184 227 255 184 227 255 184 227 255 184 227 255 197 235 255 197 235 255 197 235 255 216 242 254 216 242 254 216 242 254 216 242 254 172 208 165 172 208 165 172 208 165 172 208 165 147 191 139 147 191 139 147 191 139 147 191 139 167 197 142 167 197 142 189 204 150 189 204 150 189 204 150 209 215 171 209 215 171 224 228 180 224 228 180 224 228 180 224 228 180 156 159 126 238 235 191 238 235 191 238 235 191 238 235 191 238 235 191 238 235 191 166 164 133 166 164 133 231 224 182 161 156 127 161 156 127 231 224 182 231 224 182 161 156 127 231 224 182 161 156 127 231 224 182 231 224 182 161 156 127 161 156 127 161 156 127 161 156 127 161 156 127 161 156 127 231 224 182 231 224 182 161 156 127 231 224 182 161 156 127 161 156 127 161 156 127 231 224 182 231 224 182 231 224 182 231 224 182 231 224 182 231 224 182 231 224 182 231 224 182 231 224 182 161 156 127 231 224 182 161 156 127 161 156 127 161 156 127 161 156 127 161 156 127 166 164 133 166 164 133 166 164 133 166 164 133 166 164 133 238 235 191 166 164 133 166 164 133 166 164 133 156 159 126 156 159 126 156 159 126 156 159 126 156 159 126 156 159 126 156 159 126 224 228 180 224 228 180 224 228 180 224 228 180 224 228 180 156 159 126 224 228 180 224 228 180 156 159 126 224 228 180 224 228 180 224 228 180 156 159 126 224 228 180 156 159 126 224 228 180 156 159 126 224 228 180 224 228 180 238 235 191 238 235 191 166 164 133 166 164 133 238 235 191 156 159 126 238 235 191 238 235 191 156 159 126 224 228 180 156 159 126 156 159 126 156 159 126 156 159 126 156 159 126 224 228 180 156 159 126 156 159 126 224 228 180 146 150 119 146 150 119 146 150 119 146 150 119 209 215 171 209 215 171 209 215 171 209 215 171 209 215 171 209 215 171 209 215 171 146 150 119 132 142 105 209 215 171 209 215 171 209 215 171 209 215 171 132 142 105 132 142 105 132 142 105 132 142 105 189 204 150 116 137 99 116 137 99 116 137 99 116 137 99 116 137 99 167 197 142 167 197 142 116 137 99 116 137 99 102 133 97 102 133 97 102 133 97 102 133 97 147 191 139 147 191 139 102 133 97 147 191 139 102 133 97 102 133 97 147 191 139 147 191 139 147 191 139 102 133 97 102 133 97 102 133 97 147 191 139 147 191 139 147 191 139 147 191 139 147 191 139 147 191 139 102 133 97 147 191 139 147 191 139 147 191 139 172 208 165 172 208 165 172 208 165 172 208 165 172 208 165 172 208 165 172 208 165 120 145 115 172 208 165 147 191 139 147 191 139 147 191 139 147 191 139 147 191 139 147 191 139 147 191 139 147 191 139 147 191 139 147 191 139 120 145 115 120 145 115 120 145 115 120 145 115 120 145 115 120 145 115 151 169 177 216 242 254 216 242 254 216 242 254 151 169 177 151 169 177 216 242 254 151 169 177 216 242 254 216 242 254 216 242 254 216 242 254 151 169 177 216 242 254 151 169 177 216 242 254 216 242 254 216 242 254 151 169 177 151 169 177 216 242 254 216 242 254 216 242 254 151 169 177 216 242 254 216 242 254 216 242 254 172 208 165 216 242 254 172 208 165 172 208 165 172 208 165 172 208 165 172 208 165 172 208 165 172 208 165 172 208 165 172 208 165 172 208 165

172 218 250 184 227 255 184 227 255 184 227 255 184 227 255 184 227 255 184 227 255 197 235 255 197 235 255 197 235 255 216 242 254 216 242 254 216 242 254 216 242 254 216 242 254 172 208 165 172 208 165 172 208 165 172 208 165 172 208 165 147 191 139 147 191 139 147 191 139 167 197 142 167 197 142 167 197 142 189 204 150 209 215 171 209 215 171 209 215 171 224 228 180 224 228 180 224 228 180 224 228 180 224 228 180 238 235 191 238 235 191 238 235 191 238 235 191 238 235 191 231 224 182 166 164 133 166 164 133 238 235 191 231 224 182 161 156 127 231 224 182 231 224 182 161 156 127 166 164 133 166 164 133 161 156 127 231 224 182 231 224 182 231 224 182 161 156 127 161 156 127 161 156 127 161 156 127 231 224 182 222 214 163 231 224 182 231 224 182 161 156 127 161 156 127 231 224 182 231 224 182 231 224 182 231 224 182 231 224 182 231 224 182 161 156 127 161 156 127 231 224 182 231 224 182 161 156 127 231 224 182 161 156 127 231 224 182 231 224 182 161 156 127 161 156 127 161 156 127 238 235 191 238 235 191 166 164 133 166 164 133 238 235 191 238 235 191 166 164 133 156 159 126 156 159 126 156 159 126 156 159 126 156 159 126 156 159 126 156 159 126 156 159 126 224 228 180 224 228 180 224 228 180 224 228 180 224 228 180 156 159 126 224 228 180 224 228 180 224 228 180 224 228 180 224 228 180 156 159 126 224 228 180 224 228 180 224 228 180 224 228 180 156 159 126 224 228 180 224 228 180 238 235 191 238 235 191 156 159 126 238 235 191 156 159 126 156 159 126 238 235 191 238 235 191 156 159 126 224 228 180 224 228 180 238 235 191 156 159 126 224 228 180 224 228 180 156 159 126 156 159 126 146 150 119 224 228 180 156 159 126 209 215 171 209 215 171 146 150 119 209 215 171 146 150 119 209 215 171 146 150 119 209 215 171 146 150 119 209 215 171 209 215 171 209 215 171 189 204 150 132 142 105 209 215 171 209 215 171 132 142 105 132 142 105 132 142 105 132 142 105 189 204 150 116 137 99 116 137 99 116 137 99 116 137 99 116 137 99 116 137 99 116 137 99 116 137 99 102 133 97 102 133 97 147 191 139 102 133 97 102 133 97 147 191 139 147 191 139 102 133 97 147 191 139 147 191 139 147 191 139 147 191 139 147 191 139 102 133 97 147 191 139 102 133 97 147 191 139 147 191 139 147 191 139 147 191 139 147 191 139 147 191 139 147 191 139 147 191 139 147 191 139 147 191 139 147 191 139 147 191 139 147 191 139 172 208 165 172 208 165 172 208 165 172 208 165 172 208 165 172 208 165 147 191 139 147 191 139 147 191 139 147 191 139 147 191 139 147 191 139 102 133 97 102 133 97 147 191 139 147 191 139 147 191 139 147 191 139 172 208 165 120 145 115 120 145 115 120 145 115 120 145 115 172 208 165 216 242 254 172 208 165 216 242 254 216 242 254 151 169 177 216 242 254 216 242 254 216 242 254 151 169 177 216 242 254 216 242 254 151 169 177 216 242 254 216 242 254 216 242 254 216 242 254 216 242 254 216 242 254 216 242 254 216 242 254 216 242 254 216 242 254 216 242 254 172 208 165 172 208 165 172 208 165 172 208 165 172 208 165 172 208 165 172 208 165 172 208 165 172 208 165 172 208 165 172 208 165 172 208 165 172 208 165 172 208 165 147 191 139

172 218 250 184 227 255 184 227 255 184 227 255 184 227 255 184 227 255 184 227 255 197 235 255 197 235 255 197 235 255 216 242 254 216 242 254 216 242 254 151 169 177 216 242 254 216 242 254 172 208 165 172 208 165 172 208 165 172 208 165 147 191 139 147 191 139 167 197 142 167 197 142 167 197 142 189 204 150 189 204 150 209 215 171 209 215 171 209 215 171 209 215 171 224 228 180 156 159 126 224 228 180 224 228 180 224 228 180 238 235 191 238 235 191 238 235 191 238 235 191 238 235 191 166 164 133 238 235 191 238 235 191 166 164 133 166 164 133 166 164 133 166 164 133 231 224 182 161 156 127 231 224 182 231 224 182 231 224 182 231 224 182 231 224 182 161 156 127 231 224 182 161 156 127 231 224 182 231 224 182 231 224 182 161 156 127 161 156 127 161 156 127 161 156 127 161 156 127 161 156 127 161 156 127 161 156 127 161 156 127 161 156 127 161 156 127 161 156 127 231 224 182 161 156 127 231 224 182 231 224 182 161 156 127 231 224 182 161 156 127 161 156 127 161 156 127 166 164 133 166 164 133 166 164 133 166 164 133 166 164 133 238 235 191 238 235 191 156 159 126 156 159 126 156 159 126 224 228 180 156 159 126 156 159 126 156 159 126 224 228 180 224 228 180 224 228 180 156 159 126 156 159 126 156 159 126 156 159 126 156 159 126 224 228 180 224 228 180 224 228 180 224 228 180 156 159 126 156 159 126 156 159 126 156 159 126 224 228 180 224 228 180 156 159 126 224 228 180 224 228 180 238 235 191 156 159 126 166 164 133 224 228 180 156 159 126 156 159 126 238 235 191 238 235 191 238 235 191 238 235 191 238 235 191 224 228 180 156 159 126 224 228 180 156 159 126 156 159 126 156 159 126 224 228 180 224 228 180 156 159 126 146 150 119 146 150 119 146 150 119 146 150 119 146 150 119 146 150 119 146 150 119 146 150 119 146 150 119 132 142 105 132 142 105 132 142 105 132 142 105 132 142 105 132 142 105 146 150 119 132 142 105 132 142 105 132 142 105 116 137 99 116 137 99 116 137 99 116 137 99 116 137 99 167 197 142 116 137 99 116 137 99 116 137 99 102 133 97 102 133 97 102 133 97 102 133 97 102 133 97 102 133 97 102 133 97 102 133 97 102 133 97 102 133 97 102 133 97 147 191 139 147 191 139 147 191 139 147 191 139 147 191 139 147 191 139 147 191 139 147 191 139 147 191 139 147 191 139 147 191 139 147 191 139 147 191 139 102 133 97 147 191 139 147 191 139 147 191 139 147 191 139 102 133 97 147 191 139 172 208 165 147 191 139 172 208 165 172 208 165 147 191 139 147 191 139 147 191 139 147 191 139 147 191 139 147 191 139 147 191 139 147 191 139 147 191 139 147 191 139 147 191 139 102 133 97 120 145 115 120 145 115 172 208 165 120 145 115 172 208 165 172 208 165 172 208 165 172 208 165 172 208 165 151 169 177 216 242 254 151 169 177 216 242 254 216 242 254 216 242 254 151 169 177 216 242 254 216 242 254 216 242 254 216 242 254 216 242 254 216 242 254 216 242 254 151 169 177 216 242 254 151 169 177 216 242 254 216 242 254 172 208 165 216 242 254 172 208 165 172 208 165 151 169 177 120 145 115 172 208 165 172 208 165 172 208 165 172 208 165 120 145 115 172 208 165 172 208 165 172 208 165 172 208 165 172 208 165 147 191 139

172 218 250 172 218 250 184 227 255 184 227 255 184 227 255 184 227 255 197 235 255 197 235 255 197 235 255 197 235 255 216 242 254 216 242 254 216 242 254 216 242 254 216 242 254 216 242 254 172 208 165 172 208 165 147 191 139 147 191 139 147 191 139 147 191 139 167 197 142 167 197 142 167 197 142 189 204 150 189 204 150 209 215 171 209 215 171 209 215 171 224 228 180 224 228 180 224 228 180 224 228 180 224 228 180 224 228 180 224 228 180 238 235 191 238 235 191 166 164 133 166 164 133 166 164 133 238 235 191 166 164 133 166 164 133 166 164 133 166 164 133 238 235 191 238 235 191 166 164 133 166 164 133 166 164 133 231 224 182 231 224 182 161 156 127 161 156 127 231 224 182 231 224 182 231 224 182 161 156 127 231 224 182 161 156 127 231 224 182 231 224 182 231 224 182 231 224 182 231 224 182 231 224 182 231 224 182 161 156 127 161 156 127 161 156 127 161 156 127 231 224 182 161 156 127 161 156 127 161 156 127 161 156 127 231 224 182 161 156 127 161 156 127 161 156 127 166 164 133 166 164 133 166 164 133 166 164 133 166 164 133 166 164 133 166 164 133 156 159 126 156 159 126 156 159 126 224 228 180 156 159 126 156 159 126 156 159 126 156 159 126 156 159 126 224 228 180 156 159 126 224 228 180 156 159 126 224 228 180 156 159 126 156 159 126 156 159 126 224 228 180 224 228 180 156 159 126 224 228 180 224 228 180 224 228 180 224 228 180 224 228 180 224 228 180 224 228 180 224 228 180 224 228 180 156 159 126 238 235 191 156 159 126 238 235 191 238 235 191 238 235 191 238 235 191 238 235 191 238 235 191 156 159 126 156 159 126 156 159 126 224 228 180 156 159 126 224 228 180 224 228 180 224 228 180 224 228 180 224 228 180 146 150 119 146 150 119 146 150 119 209 215 171 209 215 171 209 215 171 146 150 119 132 142 105 132 142 105 132 142 105 132 142 105 132 142 105 132 142 105 132 142 105 189 204 150 189 204 150 132 142 105 132 142 105 132 142 105 116 137 99 116 137 99 116 137 99 116 137 99 167 197 142 167 197 142 116 137 99 116 137 99 116 137 99 102 133 97 102 133 97 102 133 97 147 191 139 102 133 97 102 133 97 102 133 97 102 133 97 102 133 97 147 191 139 147 191 139 147 191 139 102 133 97 147 191 139 147 191 139 147 191 139 102 133 97 147 191 139 147 191 139 147 191 139 147 191 139 147 191 139 147 191 139 102 133 97 147 191 139 147 191 139 147 191 139 147 191 139 147 191 139 102 133 97 147 191 139 147 191 139 147 191 139 147 191 139 147 191 139 147 191 139 147 191 139 147 191 139 147 191 139 102 133 97 147 191 139 147 191 139 147 191 139 147 191 139 147 191 139 147 191 139 147 191 139 147 191 139 147 191 139 147 191 139 120 145 115 172 208 165 172 208 165 172 208 165 120 145 115 172 208 165 151 169 177 151 169 177 151 169 177 216 242 254 151 169 177 151 169 177 216 242 254 172 208 165 216 242 254 172 208 165 172 208 165 172 208 165 172 208 165 216 242 254 151 169 177 216 242 254 216 242 254 216 242 254 172 208 165 172 208 165 172 208 165 172 208 165 172 208 165 120 145 115 172 208 165 172 208 165 172 208 165 172 208 165 172 208 165 172 208 165 172 208 165 172 208 165 172 208 165 147 191 139 147 191 139 147 191 139

172 218 250 184 227 255 184 227 255 184 227 255 197 235 255 197 235 255 197 235 255 197 235 255 197 235 255 216 242 254 216 242 254 216 242 254 216 242 254 216 242 254 216 242 254 172 208 165 172 208 165 172 208 165 172 208 165 147 191 139 147 191 139 147 191 139 167 197 142 167 197 142 167 197 142 189 204 150 189 204 150 209 215 171 209 215 171 209 215 171 209 215 171 224 228 180 224 228 180 224 228 180 224 228 180 224 228 180 224 228 180 238 235 191 166 164 133 166 164 133 238 235 191 166 164 133 238 235 191 166 164 133 238 235 191 166 164 133 238 235 191 166 164 133 238 235 191 238 235 191 166 164 133 238 235 191 231 224 182 161 156 127 161 156 127 231 224 182 231 224 182 161 156 127 231 224 182 231 224 182 231 224 182 161 156 127 161 156 127 231 224 182 231 224 182 231 224 182 231 224 182 161 156 127 161 156 127 161 156 127 166 164 133 166 164 133 166 164 133 231 224 182 161 156 127 231 224 182 231 224 182 231 224 182 231 224 182 161 156 127 161 156 127 161 156 127 166 164 133 166 164 133 166 164 133 166 164 133 166 164 133 166 164 133 156 159 126 156 159 126 156 159 126 156 159 126 224 228 180 156 159 126 156 159 126 156 159 126 224 228 180 224 228 180 224 228 180 224 228 180 224 228 180 156 159 126 224 228 180 156 159 126 224 228 180 156 159 126 224 228 180 156 159 126 156 159 126 224 228 180 224 228 180 156 159 126 156 159 126 224 228 180 156 159 126 156 159 126 156 159 126 156 159 126 156 159 126 238 235 191 238 235 191 238 235 191 238 235 191 238 235 191 238 235 191 166 164 133 166 164 133 238 235 191 156 159 126 224 228 180 156 159 126 156 159 126 156 159 126 156 159 126 156 159 126 156 159 126 224 228 180 146 150 119 146 150 119 146 150 119 146 150 119 146 150 119 146 150 119 132 142 105 132 142 105 132 142 105 132 142 105 189 204 150 132 142 105 132 142 105 132 142 105 132 142 105 132 142 105 132 142 105 132 142 105 116 137 99 116 137 99 116 137 99 116 137 99 116 137 99 116 137 99 116 137 99 116 137 99 116 137 99 102 133 97 102 133 97 102 133 97 102 133 97 102 133 97 102 133 97 102 133 97 102 133 97 102 133 97 102 133 97 102 133 97 102 133 97 147 191 139 102 133 97 102 133 97 102 133 97 102 133 97 102 133 97 102 133 97 147 191 139 147 191 139 102 133 97 102 133 97 147 191 139 102 133 97 147 191 139 147 191 139 147 191 139 167 197 142 147 191 139 147 191 139 147 191 139 147 191 139 147 191 139 147 191 139 147 191 139 147 191 139 147 191 139 147 191 139 147 191 139 102 133 97 147 191 139 147 191 139 147 191 139 147 191 139 147 191 139 147 191 139 102 133 97 147 191 139 147 191 139 147 191 139 120 145 115 172 208 165 172 208 165 120 145 115 120 145 115 120 145 115 172 208 165 216 242 254 216 242 254 151 169 177 151 169 177 216 242 254 216 242 254 216 242 254 151 169 177 216 242 254 120 145 115 120 145 115 120 145 115 151 169 177 216 242 254 216 242 254 216 242 254 172 208 165 172 208 165 172 208 165 172 208 165 172 208 165 172 208 165 120 145 115 172 208 165 172 208 165 172 208 165 172 208 165 172 208 165 172 208 165 172 208 165 172 208 165 147 191 139 147 191 139 147 191 139 147 191 139

172 218 250 184 227 255 184 227 255 184 227 255 197 235 255 197 235 255 197 235 255 197 235 255 216 242 254 216 242 254 216 242 254 216 242 254 216 242 254 216 242 254 216 242 254 172 208 165 172 208 165 172 208 165 172 208 165 147 191 139 147 191 139 147 191 139 167 197 142 167 197 142 189 204 150 189 204 150 189 204 150 209 215 171 209 215 171 209 215 171 209 215 171 224 228 180 224 228 180 224 228 180 156 159 126 224 228 180 224 228 180 156 159 126 238 235 191 238 235 191 238 235 191 166 164 133 166 164 133 166 164 133 238 235 191 238 235 191 238 235 191 238 235 191 238 235 191 166 164 133 238 235 191 238 235 191 231 224 182 231 224 182 231 224 182 231 224 182 231 224 182 161 156 127 231 224 182 161 156 127 231 224 182 161 156 127 231 224 182 231 224 182 231 224 182 161 156 127 161 156 127 166 164 133 161 156 127 161 156 127 166 164 133 166 164 133 231 224 182 231 224 182 231 224 182 161 156 127 231 224 182 161 156 127 161 156 127 231 224 182 231 224 182 231 224 182 166 164 133 238 235 191 238 235 191 166 164 133 156 159 126 156 159 126 156 159 126 156 159 126 156 159 126 224 228 180 224 228 180 156 159 126 156 159 126 146 150 119 146 150 119 146 150 119 156 159 126 156 159 126 156 159 126 156 159 126 224 228 180 224 228 180 224 228 180 156 159 126 224 228 180 224 228 180 224 228 180 224 228 180 156 159 126 156 159 126 156 159 126 156 159 126 156 159 126 224 228 180 224 228 180 224 228 180 224 228 180 238 235 191 238 235 191 238 235 191 238 235 191 238 235 191 238 235 191 156 159 126 156 159 126 238 235 191 238 235 191 224 228 180 156 159 126 156 159 126 156 159 126 146 150 119 224 228 180 156 159 126 224 228 180 146 150 119 146 150 119 146 150 119 146 150 119 146 150 119 132 142 105 132 142 105 132 142 105 132 142 105 132 142 105 132 142 105 132 142 105 132 142 105 189 204 150 189 204 150 189 204 150 132 142 105 132 142 105 116 137 99 116 137 99 116 137 99 116 137 99 116 137 99 102 133 97 167 197 142 102 133 97 116 137 99 167 197 142 102 133 97 102 133 97 102 133 97 102 133 97 102 133 97 102 133 97 102 133 97 147 191 139 147 191 139 147 191 139 147 191 139 147 191 139 102 133 97 147 191 139 147 191 139 147 191 139 147 191 139 147 191 139 147 191 139 167 197 142 167 197 142 167 197 142 102 133 97 102 133 97 147 191 139 147 191 139 167 197 142 167 197 142 167 197 142 147 191 139 102 133 97 147 191 139 147 191 139 147 191 139 147 191 139 147 191 139 147 191 139 147 191 139 102 133 97 147 191 139 147 191 139 147 191 139 147 191 139 167 197 142 102 133 97 147 191 139 102 133 97 147 191 139 147 191 139 147 191 139 147 191 139 147 191 139 120 145 115 120 145 115 120 145 115 120 145 115 172 208 165 151 169 177 151 169 177 151 169 177 216 242 254 216 242 254 216 242 254 216 242 254 151 169 177 216 242 254 172 208 165 172 208 165 151 169 177 151 169 177 216 242 254 216 242 254 172 208 165 172 208 165 172 208 165 172 208 165 172 208 165 120 145 115 120 145 115 172 208 165 172 208 165 172 208 165 172 208 165 172 208 165 172 208 165 172 208 165 172 208 165 172 208 165 147 191 139 147 191 139 147 191 139 147 191 139

184 227 255 184 227 255 184 227 255 197 235 255 197 235 255 197 235 255 197 235 255 197 235 255 216 242 254 216 242 254 216 242 254 216 242 254 216 242 254 151 169 177 172 208 165 172 208 165 172 208 165 172 208 165 172 208 165 147 191 139 147 191 139 147 191 139 167 197 142 167 197 142 189 204 150 189 204 150 189 204 150 189 204 150 209 215 171 146 150 119 209 215 171 224 228 180 224 228 180 156 159 126 156 159 126 224 228 180 156 159 126 224 228 180 238 235 191 238 235 191 238 235 191 166 164 133 166 164 133 166 164 133 166 164 133 166 164 133 166 164 133 166 164 133 166 164 133 166 164 133 166 164 133 238 235 191 231 224 182 161 156 127 231 224 182 161 156 127 161 156 127 161 156 127 161 156 127 161 156 127 161 156 127 161 156 127 231 224 182 161 156 127 161 156 127 161 156 127 161 156 127 161 156 127 231 224 182 166 164 133 166 164 133 166 164 133 166 164 133 231 224 182 161 156 127 161 156 127 231 224 182 161 156 127 161 156 127 161 156 127 161 156 127 161 156 127 166 164 133 166 164 133 166 164 133 156 159 126 156 159 126 156 159 126 156 159 126 156 159 126 156 159 126 156 159 126 156 159 126 156 159 126 224 228 180 156 159 126 146 150 119 146 150 119 146 150 119 146 150 119 156 159 126 224 228 180 156 159 126 224 228 180 224 228 180 156 159 126 224 228 180 224 228 180 156 159 126 156 159 126 156 159 126 156 159 126 156 159 126 156 159 126 156 159 126 156 159 126 224 228 180 224 228 180 224 228 180 238 235 191 238 235 191 166 164 133 166 164 133 166 164 133 156 159 126 156 159 126 156 159 126 156 159 126 156 159 126 156 159 126 156 159 126 156 159 126 146 150 119 146 150 119 209 215 171 156 159 126 156 159 126 146 150 119 146 150 119 146 150 119 146 150 119 132 142 105 132 142 105 132 142 105 132 142 105 132 142 105 132 142 105 132 142 105 132 142 105 132 142 105 132 142 105 132 142 105 132 142 105 132 142 105 116 137 99 116 137 99 116 137 99 116 137 99 116 137 99 102 133 97 167 197 142 167 197 142 167 197 142 147 191 139 102 133 97 116 137 99 147 191 139 147 191 139 147 191 139 102 133 97 102 133 97 102 133 97 147 191 139 147 191 139 102 133 97 147 191 139 147 191 139 102 133 97 147 191 139 147 191 139 147 191 139 102 133 97 147 191 139 147 191 139 147 191 139 116 137 99 102 133 97 102 133 97 102 133 97 147 191 139 147 191 139 167 197 142 167 197 142 102 133 97 102 133 97 102 133 97 147 191 139 147 191 139 147 191 139 102 133 97 147 191 139 147 191 139 147 191 139 102 133 97 147 191 139 147 191 139 147 191 139 147 191 139 102 133 97 102 133 97 102 133 97 102 133 97 147 191 139 102 133 97 102 133 97 102 133 97 147 191 139 120 145 115 120 145 115 172 208 165 120 145 115 120 145 115 151 169 177 151 169 177 151 169 177 216 242 254 216 242 254 216 242 254 216 242 254 151 169 177 216 242 254 216 242 254 172 208 165 172 208 165 216 242 254 216 242 254 216 242 254 172 208 165 172 208 165 172 208 165 172 208 165 120 145 115 120 145 115 172 208 165 172 208 165 172 208 165 172 208 165 172 208 165 172 208 165 172 208 165 172 208 165 147 191 139 147 191 139 147 191 139 147 191 139 147 191 139 147 191 139

184 227 255 184 227 255 184 227 255 197 235 255 197 235 255 197 235 255 216 242 254 216 242 254 216 242 254 216 242 254 216 242 254 216 242 254 216 242 254 216 242 254 172 208 165 172 208 165 172 208 165 172 208 165 147 191 139 147 191 139 147 191 139 147 191 139 167 197 142 167 197 142 189 204 150 189 204 150 189 204 150 209 215 171 209 215 171 209 215 171 209 215 171 224 228 180 224 228 180 156 159 126 156 159 126 224 228 180 156 159 126 224 228 180 238 235 191 166 164 133 238 235 191 166 164 133 166 164 133 238 235 191 238 235 191 238 235 191 166 164 133 238 235 191 238 235 191 166 164 133 238 235 191 238 235 191 238 235 191 166 164 133 231 224 182 161 156 127 166 164 133 161 156 127 161 156 127 166 164 133 161 156 127 166 164 133 161 156 127 161 156 127 166 164 133 161 156 127 161 156 127 166 164 133 231 224 182 231 224 182 238 235 191 166 164 133 166 164 133 238 235 191 231 224 182 166 164 133 166 164 133 166 164 133 166 164 133 166 164 133 166 164 133 166 164 133 166 164 133 166 164 133 166 164 133 166 164 133 156 159 126 156 159 126 156 159 126 224 228 180 224 228 180 224 228 180 224 228 180 156 159 126 224 228 180 156 159 126 146 150 119 209 215 171 209 215 171 224 228 180 224 228 180 224 228 180 156 159 126 224 228 180 156 159 126 156 159 126 224 228 180 156 159 126 156 159 126 156 159 126 146 150 119 156 159 126 156 159 126 146 150 119 224 228 180 156 159 126 224 228 180 224 228 180 224 228 180 224 228 180 166 164 133 166 164 133 166 164 133 156 159 126 156 159 126 156 159 126 156 159 126 156 159 126 156 159 126 156 159 126 156 159 126 156 159 126 146 150 119 209 215 171 224 228 180 146 150 119 146 150 119 146 150 119 146 150 119 146 150 119 146 150 119 132 142 105 132 142 105 132 142 105 132 142 105 132 142 105 132 142 105 116 137 99 132 142 105 132 142 105 189 204 150 189 204 150 189 204 150 132 142 105 132 142 105 116 137 99 116 137 99 167 197 142 116 137 99 167 197 142 147 191 139 102 133 97 167 197 142 167 197 142 167 197 142 147 191 139 102 133 97 102 133 97 147 191 139 102 133 97 147 191 139 147 191 139 147 191 139 147 191 139 147 191 139 147 191 139 102 133 97 147 191 139 147 191 139 147 191 139 147 191 139 147 191 139 147 191 139 147 191 139 147 191 139 147 191 139 102 133 97 102 133 97 102 133 97 147 191 139 147 191 139 147 191 139 167 197 142 102 133 97 102 133 97 102 133 97 147 191 139 147 191 139 102 133 97 102 133 97 147 191 139 102 133 97 147 191 139 147 191 139 147 191 139 147 191 139 147 191 139 147 191 139 147 191 139 102 133 97 102 133 97 147 191 139 102 133 97 102 133 97 147 191 139 102 133 97 102 133 97 120 145 115 120 145 115 120 145 115 172 208 165 151 169 177 151 169 177 151 169 177 151 169 177 216 242 254 216 242 254 216 242 254 216 242 254 151 169 177 216 242 254 151 169 177 172 208 165 172 208 165 172 208 165 172 208 165 172 208 165 172 208 165 172 208 165 172 208 165 120 145 115 172 208 165 172 208 165 172 208 165 172 208 165 172 208 165 147 191 139 147 191 139 147 191 139 120 145 115 172 208 165 147 191 139 147 191 139 147 191 139 147 191 139 147 191 139 147 191 139

197 235 255 197 235 255 197 235 255 197 235 255 197 235 255 197 235 255 216 242 254 216 242 254 216 242 254 216 242 254 216 242 254 172 208 165 172 208 165 172 208 165 172 208 165 172 208 165 172 208 165 172 208 165 172 208 165 147 191 139 147 191 139 147 191 139 167 197 142 167 197 142 167 197 142 189 204 150 189 204 150 209 215 171 209 215 171 209 215 171 209 215 171 209 215 171 224 228 180 156 159 126 156 159 126 156 159 126 224 228 180 224 228 180 224 228 180 156 159 126 166 164 133 166 164 133 166 164 133 238 235 191 166 164 133 166 164 133 166 164 133 166 164 133 238 235 191 166 164 133 238 235 191 238 235 191 166 164 133 166 164 133 238 235 191 166 164 133 166 164 133 166 164 133 166 164 133 166 164 133 166 164 133 166 164 133 231 224 182 161 156 127 166 164 133 238 235 191 166 164 133 161 156 127 166 164 133 166 164 133 166 164 133 166 164 133 166 164 133 166 164 133 238 235 191 166 164 133 166 164 133 166 164 133 166 164 133 166 164 133 166 164 133 166 164 133 166 164 133 166 164 133 166 164 133 166 164 133 166 164 133 156 159 126 224 228 180 224 228 180 224 228 180 224 228 180 224 228 180 224 228 180 224 228 180 224 228 180 156 159 126 224 228 180 224 228 180 209 215 171 146 150 119 224 228 180 156 159 126 224 228 180 224 228 180 224 228 180 224 228 180 156 159 126 156 159 126 146 150 119 146 150 119 146 150 119 146 150 119 146 150 119 209 215 171 146 150 119 224 228 180 224 228 180 156 159 126 156 159 126 156 159 126 156 159 126 156 159 126 156 159 126 156 159 126 156 159 126 156 159 126 156 159 126 156 159 126 146 150 119 146 150 119 146 150 119 146 150 119 146 150 119 146 150 119 146 150 119 146 150 119 146 150 119 146 150 119 146 150 119 146 150 119 132 142 105 132 142 105 132 142 105 132 142 105 132 142 105 116 137 99 116 137 99 116 137 99 116 137 99 116 137 99 116 137 99 116 137 99 116 137 99 116 137 99 116 137 99 167 197 142 116 137 99 116 137 99 167 197 142 167 197 142 147 191 139 167 197 142 167 197 142 167 197 142 102 133 97 102 133 97 102 133 97 102 133 97 102 133 97 102 133 97 147 191 139 147 191 139 147 191 139 102 133 97 102 133 97 120 145 115 147 191 139 147 191 139 147 191 139 147 191 139 147 191 139 147 191 139 102 133 97 102 133 97 102 133 97 102 133 97 102 133 97 147 191 139 147 191 139 102 133 97 102 133 97 102 133 97 102 133 97 102 133 97 102 133 97 147 191 139 102 133 97 102 133 97 147 191 139 147 191 139 147 191 139 147 191 139 102 133 97 147 191 139 102 133 97 147 191 139 102 133 97 102 133 97 102 133 97 147 191 139 102 133 97 102 133 97 147 191 139 102 133 97 102 133 97 147 191 139 120 145 115 120 145 115 120 145 115 172 208 165 120 145 115 151 169 177 216 242 254 216 242 254 216 242 254 216 242 254 216 242 254 151 169 177 151 169 177 216 242 254 216 242 254 216 242 254 151 169 177 151 169 177 120 145 115 172 208 165 172 208 165 172 208 165 172 208 165 172 208 165 172 208 165 172 208 165 172 208 165 172 208 165 147 191 139 147 191 139 147 191 139 120 145 115 120 145 115 172 208 165 172 208 165 147 191 139 147 191 139 147 191 139 147 191 139 147 191 139

197 235 255 197 235 255 197 235 255 197 235 255 197 235 255 216 242 254 216 242 254 216 242 254 216 242 254 172 208 165 172 208 165 216 242 254 172 208 165 172 208 165 172 208 165 172 208 165 172 208 165 172 208 165 147 191 139 147 191 139 147 191 139 167 197 142 167 197 142 167 197 142 167 197 142 189 204 150 189 204 150 209 215 171 209 215 171 209 215 171 209 215 171 209 215 171 224 228 180 146 150 119 156 159 126 224 228 180 224 228 180 156 159 126 156 159 126 224 228 180 156 159 126 156 159 126 166 164 133 238 235 191 238 235 191 238 235 191 166 164 133 238 235 191 238 235 191 166 164 133 238 235 191 238 235 191 166 164 133 166 164 133 166 164 133 166 164 133 166 164 133 166 164 133 166 164 133 166 164 133 238 235 191 238 235 191 238 235 191 166 164 133 166 164 133 166 164 133 166 164 133 166 164 133 166 164 133 166 164 133 166 164 133 166 164 133 166 164 133 166 164 133 238 235 191 166 164 133 166 164 133 238 235 191 238 235 191 166 164 133 166 164 133 166 164 133 166 164 133 238 235 191 238 235 191 166 164 133 238 235 191 238 235 191 224 228 180 224 228 180 224 228 180 238 235 191 238 235 191 224 228 180 224 228 180 156 159 126 156 159 126 224 228 180 224 228 180 146 150 119 209 215 171 224 228 180 224 228 180 224 228 180 224 228 180 156 159 126 224 228 180 156 159 126 146 150 119 146 150 119 146 150 119 146 150 119 146 150 119 146 150 119 209 215 171 146 150 119 209 215 171 156 159 126 156 159 126 156 159 126 156 159 126 156 159 126 156 159 126 156 159 126 156 159 126 146 150 119 146 150 119 146 150 119 146 150 119 146 150 119 146 150 119 146 150 119 224 228 180 146 150 119 146 150 119 146 150 119 209 215 171 146 150 119 146 150 119 132 142 105 209 215 171 132 142 105 132 142 105 132 142 105 132 142 105 132 142 105 116 137 99 116 137 99 116 137 99 116 137 99 116 137 99 167 197 142 116 137 99 116 137 99 116 137 99 116 137 99 189 204 150 167 197 142 167 197 142 116 137 99 167 197 142 116 137 99 147 191 139 102 133 97 167 197 142 102 133 97 102 133 97 102 133 97 102 133 97 102 133 97 102 133 97 147 191 139 147 191 139 102 133 97 147 191 139 120 145 115 120 145 115 120 145 115 120 145 115 147 191 139 147 191 139 147 191 139 147 191 139 147 191 139 147 191 139 147 191 139 147 191 139 102 133 97 147 191 139 102 133 97 102 133 97 102 133 97 102 133 97 102 133 97 102 133 97 147 191 139 102 133 97 102 133 97 102 133 97 147 191 139 147 191 139 102 133 97 147 191 139 147 191 139 147 191 139 102 133 97 102 133 97 102 133 97 102 133 97 102 133 97 102 133 97 102 133 97 147 191 139 102 133 97 102 133 97 102 133 97 147 191 139 120 145 115 120 145 115 120 145 115 120 145 115 120 145 115 172 208 165 216 242 254 151 169 177 216 242 254 216 242 254 151 169 177 151 169 177 151 169 177 216 242 254 216 242 254 216 242 254 216 242 254 172 208 165 172 208 165 172 208 165 172 208 165 172 208 165 120 145 115 172 208 165 172 208 165 172 208 165 172 208 165 147 191 139 147 191 139 147 191 139 102 133 97 147 191 139 172 208 165 172 208 165 172 208 165 147 191 139 147 191 139 147 191 139 147 191 139 147 191 139

197 235 255 197 235 255 197 235 255 216 242 254 216 242 254 216 242 254 216 242 254 216 242 254 216 242 254 172 208 165 151 169 177 120 145 115 172 208 165 172 208 165 172 208 165 172 208 165 172 208 165 172 208 165 147 191 139 147 191 139 147 191 139 147 191 139 167 197 142 167 197 142 167 197 142 189 204 150 189 204 150 209 215 171 209 215 171 146 150 119 209 215 171 209 215 171 209 215 171 224 228 180 224 228 180 224 228 180 156 159 126 224 228 180 224 228 180 224 228 180 224 228 180 156 159 126 224 228 180 238 235 191 156 159 126 156 159 126 156 159 126 238 235 191 238 235 191 166 164 133 166 164 133 166 164 133 166 164 133 166 164 133 166 164 133 166 164 133 166 164 133 166 164 133 166 164 133 166 164 133 238 235 191 166 164 133 166 164 133 166 164 133 166 164 133 166 164 133 166 164 133 166 164 133 166 164 133 166 164 133 166 164 133 166 164 133 166 164 133 166 164 133 166 164 133 166 164 133 166 164 133 166 164 133 166 164 133 166 164 133 238 235 191 238 235 191 166 164 133 166 164 133 166 164 133 238 235 191 238 235 191 238 235 191 238 235 191 238 235 191 238 235 191 238 235 191 238 235 191 156 159 126 224 228 180 156 159 126 156 159 126 156 159 126 146 150 119 224 228 180 224 228 180 209 215 171 156 159 126 146 150 119 224 228 180 156 159 126 146 150 119 146 150 119 146 150 119 146 150 119 146 150 119 146 150 119 209 215 171 146 150 119 146 150 119 146 150 119 209 215 171 209 215 171 146 150 119 146 150 119 146 150 119 146 150 119 146 150 119 146 150 119 146 150 119 146 150 119 146 150 119 146 150 119 146 150 119 146 150 119 146 150 119 146 150 119 209 215 171 146 150 119 146 150 119 146 150 119 209 215 171 146 150 119 146 150 119 146 150 119 132 142 105 132 142 105 132 142 105 132 142 105 132 142 105 116 137 99 116 137 99 167 197 142 167 197 142 167 197 142 167 197 142 167 197 142 116 137 99 116 137 99 167 197 142 167 197 142 167 197 142 116 137 99 116 137 99 116 137 99 167 197 142 167 197 142 116 137 99 102 133 97 147 191 139 102 133 97 102 133 97 147 191 139 147 191 139 102 133 97 147 191 139 147 191 139 102 133 97 102 133 97 102 133 97 102 133 97 147 191 139 172 208 165 172 208 165 147 191 139 147 191 139 147 191 139 147 191 139 102 133 97 102 133 97 102 133 97 102 133 97 102 133 97 102 133 97 102 133 97 102 133 97 102 133 97 102 133 97 147 191 139 147 191 139 102 133 97 102 133 97 102 133 97 147 191 139 147 191 139 147 191 139 102 133 97 147 191 139 102 133 97 102 133 97 102 133 97 102 133 97 147 191 139 147 191 139 147 191 139 102 133 97 102 133 97 102 133 97 102 133 97 102 133 97 102 133 97 147 191 139 102 133 97 120 145 115 120 145 115 120 145 115 151 169 177 151 169 177 151 169 177 151 169 177 216 242 254 216 242 254 151 169 177 216 242 254 216 242 254 216 242 254 216 242 254 216 242 254 172 208 165 172 208 165 172 208 165 120 145 115 120 145 115 172 208 165 120 145 115 172 208 165 172 208 165 172 208 165 172 208 165 147 191 139 147 191 139 102 133 97 102 133 97 147 191 139 147 191 139 147 191 139 147 191 139 147 191 139 147 191 139 147 191 139 147 191 139 147 191 139

197 235 255 197 235 255 216 242 254 216 242 254 216 242 254 216 242 254 216 242 254 216 242 254 216 242 254 172 208 165 172 208 165 172 208 165 172 208 165 172 208 165 172 208 165 172 208 165 172 208 165 172 208 165 147 191 139 147 191 139 147 191 139 147 191 139 167 197 142 167 197 142 189 204 150 189 204 150 189 204 150 209 215 171 209 215 171 209 215 171 209 215 171 146 150 119 209 215 171 209 215 171 224 228 180 156 159 126 224 228 180 224 228 180 156 159 126 224 228 180 156 159 126 156 159 126 224 228 180 156 159 126 156 159 126 156 159 126 156 159 126 156 159 126 156 159 126 156 159 126 166 164 133 156 159 126 166 164 133 156 159 126 156 159 126 238 235 191 166 164 133 166 164 133 238 235 191 238 235 191 166 164 133 166 164 133 166 164 133 166 164 133 166 164 133 166 164 133 166 164 133 166 164 133 166 164 133 166 164 133 238 235 191 166 164 133 166 164 133 166 164 133 166 164 133 166 164 133 166 164 133 166 164 133 238 235 191 166 164 133 238 235 191 238 235 191 238 235 191 238 235 191 238 235 191 166 164 133 238 235 191 238 235 191 238 235 191 238 235 191 238 235 191 238 235 191 166 164 133 156 159 126 156 159 126 156 159 126 156 159 126 224 228 180 224 228 180 224 228 180 224 228 180 146 150 119 209 215 171 146 150 119 209 215 171 146 150 119 146 150 119 146 150 119 146 150 119 146 150 119 146 150 119 132 142 105 132 142 105 132 142 105 146 150 119 146 150 119 209 215 171 146 150 119 146 150 119 146 150 119 146 150 119 146 150 119 146 150 119 146 150 119 146 150 119 146 150 119 146 150 119 146 150 119 146 150 119 146 150 119 146 150 119 146 150 119 146 150 119 146 150 119 209 215 171 146 150 119 146 150 119 146 150 119 146 150 119 132 142 105 132 142 105 132 142 105 189 204 150 132 142 105 132 142 105 116 137 99 189 204 150 167 197 142 167 197 142 116 137 99 116 137 99 116 137 99 167 197 142 167 197 142 167 197 142 167 197 142 116 137 99 167 197 142 167 197 142 167 197 142 167 197 142 167 197 142 116 137 99 167 197 142 147 191 139 147 191 139 102 133 97 147 191 139 102 133 97 102 133 97 147 191 139 102 133 97 102 133 97 102 133 97 147 191 139 120 145 115 147 191 139 120 145 115 172 208 165 147 191 139 147 191 139 147 191 139 147 191 139 102 133 97 102 133 97 147 191 139 102 133 97 102 133 97 102 133 97 102 133 97 102 133 97 120 145 115 120 145 115 102 133 97 102 133 97 102 133 97 147 191 139 147 191 139 147 191 139 147 191 139 147 191 139 102 133 97 147 191 139 147 191 139 102 133 97 147 191 139 147 191 139 147 191 139 102 133 97 147 191 139 102 133 97 147 191 139 147 191 139 147 191 139 102 133 97 120 145 115 120 145 115 120 145 115 120 145 115 120 145 115 120 145 115 151 169 177 151 169 177 151 169 177 151 169 177 216 242 254 151 169 177 216 242 254 216 242 254 216 242 254 216 242 254 172 208 165 172 208 165 172 208 165 172 208 165 172 208 165 120 145 115 172 208 165 120 145 115 120 145 115 172 208 165 172 208 165 172 208 165 172 208 165 147 191 139 147 191 139 147 191 139 147 191 139 147 191 139 147 191 139 147 191 139 147 191 139 147 191 139 147 191 139 147 191 139 147 191 139 147 191 139

216 242 254 216 242 254 216 242 254 216 242 254 216 242 254 216 242 254 216 242 254 216 242 254 216 242 254 172 208 165 172 208 165 172 208 165 172 208 165 172 208 165 172 208 165 172 208 165 172 208 165 172 208 165 147 191 139 147 191 139 147 191 139 167 197 142 167 197 142 167 197 142 167 197 142 189 204 150 189 204 150 189 204 150 209 215 171 209 215 171 209 215 171 224 228 180 224 228 180 224 228 180 224 228 180 156 159 126 146 150 119 156 159 126 224 228 180 224 228 180 156 159 126 156 159 126 156 159 126 156 159 126 156 159 126 156 159 126 156 159 126 156 159 126 156 159 126 156 159 126 156 159 126 156 159 126 156 159 126 156 159 126 156 159 126 156 159 126 156 159 126 156 159 126 156 159 126 166 164 133 166 164 133 166 164 133 166 164 133 166 164 133 156 159 126 156 159 126 156 159 126 156 159 126 238 235 191 166 164 133 166 164 133 156 159 126 166 164 133 238 235 191 166 164 133 156 159 126 238 235 191 166 164 133 166 164 133 166 164 133 166 164 133 166 164 133 166 164 133 166 164 133 238 235 191 238 235 191 238 235 191 238 235 191 238 235 191 238 235 191 238 235 191 166 164 133 166 164 133 166 164 133 224 228 180 156 159 126 156 159 126 224 228 180 224 228 180 224 228 180 224 228 180 156 159 126 209 215 171 224 228 180 209 215 171 146 150 119 146 150 119 146 150 119 146 150 119 146 150 119 132 142 105 132 142 105 132 142 105 132 142 105 189 204 150 209 215 171 209 215 171 146 150 119 146 150 119 146 150 119 146 150 119 146 150 119 146 150 119 146 150 119 146 150 119 146 150 119 146 150 119 146 150 119 146 150 119 132 142 105 132 142 105 146 150 119 146 150 119 146 150 119 146 150 119 146 150 119 132 142 105 132 142 105 132 142 105 132 142 105 132 142 105 132 142 105 132 142 105 132 142 105 132 142 105 116 137 99 189 204 150 116 137 99 116 137 99 116 137 99 116 137 99 116 137 99 116 137 99 116 137 99 116 137 99 116 137 99 116 137 99 167 197 142 116 137 99 167 197 142 167 197 142 116 137 99 116 137 99 102 133 97 102 133 97 147 191 139 102 133 97 147 191 139 147 191 139 147 191 139 147 191 139 102 133 97 102 133 97 102 133 97 120 145 115 147 191 139 120 145 115 120 145 115 172 208 165 147 191 139 147 191 139 147 191 139 147 191 139 102 133 97 102 133 97 102 133 97 102 133 97 102 133 97 102 133 97 120 145 115 120 145 115 120 145 115 120 145 115 147 191 139 147 191 139 102 133 97 102 133 97 102 133 97 147 191 139 102 133 97 102 133 97 102 133 97 102 133 97 102 133 97 102 133 97 147 191 139 102 133 97 147 191 139 102 133 97 147 191 139 147 191 139 102 133 97 147 191 139 102 133 97 102 133 97 120 145 115 120 145 115 120 145 115 120 145 115 120 145 115 120 145 115 120 145 115 151 169 177 151 169 177 151 169 177 216 242 254 216 242 254 216 242 254 216 242 254 151 169 177 216 242 254 172 208 165 172 208 165 172 208 165 151 169 177 172 208 165 172 208 165 151 169 177 151 169 177 120 145 115 172 208 165 172 208 165 172 208 165 172 208 165 172 208 165 102 133 97 147 191 139 147 191 139 147 191 139 147 191 139 147 191 139 102 133 97 102 133 97 147 191 139 147 191 139 147 191 139 147 191 139

216 242 254 216 242 254 216 242 254 216 242 254 216 242 254 216 242 254 216 242 254 216 242 254 172 208 165 172 208 165 172 208 165 172 208 165 172 208 165 172 208 165 172 208 165 172 208 165 172 208 165 172 208 165 172 208 165 147 191 139 147 191 139 167 197 142 167 197 142 167 197 142 167 197 142 189 204 150 189 204 150 189 204 150 209 215 171 209 215 171 224 228 180 224 228 180 224 228 180 224 228 180 146 150 119 224 228 180 146 150 119 146 150 119 224 228 180 146 150 119 146 150 119 146 150 119 156 159 126 156 159 126 156 159 126 156 159 126 156 159 126 156 159 126 156 159 126 156 159 126 156 159 126 156 159 126 156 159 126 156 159 126 156 159 126 156 159 126 156 159 126 156 159 126 156 159 126 156 159 126 238 235 191 156 159 126 156 159 126 156 159 126 156 159 126 156 159 126 224 228 180 156 159 126 156 159 126 156 159 126 156 159 126 156 159 126 224 228 180 156 159 126 156 159 126 156 159 126 224 228 180 166 164 133 238 235 191 238 235 191 166 164 133 166 164 133 166 164 133 238 235 191 238 235 191 238 235 191 238 235 191 238 235 191 231 224 182 238 235 191 238 235 191 166 164 133 166 164 133 166 164 133 156 159 126 156 159 126 224 228 180 224 228 180 224 228 180 156 159 126 156 159 126 146 150 119 224 228 180 224 228 180 146 150 119 146 150 119 146 150 119 146 150 119 209 215 171 146 150 119 132 142 105 132 142 105 132 142 105 189 204 150 132 142 105 132 142 105 132 142 105 146 150 119 209 215 171 146 150 119 146 150 119 146 150 119 146 150 119 146 150 119 146 150 119 132 142 105 146 150 119 132 142 105 132 142 105 132 142 105 132 142 105 132 142 105 146 150 119 132 142 105 146 150 119 132 142 105 132 142 105 132 142 105 132 142 105 132 142 105 132 142 105 132 142 105 132 142 105 116 137 99 116 137 99 116 137 99 189 204 150 116 137 99 189 204 150 167 197 142 116 137 99 116 137 99 116 137 99 167 197 142 116 137 99 116 137 99 116 137 99 167 197 142 116 137 99 167 197 142 189 204 150 116 137 99 116 137 99 102 133 97 147 191 139 102 133 97 102 133 97 102 133 97 167 197 142 102 133 97 102 133 97 102 133 97 102 133 97 102 133 97 102 133 97 172 208 165 120 145 115 120 145 115 147 191 139 147 191 139 147 191 139 147 191 139 102 133 97 102 133 97 147 191 139 102 133 97 102 133 97 120 145 115 120 145 115 120 145 115 120 145 115 120 145 115 120 145 115 172 208 165 120 145 115 147 191 139 147 191 139 102 133 97 102 133 97 102 133 97 147 191 139 147 191 139 102 133 97 102 133 97 102 133 97 147 191 139 147 191 139 102 133 97 102 133 97 147 191 139 147 191 139 102 133 97 102 133 97 120 145 115 102 133 97 120 145 115 172 208 165 120 145 115 120 145 115 120 145 115 120 145 115 120 145 115 151 169 177 216 242 254 216 242 254 216 242 254 216 242 254 151 169 177 216 242 254 216 242 254 172 208 165 172 208 165 172 208 165 172 208 165 120 145 115 172 208 165 172 208 165 172 208 165 172 208 165 172 208 165 172 208 165 172 208 165 172 208 165 172 208 165 172 208 165 147 191 139 147 191 139 147 191 139 147 191 139 102 133 97 102 133 97 102 133 97 147 191 139 147 191 139 102 133 97 147 191 139 147 191 139

216 242 254 216 242 254 216 242 254 216 242 254 216 242 254 172 208 165 216 242 254 172 208 165 172 208 165 172 208 165 172 208 165 172 208 165 172 208 165 172 208 165 172 208 165 172 208 165 172 208 165 172 208 165 172 208 165 147 191 139 147 191 139 167 197 142 167 197 142 167 197 142 167 197 142 167 197 142 189 204 150 189 204 150 209 215 171 209 215 171 209 215 171 146 150 119 156 159 126 156 159 126 146 150 119 146 150 119 146 150 119 146 150 119 209 215 171 146 150 119 146 150 119 146 150 119 209 215 171 146 150 119 156 159 126 156 159 126 146 150 119 224 228 180 224 228 180 156 159 126 224 228 180 224 228 180 224 228 180 156 159 126 224 228 180 156 159 126 224 228 180 156 159 126 224 228 180 156 159 126 156 159 126 156 159 126 224 228 180 156 159 126 224 228 180 224 228 180 224 228 180 156 159 126 156 159 126 224 228 180 224 228 180 224 228 180 156 159 126 224 228 180 156 159 126 238 235 191 156 159 126 224 228 180 156 159 126 238 235 191 166 164 133 238 235 191 166 164 133 238 235 191 238 235 191 166 164 133 166 164 133 166 164 133 238 235 191 166 164 133 166 164 133 166 164 133 166 164 133 156 159 126 156 159 126 156 159 126 224 228 180 156 159 126 156 159 126 156 159 126 146 150 119 224 228 180 209 215 171 146 150 119 146 150 119 146 150 119 146 150 119 146 150 119 146 150 119 146 150 119 146 150 119 132 142 105 132 142 105 189 204 150 132 142 105 189 204 150 189 204 150 189 204 150 132 142 105 132 142 105 132 142 105 132 142 105 132 142 105 132 142 105 132 142 105 132 142 105 132 142 105 132 142 105 132 142 105 132 142 105 132 142 105 189 204 150 132 142 105 132 142 105 132 142 105 132 142 105 132 142 105 132 142 105 132 142 105 132 142 105 132 142 105 132 142 105 132 142 105 132 142 105 189 204 150 189 204 150 189 204 150 189 204 150 189 204 150 116 137 99 116 137 99 116 137 99 167 197 142 167 197 142 116 137 99 167 197 142 167 197 142 167 197 142 116 137 99 167 197 142 116 137 99 116 137 99 116 137 99 116 137 99 167 197 142 102 133 97 147 191 139 147 191 139 147 191 139 102 133 97 102 133 97 102 133 97 102 133 97 102 133 97 120 145 115 120 145 115 172 208 165 172 208 165 147 191 139 147 191 139 147 191 139 147 191 139 102 133 97 147 191 139 102 133 97 102 133 97 102 133 97 120 145 115 120 145 115 172 208 165 120 145 115 172 208 165 120 145 115 172 208 165 120 145 115 120 145 115 120 145 115 102 133 97 147 191 139 147 191 139 147 191 139 102 133 97 102 133 97 102 133 97 147 191 139 147 191 139 102 133 97 102 133 97 147 191 139 147 191 139 147 191 139 102 133 97 120 145 115 120 145 115 120 145 115 120 145 115 120 145 115 120 145 115 120 145 115 120 145 115 120 145 115 120 145 115 151 169 177 151 169 177 151 169 177 151 169 177 216 242 254 151 169 177 216 242 254 151 169 177 172 208 165 172 208 165 172 208 165 120 145 115 120 145 115 172 208 165 172 208 165 172 208 165 172 208 165 172 208 165 120 145 115 172 208 165 172 208 165 172 208 165 172 208 165 172 208 165 147 191 139 147 191 139 102 133 97 102 133 97 147 191 139 147 191 139 147 191 139 147 191 139 102 133 97 147 191 139 102 133 97

216 242 254 216 242 254 216 242 254 216 242 254 172 208 165 172 208 165 172 208 165 172 208 165 172 208 165 172 208 165 172 208 165 172 208 165 172 208 165 147 191 139 147 191 139 172 208 165 172 208 165 172 208 165 147 191 139 147 191 139 147 191 139 167 197 142 167 197 142 167 197 142 167 197 142 189 204 150 189 204 150 189 204 150 209 215 171 209 215 171 209 215 171 209 215 171 209 215 171 224 228 180 224 228 180 146 150 119 209 215 171 146 150 119 146 150 119 146 150 119 146 150 119 209 215 171 209 215 171 146 150 119 224 228 180 156 159 126 146 150 119 146 150 119 146 150 119 224 228 180 224 228 180 224 228 180 156 159 126 156 159 126 224 228 180 224 228 180 224 228 180 156 159 126 156 159 126 156 159 126 224 228 180 156 159 126 156 159 126 156 159 126 224 228 180 156 159 126 156 159 126 156 159 126 224 228 180 224 228 180 224 228 180 224 228 180 156 159 126 224 228 180 238 235 191 238 235 191 238 235 191 238 235 191 238 235 191 238 235 191 166 164 133 238 235 191 166 164 133 238 235 191 238 235 191 166 164 133 238 235 191 166 164 133 166 164 133 166 164 133 166 164 133 166 164 133 166 164 133 156 159 126 156 159 126 156 159 126 224 228 180 156 159 126 224 228 180 156 159 126 146 150 119 209 215 171 146 150 119 146 150 119 146 150 119 146 150 119 146 150 119 146 150 119 146 150 119 132 142 105 132 142 105 132 142 105 132 142 105 132 142 105 189 204 150 132 142 105 189 204 150 132 142 105 132 142 105 132 142 105 132 142 105 132 142 105 132 142 105 132 142 105 132 142 105 132 142 105 132 142 105 132 142 105 132 142 105 132 142 105 132 142 105 132 142 105 132 142 105 132 142 105 132 142 105 132 142 105 132 142 105 132 142 105 132 142 105 116 137 99 132 142 105 132 142 105 116 137 99 116 137 99 189 204 150 189 204 150 189 204 150 189 204 150 189 204 150 116 137 99 167 197 142 167 197 142 167 197 142 167 197 142 167 197 142 167 197 142 167 197 142 167 197 142 167 197 142 167 197 142 167 197 142 116 137 99 116 137 99 167 197 142 102 133 97 102 133 97 102 133 97 102 133 97 102 133 97 102 133 97 102 133 97 102 133 97 120 145 115 147 191 139 120 145 115 120 145 115 172 208 165 172 208 165 147 191 139 147 191 139 147 191 139 102 133 97 147 191 139 102 133 97 102 133 97 120 145 115 102 133 97 120 145 115 120 145 115 172 208 165 172 208 165 120 145 115 172 208 165 172 208 165 172 208 165 172 208 165 172 208 165 172 208 165 147 191 139 147 191 139 102 133 97 102 133 97 102 133 97 102 133 97 147 191 139 147 191 139 147 191 139 147 191 139 147 191 139 147 191 139 102 133 97 120 145 115 147 191 139 172 208 165 120 145 115 172 208 165 120 145 115 120 145 115 172 208 165 172 208 165 120 145 115 151 169 177 151 169 177 151 169 177 216 242 254 151 169 177 216 242 254 151 169 177 216 242 254 216 242 254 172 208 165 120 145 115 172 208 165 172 208 165 120 145 115 172 208 165 172 208 165 172 208 165 172 208 165 172 208 165 172 208 165 172 208 165 172 208 165 120 145 115 172 208 165 172 208 165 147 191 139 147 191 139 147 191 139 102 133 97 147 191 139 147 191 139 147 191 139 102 133 97 147 191 139 147 191 139 102 133 97

216 242 254 216 242 254 216 242 254 172 208 165 172 208 165 172 208 165 172 208 165 172 208 165 172 208 165 172 208 165 147 191 139 147 191 139 172 208 165 147 191 139 147 191 139 147 191 139 147 191 139 147 191 139 147 191 139 147 191 139 147 191 139 167 197 142 167 197 142 167 197 142 189 204 150 189 204 150 189 204 150 189 204 150 209 215 171 209 215 171 146 150 119 146 150 119 146 150 119 146 150 119 146 150 119 146 150 119 209 215 171 209 215 171 209 215 171 146 150 119 209 215 171 209 215 171 209 215 171 146 150 119 209 215 171 146 150 119 146 150 119 209 215 171 224 228 180 224 228 180 156 159 126 156 159 126 156 159 126 146 150 119 156 159 126 156 159 126 156 159 126 156 159 126 156 159 126 224 228 180 156 159 126 156 159 126 156 159 126 156 159 126 156 159 126 156 159 126 156 159 126 156 159 126 224 228 180 224 228 180 224 228 180 224 228 180 238 235 191 238 235 191 238 235 191 238 235 191 238 235 191 156 159 126 238 235 191 156 159 126 156 159 126 238 235 191 238 235 191 238 235 191 238 235 191 238 235 191 238 235 191 166 164 133 166 164 133 166 164 133 156 159 126 166 164 133 156 159 126 156 159 126 156 159 126 224 228 180 224 228 180 156 159 126 224 228 180 156 159 126 156 159 126 146 150 119 146 150 119 146 150 119 146 150 119 146 150 119 146 150 119 146 150 119 132 142 105 132 142 105 132 142 105 132 142 105 132 142 105 132 142 105 132 142 105 189 204 150 189 204 150 132 142 105 132 142 105 132 142 105 132 142 105 132 142 105 132 142 105 132 142 105 132 142 105 132 142 105 116 137 99 132 142 105 116 137 99 116 137 99 116 137 99 116 137 99 132 142 105 116 137 99 132 142 105 132 142 105 189 204 150 132 142 105 116 137 99 116 137 99 189 204 150 189 204 150 116 137 99 116 137 99 167 197 142 116 137 99 189 204 150 189 204 150 189 204 150 189 204 150 189 204 150 167 197 142 167 197 142 167 197 142 167 197 142 167 197 142 167 197 142 167 197 142 167 197 142 167 197 142 167 197 142 167 197 142 167 197 142 116 137 99 116 137 99 147 191 139 147 191 139 102 133 97 102 133 97 147 191 139 102 133 97 102 133 97 147 191 139 147 191 139 120 145 115 172 208 165 172 208 165 172 208 165 172 208 165 102 133 97 147 191 139 102 133 97 147 191 139 102 133 97 147 191 139 102 133 97 172 208 165 120 145 115 120 145 115 120 145 115 120 145 115 120 145 115 172 208 165 120 145 115 172 208 165 172 208 165 172 208 165 172 208 165 147 191 139 102 133 97 102 133 97 120 145 115 102 133 97 102 133 97 147 191 139 147 191 139 147 191 139 102 133 97 102 133 97 102 133 97 147 191 139 120 145 115 172 208 165 120 145 115 172 208 165 172 208 165 120 145 115 172 208 165 120 145 115 120 145 115 151 169 177 151 169 177 151 169 177 151 169 177 151 169 177 151 169 177 216 242 254 151 169 177 216 242 254 216 242 254 216 242 254 172 208 165 172 208 165 120 145 115 120 145 115 120 145 115 172 208 165 172 208 165 120 145 115 120 145 115 172 208 165 172 208 165 120 145 115 172 208 165 172 208 165 172 208 165 147 191 139 147 191 139 147 191 139 102 133 97 147 191 139 102 133 97 102 133 97 102 133 97 147 191 139 102 133 97 147 191 139

216 242 254 216 242 254 172 208 165 172 208 165 172 208 165 172 208 165 172 208 165 147 191 139 147 191 139 147 191 139 147 191 139 147 191 139 147 191 139 147 191 139 147 191 139 147 191 139 147 191 139 147 191 139 147 191 139 147 191 139 147 191 139 167 197 142 167 197 142 167 197 142 189 204 150 189 204 150 189 204 150 189 204 150 209 215 171 146 150 119 146 150 119 209 215 171 224 228 180 224 228 180 209 215 171 209 215 171 209 215 171 146 150 119 146 150 119 209 215 171 209 215 171 209 215 171 209 215 171 146 150 119 224 228 180 146 150 119 146 150 119 146 150 119 224 228 180 224 228 180 146 150 119 146 150 119 156 159 126 146 150 119 146 150 119 146 150 119 146 150 119 156 159 126 224 228 180 156 159 126 156 159 126 224 228 180 156 159 126 156 159 126 156 159 126 224 228 180 224 228 180 224 228 180 224 228 180 224 228 180 238 235 191 238 235 191 238 235 191 238 235 191 238 235 191 166 164 133 238 235 191 166 164 133 224 228 180 156 159 126 224 228 180 238 235 191 238 235 191 238 235 191 238 235 191 166 164 133 166 164 133 156 159 126 156 159 126 238 235 191 156 159 126 238 235 191 156 159 126 156 159 126 224 228 180 224 228 180 156 159 126 224 228 180 224 228 180 156 159 126 156 159 126 146 150 119 146 150 119 146 150 119 146 150 119 209 215 171 209 215 171 146 150 119 132 142 105 132 142 105 132 142 105 132 142 105 132 142 105 189 204 150 132 142 105 189 204 150 132 142 105 132 142 105 189 204 150 132 142 105 132 142 105 116 137 99 116 137 99 116 137 99 132 142 105 116 137 99 116 137 99 167 197 142 116 137 99 116 137 99 116 137 99 116 137 99 116 137 99 116 137 99 116 137 99 116 137 99 189 204 150 116 137 99 116 137 99 167 197 142 167 197 142 116 137 99 189 204 150 189 204 150 167 197 142 189 204 150 189 204 150 189 204 150 189 204 150 189 204 150 189 204 150 189 204 150 189 204 150 167 197 142 167 197 142 167 197 142 116 137 99 167 197 142 167 197 142 167 197 142 167 197 142 116 137 99 116 137 99 116 137 99 167 197 142 116 137 99 102 133 97 102 133 97 147 191 139 147 191 139 147 191 139 102 133 97 147 191 139 120 145 115 120 145 115 120 145 115 120 145 115 172 208 165 120 145 115 120 145 115 147 191 139 102 133 97 147 191 139 102 133 97 147 191 139 120 145 115 120 145 115 120 145 115 172 208 165 120 145 115 120 145 115 120 145 115 172 208 165 120 145 115 172 208 165 120 145 115 172 208 165 120 145 115 120 145 115 120 145 115 120 145 115 120 145 115 120 145 115 147 191 139 102 133 97 102 133 97 102 133 97 102 133 97 147 191 139 147 191 139 147 191 139 102 133 97 120 145 115 120 145 115 147 191 139 172 208 165 120 145 115 120 145 115 120 145 115 120 145 115 151 169 177 151 169 177 151 169 177 151 169 177 151 169 177 151 169 177 151 169 177 151 169 177 151 169 177 216 242 254 216 242 254 216 242 254 172 208 165 151 169 177 172 208 165 120 145 115 172 208 165 120 145 115 120 145 115 172 208 165 172 208 165 120 145 115 172 208 165 172 208 165 172 208 165 172 208 165 172 208 165 120 145 115 102 133 97 147 191 139 147 191 139 102 133 97 147 191 139 147 191 139 147 191 139 147 191 139 147 191 139

216 242 254 216 242 254 172 208 165 172 208 165 172 208 165 172 208 165 172 208 165 172 208 165 147 191 139 147 191 139 147 191 139 147 191 139 147 191 139 147 191 139 102 133 97 102 133 97 147 191 139 147 191 139 147 191 139 147 191 139 167 197 142 167 197 142 167 197 142 189 204 150 189 204 150 189 204 150 189 204 150 209 215 171 209 215 171 209 215 171 209 215 171 209 215 171 209 215 171 224 228 180 224 228 180 209 215 171 209 215 171 146 150 119 209 215 171 209 215 171 146 150 119 146 150 119 209 215 171 146 150 119 146 150 119 146 150 119 209 215 171 209 215 171 209 215 171 146 150 119 146 150 119 146 150 119 146 150 119 146 150 119 146 150 119 146 150 119 209 215 171 209 215 171 224 228 180 146 150 119 146 150 119 224 228 180 156 159 126 224 228 180 224 228 180 224 228 180 224 228 180 224 228 180 224 228 180 224 228 180 238 235 191 238 235 191 238 235 191 238 235 191 238 235 191 238 235 191 238 235 191 238 235 191 238 235 191 238 235 191 224 228 180 238 235 191 238 235 191 238 235 191 166 164 133 166 164 133 238 235 191 166 164 133 238 235 191 238 235 191 238 235 191 224 228 180 156 159 126 224 228 180 224 228 180 156 159 126 224 228 180 156 159 126 156 159 126 156 159 126 146 150 119 146 150 119 146 150 119 146 150 119 146 150 119 209 215 171 146 150 119 146 150 119 132 142 105 132 142 105 132 142 105 132 142 105 132 142 105 132 142 105 132 142 105 132 142 105 132 142 105 132 142 105 132 142 105 116 137 99 116 137 99 116 137 99 116 137 99 116 137 99 116 137 99 116 137 99 116 137 99 116 137 99 116 137 99 116 137 99 167 197 142 167 197 142 116 137 99 116 137 99 167 197 142 167 197 142 189 204 150 116 137 99 116 137 99 167 197 142 167 197 142 189 204 150 189 204 150 132 142 105 189 204 150 189 204 150 189 204 150 189 204 150 189 204 150 189 204 150 132 142 105 189 204 150 189 204 150 189 204 150 167 197 142 116 137 99 167 197 142 167 197 142 167 197 142 167 197 142 167 197 142 116 137 99 116 137 99 167 197 142 167 197 142 116 137 99 102 133 97 147 191 139 102 133 97 147 191 139 147 191 139 147 191 139 147 191 139 102 133 97 120 145 115 172 208 165 172 208 165 172 208 165 120 145 115 172 208 165 172 208 165 147 191 139 147 191 139 147 191 139 147 191 139 120 145 115 172 208 165 172 208 165 120 145 115 120 145 115 120 145 115 172 208 165 172 208 165 120 145 115 120 145 115 120 145 115 120 145 115 120 145 115 172 208 165 172 208 165 120 145 115 172 208 165 172 208 165 172 208 165 120 145 115 102 133 97 147 191 139 102 133 97 147 191 139 102 133 97 102 133 97 120 145 115 120 145 115 172 208 165 172 208 165 120 145 115 120 145 115 120 145 115 120 145 115 120 145 115 151 169 177 216 242 254 151 169 177 151 169 177 151 169 177 151 169 177 216 242 254 151 169 177 151 169 177 151 169 177 216 242 254 216 242 254 151 169 177 151 169 177 172 208 165 120 145 115 172 208 165 120 145 115 172 208 165 172 208 165 172 208 165 120 145 115 120 145 115 172 208 165 172 208 165 120 145 115 172 208 165 120 145 115 120 145 115 147 191 139 120 145 115 147 191 139 147 191 139 102 133 97 147 191 139 147 191 139 147 191 139

216 242 254 151 169 177 216 242 254 172 208 165 172 208 165 172 208 165 172 208 165 147 191 139 147 191 139 147 191 139 147 191 139 147 191 139 147 191 139 147 191 139 147 191 139 147 191 139 147 191 139 147 191 139 167 197 142 147 191 139 167 197 142 167 197 142 189 204 150 189 204 150 189 204 150 189 204 150 189 204 150 209 215 171 209 215 171 146 150 119 209 215 171 209 215 171 209 215 171 146 150 119 146 150 119 146 150 119 146 150 119 146 150 119 209 215 171 209 215 171 209 215 171 209 215 171 209 215 171 146 150 119 209 215 171 209 215 171 224 228 180 209 215 171 146 150 119 146 150 119 146 150 119 209 215 171 146 150 119 146 150 119 146 150 119 209 215 171 209 215 171 209 215 171 224 228 180 156 159 126 224 228 180 224 228 180 224 228 180 224 228 180 224 228 180 156 159 126 224 228 180 224 228 180 156 159 126 224 228 180 238 235 191 238 235 191 238 235 191 238 235 191 238 235 191 238 235 191 238 235 191 238 235 191 238 235 191 238 235 191 238 235 191 238 235 191 238 235 191 238 235 191 166 164 133 166 164 133 238 235 191 166 164 133 238 235 191 238 235 191 238 235 191 156 159 126 238 235 191 224 228 180 224 228 180 224 228 180 224 228 180 156 159 126 156 159 126 146 150 119 146 150 119 146 150 119 146 150 119 209 215 171 209 215 171 146 150 119 146 150 119 209 215 171 132 142 105 132 142 105 132 142 105 132 142 105 132 142 105 116 137 99 189 204 150 116 137 99 116 137 99 116 137 99 116 137 99 116 137 99 116 137 99 116 137 99 116 137 99 116 137 99 116 137 99 116 137 99 116 137 99 116 137 99 116 137 99 116 137 99 116 137 99 116 137 99 116 137 99 167 197 142 116 137 99 167 197 142 167 197 142 116 137 99 116 137 99 189 204 150 189 204 150 189 204 150 189 204 150 189 204 150 189 204 150 189 204 150 189 204 150 189 204 150 189 204 150 132 142 105 189 204 150 189 204 150 189 204 150 189 204 150 132 142 105 167 197 142 167 197 142 167 197 142 116 137 99 167 197 142 167 197 142 167 197 142 167 197 142 116 137 99 167 197 142 116 137 99 167 197 142 167 197 142 147 191 139 147 191 139 102 133 97 147 191 139 147 191 139 102 133 97 147 191 139 120 145 115 172 208 165 172 208 165 120 145 115 172 208 165 172 208 165 172 208 165 147 191 139 102 133 97 147 191 139 102 133 97 172 208 165 120 145 115 120 145 115 120 145 115 120 145 115 120 145 115 120 145 115 172 208 165 120 145 115 120 145 115 172 208 165 172 208 165 172 208 165 172 208 165 120 145 115 120 145 115 120 145 115 120 145 115 147 191 139 172 208 165 147 191 139 147 191 139 147 191 139 147 191 139 147 191 139 147 191 139 120 145 115 120 145 115 172 208 165 120 145 115 120 145 115 120 145 115 120 145 115 172 208 165 120 145 115 151 169 177 151 169 177 151 169 177 137 164 178 137 164 178 137 164 178 137 164 178 137 164 178 137 164 178 216 242 254 151 169 177 151 169 177 216 242 254 151 169 177 151 169 177 151 169 177 172 208 165 120 145 115 120 145 115 120 145 115 172 208 165 172 208 165 172 208 165 172 208 165 120 145 115 172 208 165 120 145 115 120 145 115 172 208 165 147 191 139 147 191 139 102 133 97 102 133 97 147 191 139 102 133 97 102 133 97

216 242 254 216 242 254 216 242 254 172 208 165 172 208 165 172 208 165 172 208 165 172 208 165 147 191 139 147 191 139 147 191 139 147 191 139 102 133 97 147 191 139 147 191 139 147 191 139 147 191 139 147 191 139 167 197 142 167 197 142 167 197 142 167 197 142 189 204 150 189 204 150 189 204 150 189 204 150 189 204 150 189 204 150 209 215 171 209 215 171 209 215 171 209 215 171 209 215 171 146 150 119 146 150 119 146 150 119 146 150 119 209 215 171 209 215 171 146 150 119 209 215 171 146 150 119 209 215 171 209 215 171 209 215 171 146 150 119 146 150 119 146 150 119 209 215 171 146 150 119 209 215 171 146 150 119 146 150 119 146 150 119 146 150 119 146 150 119 146 150 119 209 215 171 209 215 171 156 159 126 224 228 180 224 228 180 224 228 180 224 228 180 156 159 126 156 159 126 224 228 180 224 228 180 224 228 180 238 235 191 238 235 191 238 235 191 238 235 191 238 235 191 238 235 191 238 235 191 166 164 133 238 235 191 166 164 133 238 235 191 238 235 191 238 235 191 238 235 191 238 235 191 238 235 191 238 235 191 238 235 191 166 164 133 166 164 133 166 164 133 156 159 126 156 159 126 238 235 191 238 235 191 238 235 191 224 228 180 156 159 126 156 159 126 156 159 126 224 228 180 146 150 119 146 150 119 209 215 171 209 215 171 209 215 171 146 150 119 146 150 119 146 150 119 132 142 105 132 142 105 132 142 105 132 142 105 132 142 105 116 137 99 116 137 99 116 137 99 116 137 99 116 137 99 116 137 99 116 137 99 116 137 99 116 137 99 116 137 99 116 137 99 116 137 99 116 137 99 116 137 99 116 137 99 102 133 97 167 197 142 102 133 97 102 133 97 102 133 97 116 137 99 116 137 99 167 197 142 116 137 99 116 137 99 167 197 142 167 197 142 189 204 150 189 204 150 189 204 150 189 204 150 189 204 150 189 204 150 132 142 105 189 204 150 189 204 150 189 204 150 189 204 150 189 204 150 189 204 150 189 204 150 132 142 105 116 137 99 189 204 150 167 197 142 167 197 142 167 197 142 167 197 142 116 137 99 116 137 99 116 137 99 167 197 142 116 137 99 116 137 99 102 133 97 102 133 97 102 133 97 147 191 139 147 191 139 102 133 97 102 133 97 102 133 97 120 145 115 172 208 165 172 208 165 147 191 139 172 208 165 172 208 165 172 208 165 147 191 139 102 133 97 147 191 139 102 133 97 120 145 115 120 145 115 120 145 115 120 145 115 151 169 177 151 169 177 151 169 177 151 169 177 172 208 165 172 208 165 172 208 165 120 145 115 172 208 165 120 145 115 120 145 115 172 208 165 120 145 115 172 208 165 172 208 165 120 145 115 147 191 139 147 191 139 147 191 139 147 191 139 147 191 139 147 191 139 147 191 139 172 208 165 147 191 139 172 208 165 172 208 165 172 208 165 172 208 165 120 145 115 151 169 177 151 169 177 151 169 177 151 169 177 137 164 178 197 235 255 197 235 255 137 164 178 197 235 255 216 242 254 216 242 254 216 242 254 216 242 254 216 242 254 151 169 177 151 169 177 151 169 177 216 242 254 151 169 177 151 169 177 151 169 177 172 208 165 120 145 115 120 145 115 120 145 115 120 145 115 172 208 165 120 145 115 120 145 115 120 145 115 120 145 115 120 145 115 102 133 97 102 133 97 120 145 115 120 145 115 120 145 115

216 242 254 216 242 254 172 208 165 172 208 165 172 208 165 172 208 165 172 208 165 147 191 139 147 191 139 147 191 139 147 191 139 102 133 97 147 191 139 147 191 139 147 191 139 147 191 139 147 191 139 147 191 139 167 197 142 167 197 142 167 197 142 167 197 142 189 204 150 189 204 150 189 204 150 189 204 150 189 204 150 132 142 105 189 204 150 132 142 105 209 215 171 209 215 171 209 215 171 146 150 119 146 150 119 146 150 119 209 215 171 209 215 171 146 150 119 209 215 171 209 215 171 209 215 171 146 150 119 209 215 171 224 228 180 146 150 119 209 215 171 209 215 171 146 150 119 146 150 119 209 215 171 209 215 171 146 150 119 146 150 119 209 215 171 209 215 171 209 215 171 209 215 171 146 150 119 224 228 180 224 228 180 224 228 180 224 228 180 156 159 126 156 159 126 224 228 180 224 228 180 224 228 180 224 228 180 238 235 191 238 235 191 238 235 191 238 235 191 238 235 191 238 235 191 238 235 191 238 235 191 238 235 191 166 164 133 238 235 191 238 235 191 238 235 191 166 164 133 238 235 191 238 235 191 238 235 191 238 235 191 166 164 133 156 159 126 156 159 126 238 235 191 224 228 180 238 235 191 238 235 191 238 235 191 156 159 126 156 159 126 224 228 180 156 159 126 156 159 126 146 150 119 146 150 119 146 150 119 209 215 171 209 215 171 209 215 171 146 150 119 146 150 119 146 150 119 132 142 105 132 142 105 132 142 105 116 137 99 116 137 99 167 197 142 116 137 99 116 137 99 116 137 99 116 137 99 116 137 99 116 137 99 102 133 97 102 133 97 102 133 97 167 197 142 116 137 99 167 197 142 116 137 99 116 137 99 102 133 97 116 137 99 147 191 139 102 133 97 167 197 142 167 197 142 116 137 99 116 137 99 116 137 99 116 137 99 167 197 142 189 204 150 189 204 150 189 204 150 189 204 150 189 204 150 189 204 150 189 204 150 189 204 150 189 204 150 189 204 150 189 204 150 189 204 150 189 204 150 132 142 105 132 142 105 132 142 105 189 204 150 116 137 99 189 204 150 167 197 142 116 137 99 116 137 99 116 137 99 116 137 99 116 137 99 116 137 99 102 133 97 102 133 97 147 191 139 102 133 97 167 197 142 147 191 139 147 191 139 147 191 139 102 133 97 147 191 139 147 191 139 147 191 139 147 191 139 147 191 139 172 208 165 172 208 165 172 208 165 147 191 139 147 191 139 147 191 139 120 145 115 120 145 115 120 145 115 120 145 115 120 145 115 151 169 177 151 169 177 216 242 254 172 208 165 120 145 115 120 145 115 120 145 115 172 208 165 120 145 115 120 145 115 172 208 165 120 145 115 172 208 165 120 145 115 172 208 165 147 191 139 147 191 139 147 191 139 147 191 139 147 191 139 147 191 139 147 191 139 102 133 97 147 191 139 120 145 115 147 191 139 172 208 165 120 145 115 120 145 115 151 169 177 151 169 177 151 169 177 137 164 178 137 164 178 197 235 255 197 235 255 137 164 178 137 164 178 137 164 178 137 164 178 216 242 254 216 242 254 216 242 254 216 242 254 216 242 254 151 169 177 216 242 254 151 169 177 151 169 177 172 208 165 172 208 165 172 208 165 151 169 177 151 169 177 172 208 165 172 208 165 120 145 115 120 145 115 120 145 115 172 208 165 172 208 165 172 208 165 120 145 115 120 145 115 120 145 115 172 208 165

216 242 254 172 208 165 172 208 165 172 208 165 172 208 165 172 208 165 172 208 165 147 191 139 147 191 139 147 191 139 147 191 139 147 191 139 147 191 139 147 191 139 147 191 139 147 191 139 102 133 97 167 197 142 167 197 142 167 197 142 167 197 142 167 197 142 167 197 142 132 142 105 189 204 150 132 142 105 132 142 105 189 204 150 189 204 150 189 204 150 209 215 171 146 150 119 146 150 119 146 150 119 146 150 119 146 150 119 209 215 171 146 150 119 146 150 119 209 215 171 146 150 119 146 150 119 146 150 119 209 215 171 209 215 171 146 150 119 209 215 171 209 215 171 209 215 171 209 215 171 209 215 171 209 215 171 146 150 119 209 215 171 209 215 171 209 215 171 209 215 171 209 215 171 224 228 180 224 228 180 224 228 180 224 228 180 224 228 180 156 159 126 224 228 180 224 228 180 224 228 180 224 228 180 238 235 191 238 235 191 238 235 191 238 235 191 238 235 191 166 164 133 238 235 191 238 235 191 166 164 133 166 164 133 166 164 133 238 235 191 166 164 133 166 164 133 166 164 133 166 164 133 166 164 133 166 164 133 166 164 133 156 159 126 156 159 126 156 159 126 156 159 126 156 159 126 224 228 180 156 159 126 238 235 191 166 164 133 156 159 126 156 159 126 156 159 126 156 159 126 224 228 180 146 150 119 209 215 171 209 215 171 209 215 171 146 150 119 146 150 119 146 150 119 132 142 105 132 142 105 132 142 105 132 142 105 116 137 99 116 137 99 116 137 99 116 137 99 116 137 99 116 137 99 102 133 97 102 133 97 102 133 97 102 133 97 147 191 139 102 133 97 102 133 97 102 133 97 102 133 97 102 133 97 102 133 97 102 133 97 102 133 97 102 133 97 102 133 97 167 197 142 167 197 142 167 197 142 167 197 142 167 197 142 167 197 142 167 197 142 189 204 150 132 142 105 189 204 150 189 204 150 189 204 150 132 142 105 132 142 105 132 142 105 132 142 105 189 204 150 189 204 150 132 142 105 132 142 105 132 142 105 132 142 105 189 204 150 189 204 150 132 142 105 167 197 142 116 137 99 116 137 99 116 137 99 116 137 99 167 197 142 116 137 99 116 137 99 102 133 97 102 133 97 102 133 97 147 191 139 147 191 139 102 133 97 102 133 97 102 133 97 102 133 97 102 133 97 147 191 139 147 191 139 102 133 97 147 191 139 120 145 115 147 191 139 120 145 115 172 208 165 120 145 115 120 145 115 120 145 115 120 145 115 120 145 115 120 145 115 151 169 177 151 169 177 151 169 177 216 242 254 151 169 177 172 208 165 120 145 115 172 208 165 120 145 115 120 145 115 120 145 115 120 145 115 172 208 165 120 145 115 172 208 165 172 208 165 147 191 139 147 191 139 147 191 139 102 133 97 102 133 97 102 133 97 102 133 97 102 133 97 147 191 139 147 191 139 172 208 165 120 145 115 120 145 115 120 145 115 151 169 177 151 169 177 151 169 177 151 169 177 197 235 255 197 235 255 197 235 255 137 164 178 137 164 178 216 242 254 216 242 254 216 242 254 216 242 254 216 242 254 216 242 254 216 242 254 151 169 177 216 242 254 216 242 254 216 242 254 216 242 254 120 145 115 151 169 177 151 169 177 216 242 254 216 242 254 151 169 177 151 169 177 120 145 115 172 208 165 172 208 165 120 145 115 120 145 115 120 145 115 120 145 115 120 145 115 172 208 165

172 208 165 172 208 165 172 208 165 172 208 165 172 208 165 172 208 165 147 191 139 147 191 139 147 191 139 147 191 139 147 191 139 147 191 139 147 191 139 147 191 139 147 191 139 147 191 139 147 191 139 147 191 139 167 197 142 167 197 142 167 197 142 116 137 99 116 137 99 167 197 142 189 204 150 132 142 105 189 204 150 189 204 150 189 204 150 189 204 150 189 204 150 209 215 171 209 215 171 146 150 119 146 150 119 209 215 171 209 215 171 146 150 119 209 215 171 209 215 171 209 215 171 146 150 119 209 215 171 209 215 171 146 150 119 146 150 119 209 215 171 209 215 171 209 215 171 209 215 171 224 228 180 224 228 180 224 228 180 209 215 171 209 215 171 209 215 171 209 215 171 209 215 171 224 228 180 224 228 180 224 228 180 224 228 180 224 228 180 156 159 126 224 228 180 224 228 180 224 228 180 224 228 180 238 235 191 238 235 191 238 235 191 238 235 191 238 235 191 238 235 191 238 235 191 166 164 133 166 164 133 238 235 191 238 235 191 238 235 191 238 235 191 238 235 191 166 164 133 238 235 191 238 235 191 238 235 191 238 235 191 238 235 191 224 228 180 156 159 126 224 228 180 224 228 180 224 228 180 156 159 126 238 235 191 156 159 126 156 159 126 156 159 126 156 159 126 156 159 126 146 150 119 224 228 180 209 215 171 209 215 171 209 215 171 146 150 119 146 150 119 132 142 105 132 142 105 132 142 105 132 142 105 116 137 99 116 137 99 116 137 99 167 197 142 167 197 142 116 137 99 102 133 97 102 133 97 102 133 97 102 133 97 102 133 97 147 191 139 102 133 97 102 133 97 102 133 97 147 191 139 102 133 97 102 133 97 102 133 97 147 191 139 147 191 139 147 191 139 147 191 139 167 197 142 167 197 142 167 197 142 167 197 142 167 197 142 167 197 142 189 204 150 189 204 150 189 204 150 189 204 150 132 142 105 132 142 105 132 142 105 189 204 150 132 142 105 189 204 150 189 204 150 132 142 105 132 142 105 132 142 105 132 142 105 189 204 150 189 204 150 132 142 105 189 204 150 116 137 99 116 137 99 116 137 99 116 137 99 167 197 142 116 137 99 116 137 99 116 137 99 167 197 142 167 197 142 147 191 139 147 191 139 147 191 139 102 133 97 102 133 97 147 191 139 147 191 139 147 191 139 147 191 139 147 191 139 147 191 139 147 191 139 172 208 165 120 145 115 172 208 165 172 208 165 120 145 115 120 145 115 120 145 115 120 145 115 120 145 115 151 169 177 216 242 254 216 242 254 216 242 254 216 242 254 216 242 254 120 145 115 172 208 165 172 208 165 172 208 165 172 208 165 172 208 165 172 208 165 120 145 115 172 208 165 172 208 165 147 191 139 147 191 139 147 191 139 102 133 97 102 133 97 147 191 139 102 133 97 102 133 97 147 191 139 102 133 97 102 133 97 120 145 115 120 145 115 120 145 115 120 145 115 216 242 254 151 169 177 216 242 254 216 242 254 216 242 254 137 164 178 197 235 255 197 235 255 197 235 255 216 242 254 216 242 254 216 242 254 216 242 254 216 242 254 151 169 177 216 242 254 216 242 254 216 242 254 216 242 254 172 208 165 216 242 254 151 169 177 151 169 177 151 169 177 151 169 177 151 169 177 151 169 177 172 208 165 172 208 165 120 145 115 120 145 115 120 145 115 120 145 115 120 145 115 120 145 115 120 145 115

172 208 165 172 208 165 172 208 165 172 208 165 172 208 165 172 208 165 147 191 139 147 191 139 147 191 139 147 191 139 147 191 139 102 133 97 147 191 139 147 191 139 147 191 139 147 191 139 147 191 139 167 197 142 167 197 142 167 197 142 167 197 142 116 137 99 116 137 99 167 197 142 189 204 150 189 204 150 189 204 150 189 204 150 189 204 150 132 142 105 189 204 150 189 204 150 209 215 171 146 150 119 209 215 171 209 215 171 209 215 171 209 215 171 146 150 119 209 215 171 209 215 171 209 215 171 209 215 171 146 150 119 209 215 171 209 215 171 209 215 171 224 228 180 224 228 180 224 228 180 209 215 171 146 150 119 146 150 119 146 150 119 209 215 171 209 215 171 209 215 171 209 215 171 224 228 180 224 228 180 224 228 180 224 228 180 224 228 180 156 159 126 224 228 180 224 228 180 224 228 180 224 228 180 238 235 191 238 235 191 238 235 191 238 235 191 238 235 191 238 235 191 238 235 191 166 164 133 238 235 191 166 164 133 238 235 191 166 164 133 166 164 133 166 164 133 166 164 133 238 235 191 166 164 133 166 164 133 166 164 133 156 159 126 156 159 126 156 159 126 156 159 126 224 228 180 224 228 180 224 228 180 224 228 180 238 235 191 224 228 180 224 228 180 224 228 180 156 159 126 224 228 180 224 228 180 146 150 119 224 228 180 146 150 119 146 150 119 146 150 119 132 142 105 132 142 105 132 142 105 116 137 99 116 137 99 116 137 99 116 137 99 116 137 99 116 137 99 102 133 97 102 133 97 147 191 139 102 133 97 102 133 97 102 133 97 102 133 97 102 133 97 147 191 139 147 191 139 147 191 139 102 133 97 102 133 97 147 191 139 147 191 139 102 133 97 102 133 97 147 191 139 147 191 139 167 197 142 167 197 142 167 197 142 167 197 142 189 204 150 189 204 150 189 204 150 132 142 105 132 142 105 189 204 150 189 204 150 132 142 105 132 142 105 189 204 150 189 204 150 189 204 150 132 142 105 132 142 105 132 142 105 189 204 150 189 204 150 189 204 150 132 142 105 132 142 105 116 137 99 116 137 99 116 137 99 167 197 142 167 197 142 167 197 142 116 137 99 167 197 142 167 197 142 102 133 97 167 197 142 167 197 142 167 197 142 167 197 142 102 133 97 147 191 139 147 191 139 147 191 139 102 133 97 102 133 97 102 133 97 102 133 97 102 133 97 120 145 115 120 145 115 120 145 115 120 145 115 120 145 115 120 145 115 120 145 115 172 208 165 151 169 177 216 242 254 151 169 177 151 169 177 216 242 254 216 242 254 172 208 165 172 208 165 172 208 165 172 208 165 172 208 165 172 208 165 172 208 165 120 145 115 172 208 165 172 208 165 147 191 139 147 191 139 102 133 97 102 133 97 102 133 97 102 133 97 102 133 97 120 145 115 120 145 115 102 133 97 147 191 139 120 145 115 120 145 115 120 145 115 151 169 177 151 169 177 151 169 177 216 242 254 216 242 254 216 242 254 216 242 254 216 242 254 216 242 254 216 242 254 216 242 254 216 242 254 216 242 254 216 242 254 216 242 254 216 242 254 216 242 254 216 242 254 216 242 254 216 242 254 151 169 177 151 169 177 151 169 177 151 169 177 151 169 177 216 242 254 216 242 254 216 242 254 151 169 177 151 169 177 151 169 177 120 145 115 151 169 177 151 169 177 151 169 177 151 169 177 151 169 177

172 208 165 172 208 165 172 208 165 172 208 165 172 208 165 147 191 139 147 191 139 147 191 139 147 191 139 147 191 139 147 191 139 147 191 139 167 197 142 147 191 139 167 197 142 167 197 142 167 197 142 167 197 142 167 197 142 167 197 142 167 197 142 116 137 99 116 137 99 167 197 142 189 204 150 189 204 150 189 204 150 189 204 150 132 142 105 132 142 105 189 204 150 189 204 150 209 215 171 209 215 171 209 215 171 209 215 171 146 150 119 146 150 119 146 150 119 209 215 171 209 215 171 209 215 171 146 150 119 146 150 119 209 215 171 209 215 171 224 228 180 224 228 180 224 228 180 224 228 180 224 228 180 224 228 180 224 228 180 209 215 171 209 215 171 209 215 171 224 228 180 224 228 180 224 228 180 224 228 180 224 228 180 224 228 180 224 228 180 156 159 126 238 235 191 224 228 180 224 228 180 224 228 180 238 235 191 238 235 191 238 235 191 238 235 191 231 224 182 238 235 191 166 164 133 238 235 191 238 235 191 166 164 133 238 235 191 166 164 133 238 235 191 238 235 191 238 235 191 166 164 133 166 164 133 156 159 126 156 159 126 156 159 126 156 159 126 156 159 126 156 159 126 224 228 180 238 235 191 224 228 180 156 159 126 238 235 191 238 235 191 156 159 126 224 228 180 156 159 126 224 228 180 224 228 180 224 228 180 146 150 119 146 150 119 146 150 119 146 150 119 132 142 105 132 142 105 132 142 105 116 137 99 116 137 99 116 137 99 116 137 99 116 137 99 116 137 99 102 133 97 102 133 97 147 191 139 102 133 97 147 191 139 102 133 97 102 133 97 102 133 97 147 191 139 102 133 97 102 133 97 102 133 97 147 191 139 147 191 139 147 191 139 102 133 97 102 133 97 147 191 139 147 191 139 167 197 142 167 197 142 167 197 142 167 197 142 167 197 142 189 204 150 189 204 150 189 204 150 189 204 150 189 204 150 132 142 105 189 204 150 189 204 150 189 204 150 132 142 105 189 204 150 132 142 105 132 142 105 189 204 150 189 204 150 132 142 105 189 204 150 132 142 105 189 204 150 116 137 99 116 137 99 167 197 142 167 197 142 167 197 142 167 197 142 116 137 99 167 197 142 116 137 99 116 137 99 167 197 142 167 197 142 167 197 142 167 197 142 102 133 97 102 133 97 102 133 97 102 133 97 102 133 97 147 191 139 147 191 139 102 133 97 147 191 139 120 145 115 120 145 115 172 208 165 120 145 115 120 145 115 172 208 165 172 208 165 151 169 177 172 208 165 151 169 177 151 169 177 151 169 177 216 242 254 151 169 177 172 208 165 172 208 165 172 208 165 172 208 165 172 208 165 172 208 165 172 208 165 120 145 115 172 208 165 172 208 165 172 208 165 147 191 139 147 191 139 102 133 97 102 133 97 147 191 139 147 191 139 120 145 115 120 145 115 120 145 115 102 133 97 120 145 115 120 145 115 120 145 115 120 145 115 151 169 177 151 169 177 216 242 254 216 242 254 216 242 254 216 242 254 216 242 254 216 242 254 216 242 254 216 242 254 216 242 254 216 242 254 216 242 254 216 242 254 151 169 177 216 242 254 216 242 254 216 242 254 151 169 177 151 169 177 151 169 177 151 169 177 151 169 177 151 169 177 151 169 177 216 242 254 151 169 177 151 169 177 216 242 254 151 169 177 151 169 177 151 169 177 151 169 177 151 169 177 151 169 177 151 169 177

172 208 165 147 191 139 147 191 139 147 191 139 147 191 139 147 191 139 147 191 139 147 191 139 147 191 139 147 191 139 147 191 139 147 191 139 167 197 142 167 197 142 167 197 142 167 197 142 167 197 142 167 197 142 167 197 142 167 197 142 167 197 142 167 197 142 167 197 142 167 197 142 167 197 142 132 142 105 189 204 150 132 142 105 132 142 105 189 204 150 189 204 150 189 204 150 189 204 150 209 215 171 209 215 171 146 150 119 146 150 119 146 150 119 146 150 119 209 215 171 209 215 171 146 150 119 209 215 171 209 215 171 209 215 171 209 215 171 209 215 171 146 150 119 146 150 119 224 228 180 156 159 126 224 228 180 224 228 180 156 159 126 209 215 171 224 228 180 224 228 180 224 228 180 224 228 180 224 228 180 224 228 180 224 228 180 156 159 126 224 228 180 224 228 180 238 235 191 224 228 180 238 235 191 238 235 191 238 235 191 238 235 191 238 235 191 238 235 191 166 164 133 238 235 191 238 235 191 166 164 133 166 164 133 238 235 191 166 164 133 238 235 191 238 235 191 166 164 133 166 164 133 156 159 126 156 159 126 156 159 126 156 159 126 156 159 126 224 228 180 224 228 180 224 228 180 224 228 180 238 235 191 156 159 126 224 228 180 156 159 126 156 159 126 156 159 126 156 159 126 224 228 180 156 159 126 156 159 126 146 150 119 146 150 119 146 150 119 146 150 119 132 142 105 132 142 105 132 142 105 132 142 105 116 137 99 116 137 99 116 137 99 116 137 99 102 133 97 102 133 97 147 191 139 102 133 97 102 133 97 147 191 139 102 133 97 147 191 139 102 133 97 102 133 97 102 133 97 102 133 97 102 133 97 102 133 97 102 133 97 147 191 139 102 133 97 102 133 97 147 191 139 147 191 139 167 197 142 167 197 142 167 197 142 167 197 142 189 204 150 189 204 150 132 142 105 132 142 105 189 204 150 189 204 150 132 142 105 189 204 150 189 204 150 132 142 105 132 142 105 189 204 150 132 142 105 132 142 105 189 204 150 132 142 105 132 142 105 132 142 105 189 204 150 116 137 99 116 137 99 167 197 142 167 197 142 167 197 142 167 197 142 167 197 142 116 137 99 167 197 142 167 197 142 167 197 142 167 197 142 167 197 142 167 197 142 116 137 99 102 133 97 102 133 97 102 133 97 147 191 139 147 191 139 147 191 139 147 191 139 102 133 97 120 145 115 120 145 115 172 208 165 172 208 165 120 145 115 172 208 165 172 208 165 120 145 115 120 145 115 216 242 254 151 169 177 151 169 177 216 242 254 216 242 254 216 242 254 216 242 254 172 208 165 172 208 165 172 208 165 172 208 165 120 145 115 172 208 165 172 208 165 172 208 165 172 208 165 172 208 165 147 191 139 147 191 139 102 133 97 102 133 97 120 145 115 120 145 115 120 145 115 120 145 115 120 145 115 120 145 115 120 145 115 120 145 115 172 208 165 120 145 115 151 169 177 216 242 254 216 242 254 216 242 254 151 169 177 151 169 177 151 169 177 216 242 254 151 169 177 216 242 254 151 169 177 216 242 254 216 242 254 216 242 254 216 242 254 216 242 254 151 169 177 151 169 177 151 169 177 151 169 177 151 169 177 151 169 177 151 169 177 151 169 177 216 242 254 151 169 177 151 169 177 151 169 177 216 242 254 151 169 177 216 242 254 151 169 177 151 169 177 151 169 177 151 169 177 151 169 177

147 191 139 147 191 139 147 191 139 147 191 139 147 191 139 147 191 139 147 191 139 147 191 139 147 191 139 147 191 139 147 191 139 167 197 142 167 197 142 167 197 142 167 197 142 167 197 142 167 197 142 167 197 142 167 197 142 167 197 142 167 197 142 116 137 99 167 197 142 167 197 142 167 197 142 167 197 142 189 204 150 132 142 105 132 142 105 189 204 150 189 204 150 189 204 150 189 204 150 209 215 171 209 215 171 209 215 171 209 215 171 146 150 119 209 215 171 209 215 171 209 215 171 209 215 171 209 215 171 146 150 119 209 215 171 146 150 119 209 215 171 146 150 119 224 228 180 224 228 180 224 228 180 224 228 180 224 228 180 224 228 180 224 228 180 224 228 180 224 228 180 224 228 180 224 228 180 224 228 180 224 228 180 224 228 180 238 235 191 238 235 191 224 228 180 156 159 126 238 235 191 238 235 191 238 235 191 238 235 191 238 235 191 238 235 191 238 235 191 166 164 133 238 235 191 238 235 191 238 235 191 166 164 133 238 235 191 166 164 133 166 164 133 166 164 133 166 164 133 156 159 126 156 159 126 156 159 126 224 228 180 238 235 191 238 235 191 224 228 180 224 228 180 224 228 180 224 228 180 238 235 191 238 235 191 224 228 180 224 228 180 224 228 180 224 228 180 156 159 126 156 159 126 156 159 126 156 159 126 146 150 119 209 215 171 146 150 119 132 142 105 132 142 105 132 142 105 132 142 105 132 142 105 116 137 99 116 137 99 116 137 99 116 137 99 102 133 97 102 133 97 102 133 97 102 133 97 102 133 97 147 191 139 102 133 97 102 133 97 102 133 97 147 191 139 147 191 139 147 191 139 147 191 139 147 191 139 147 191 139 147 191 139 102 133 97 147 191 139 147 191 139 167 197 142 167 197 142 167 197 142 167 197 142 167 197 142 167 197 142 116 137 99 132 142 105 132 142 105 189 204 150 189 204 150 189 204 150 189 204 150 132 142 105 132 142 105 132 142 105 132 142 105 132 142 105 132 142 105 189 204 150 189 204 150 189 204 150 189 204 150 132 142 105 132 142 105 116 137 99 167 197 142 167 197 142 167 197 142 167 197 142 116 137 99 116 137 99 167 197 142 167 197 142 167 197 142 167 197 142 167 197 142 167 197 142 116 137 99 102 133 97 102 133 97 102 133 97 147 191 139 147 191 139 147 191 139 102 133 97 147 191 139 102 133 97 120 145 115 172 208 165 147 191 139 172 208 165 172 208 165 172 208 165 120 145 115 172 208 165 151 169 177 151 169 177 151 169 177 216 242 254 216 242 254 216 242 254 172 208 165 172 208 165 172 208 165 172 208 165 172 208 165 172 208 165 172 208 165 120 145 115 172 208 165 172 208 165 120 145 115 172 208 165 120 145 115 120 145 115 120 145 115 120 145 115 120 145 115 120 145 115 120 145 115 120 145 115 120 145 115 120 145 115 120 145 115 120 145 115 172 208 165 172 208 165 172 208 165 172 208 165 151 169 177 216 242 254 151 169 177 151 169 177 216 242 254 216 242 254 216 242 254 216 242 254 216 242 254 216 242 254 216 242 254 151 169 177 151 169 177 216 242 254 151 169 177 151 169 177 151 169 177 216 242 254 216 242 254 216 242 254 151 169 177 216 242 254 151 169 177 216 242 254 216 242 254 216 242 254 216 242 254 151 169 177 151 169 177 151 169 177 151 169 177 151 169 177 216 242 254

147 191 139 147 191 139 147 191 139 147 191 139 147 191 139 147 191 139 147 191 139 147 191 139 147 191 139 147 191 139 147 191 139 167 197 142 167 197 142 167 197 142 167 197 142 167 197 142 167 197 142 167 197 142 167 197 142 167 197 142 167 197 142 167 197 142 167 197 142 167 197 142 167 197 142 189 204 150 167 197 142 132 142 105 132 142 105 189 204 150 189 204 150 189 204 150 209 215 171 209 215 171 209 215 171 209 215 171 209 215 171 146 150 119 209 215 171 209 215 171 209 215 171 209 215 171 146 150 119 146 150 119 209 215 171 209 215 171 209 215 171 146 150 119 224 228 180 224 228 180 224 228 180 224 228 180 224 228 180 224 228 180 156 159 126 224 228 180 224 228 180 238 235 191 238 235 191 224 228 180 238 235 191 238 235 191 238 235 191 166 164 133 156 159 126 224 228 180 224 228 180 156 159 126 238 235 191 238 235 191 238 235 191 238 235 191 238 235 191 166 164 133 238 235 191 238 235 191 166 164 133 166 164 133 166 164 133 166 164 133 238 235 191 166 164 133 238 235 191 238 235 191 238 235 191 224 228 180 224 228 180 224 228 180 156 159 126 156 159 126 224 228 180 238 235 191 238 235 191 238 235 191 156 159 126 156 159 126 156 159 126 156 159 126 156 159 126 156 159 126 156 159 126 224 228 180 146 150 119 146 150 119 146 150 119 146 150 119 132 142 105 132 142 105 132 142 105 132 142 105 116 137 99 116 137 99 116 137 99 116 137 99 167 197 142 102 133 97 102 133 97 102 133 97 102 133 97 102 133 97 102 133 97 102 133 97 102 133 97 147 191 139 147 191 139 147 191 139 147 191 139 147 191 139 147 191 139 147 191 139 147 191 139 102 133 97 147 191 139 147 191 139 167 197 142 167 197 142 167 197 142 167 197 142 167 197 142 116 137 99 167 197 142 189 204 150 116 137 99 189 204 150 189 204 150 189 204 150 189 204 150 132 142 105 189 204 150 132 142 105 132 142 105 189 204 150 189 204 150 189 204 150 132 142 105 132 142 105 132 142 105 132 142 105 116 137 99 116 137 99 167 197 142 116 137 99 116 137 99 116 137 99 116 137 99 167 197 142 167 197 142 167 197 142 167 197 142 167 197 142 167 197 142 116 137 99 116 137 99 116 137 99 102 133 97 147 191 139 102 133 97 147 191 139 147 191 139 102 133 97 102 133 97 102 133 97 120 145 115 147 191 139 147 191 139 120 145 115 120 145 115 120 145 115 120 145 115 120 145 115 151 169 177 216 242 254 216 242 254 216 242 254 216 242 254 216 242 254 216 242 254 172 208 165 172 208 165 172 208 165 172 208 165 172 208 165 120 145 115 172 208 165 172 208 165 172 208 165 172 208 165 172 208 165 172 208 165 120 145 115 172 208 165 120 145 115 120 145 115 120 145 115 120 145 115 120 145 115 120 145 115 172 208 165 120 145 115 120 145 115 172 208 165 120 145 115 120 145 115 120 145 115 151 169 177 216 242 254 151 169 177 216 242 254 216 242 254 216 242 254 216 242 254 216 242 254 216 242 254 216 242 254 216 242 254 216 242 254 216 242 254 216 242 254 216 242 254 151 169 177 151 169 177 216 242 254 151 169 177 151 169 177 216 242 254 151 169 177 151 169 177 216 242 254 151 169 177 151 169 177 151 169 177 151 169 177 151 169 177 151 169 177 151 169 177 151 169 177 151 169 177

147 191 139 147 191 139 147 191 139 147 191 139 147 191 139 147 191 139 147 191 139 147 191 139 167 197 142 167 197 142 167 197 142 167 197 142 167 197 142 167 197 142 189 204 150 167 197 142 189 204 150 167 197 142 116 137 99 116 137 99 167 197 142 167 197 142 167 197 142 167 197 142 167 197 142 116 137 99 116 137 99 116 137 99 132 142 105 189 204 150 189 204 150 189 204 150 209 215 171 132 142 105 209 215 171 209 215 171 146 150 119 146 150 119 209 215 171 209 215 171 224 228 180 224 228 180 209 215 171 146 150 119 146 150 119 146 150 119 209 215 171 209 215 171 224 228 180 224 228 180 224 228 180 224 228 180 224 228 180 224 228 180 224 228 180 224 228 180 238 235 191 238 235 191 238 235 191 238 235 191 238 235 191 156 159 126 156 159 126 156 159 126 156 159 126 156 159 126 224 228 180 238 235 191 238 235 191 238 235 191 238 235 191 238 235 191 231 224 182 166 164 133 238 235 191 166 164 133 166 164 133 166 164 133 166 164 133 238 235 191 238 235 191 238 235 191 238 235 191 238 235 191 238 235 191 156 159 126 156 159 126 224 228 180 238 235 191 224 228 180 238 235 191 238 235 191 238 235 191 238 235 191 156 159 126 224 228 180 238 235 191 224 228 180 156 159 126 156 159 126 224 228 180 156 159 126 146 150 119 146 150 119 146 150 119 146 150 119 132 142 105 132 142 105 132 142 105 132 142 105 132 142 105 116 137 99 116 137 99 116 137 99 102 133 97 102 133 97 102 133 97 102 133 97 102 133 97 102 133 97 102 133 97 102 133 97 147 191 139 147 191 139 147 191 139 147 191 139 147 191 139 102 133 97 147 191 139 102 133 97 102 133 97 102 133 97 147 191 139 167 197 142 167 197 142 167 197 142 189 204 150 167 197 142 189 204 150 189 204 150 189 204 150 167 197 142 189 204 150 167 197 142 132 142 105 189 204 150 132 142 105 132 142 105 189 204 150 132 142 105 189 204 150 189 204 150 189 204 150 189 204 150 189 204 150 189 204 150 189 204 150 132 142 105 116 137 99 116 137 99 116 137 99 116 137 99 116 137 99 116 137 99 167 197 142 167 197 142 167 197 142 167 197 142 189 204 150 189 204 150 167 197 142 116 137 99 116 137 99 116 137 99 116 137 99 147 191 139 147 191 139 147 191 139 147 191 139 147 191 139 102 133 97 147 191 139 102 133 97 147 191 139 147 191 139 120 145 115 120 145 115 120 145 115 120 145 115 172 208 165 172 208 165 172 208 165 151 169 177 151 169 177 216 242 254 172 208 165 172 208 165 172 208 165 172 208 165 172 208 165 147 191 139 120 145 115 172 208 165 172 208 165 172 208 165 120 145 115 172 208 165 172 208 165 172 208 165 120 145 115 120 145 115 120 145 115 120 145 115 120 145 115 120 145 115 172 208 165 172 208 165 120 145 115 120 145 115 120 145 115 172 208 165 172 208 165 120 145 115 120 145 115 172 208 165 151 169 177 151 169 177 216 242 254 216 242 254 216 242 254 216 242 254 216 242 254 216 242 254 216 242 254 216 242 254 216 242 254 216 242 254 151 169 177 151 169 177 151 169 177 151 169 177 151 169 177 216 242 254 151 169 177 216 242 254 151 169 177 151 169 177 151 169 177 216 242 254 216 242 254 151 169 177 151 169 177 151 169 177 151 169 177 151 169 177 151 169 177 151 169 177

167 197 142 167 197 142 147 191 139 167 197 142 147 191 139 167 197 142 167 197 142 167 197 142 167 197 142 167 197 142 167 197 142 167 197 142 167 197 142 167 197 142 189 204 150 189 204 150 189 204 150 116 137 99 116 137 99 116 137 99 167 197 142 167 197 142 167 197 142 167 197 142 116 137 99 116 137 99 167 197 142 167 197 142 167 197 142 189 204 150 189 204 150 189 204 150 189 204 150 132 142 105 189 204 150 146 150 119 146 150 119 209 215 171 209 215 171 209 215 171 209 215 171 146 150 119 146 150 119 146 150 119 209 215 171 209 215 171 209 215 171 224 228 180 224 228 180 156 159 126 224 228 180 224 228 180 224 228 180 224 228 180 224 228 180 224 228 180 238 235 191 238 235 191 238 235 191 166 164 133 238 235 191 166 164 133 238 235 191 238 235 191 156 159 126 224 228 180 224 228 180 238 235 191 238 235 191 238 235 191 238 235 191 238 235 191 238 235 191 166 164 133 166 164 133 166 164 133 166 164 133 238 235 191 238 235 191 238 235 191 238 235 191 238 235 191 238 235 191 238 235 191 166 164 133 156 159 126 156 159 126 224 228 180 224 228 180 156 159 126 224 228 180 156 159 126 156 159 126 156 159 126 156 159 126 224 228 180 156 159 126 156 159 126 156 159 126 156 159 126 224 228 180 156 159 126 146 150 119 146 150 119 146 150 119 146 150 119 132 142 105 132 142 105 132 142 105 132 142 105 132 142 105 116 137 99 116 137 99 116 137 99 102 133 97 102 133 97 102 133 97 102 133 97 102 133 97 147 191 139 102 133 97 102 133 97 102 133 97 147 191 139 147 191 139 102 133 97 102 133 97 102 133 97 102 133 97 102 133 97 147 191 139 147 191 139 147 191 139 167 197 142 167 197 142 167 197 142 167 197 142 116 137 99 167 197 142 132 142 105 116 137 99 189 204 150 167 197 142 116 137 99 189 204 150 189 204 150 189 204 150 189 204 150 132 142 105 132 142 105 132 142 105 132 142 105 132 142 105 132 142 105 189 204 150 189 204 150 189 204 150 132 142 105 116 137 99 116 137 99 116 137 99 167 197 142 167 197 142 167 197 142 167 197 142 189 204 150 189 204 150 189 204 150 189 204 150 132 142 105 116 137 99 116 137 99 116 137 99 167 197 142 167 197 142 102 133 97 147 191 139 102 133 97 102 133 97 102 133 97 102 133 97 147 191 139 147 191 139 147 191 139 147 191 139 120 145 115 120 145 115 120 145 115 172 208 165 151 169 177 151 169 177 151 169 177 151 169 177 216 242 254 216 242 254 172 208 165 172 208 165 172 208 165 172 208 165 172 208 165 172 208 165 120 145 115 120 145 115 120 145 115 120 145 115 120 145 115 172 208 165 120 145 115 120 145 115 120 145 115 120 145 115 120 145 115 120 145 115 172 208 165 172 208 165 120 145 115 172 208 165 120 145 115 120 145 115 120 145 115 120 145 115 120 145 115 120 145 115 172 208 165 172 208 165 151 169 177 216 242 254 216 242 254 216 242 254 216 242 254 216 242 254 216 242 254 216 242 254 151 169 177 216 242 254 151 169 177 151 169 177 151 169 177 151 169 177 216 242 254 151 169 177 216 242 254 216 242 254 151 169 177 216 242 254 151 169 177 216 242 254 216 242 254 216 242 254 151 169 177 216 242 254 216 242 254 151 169 177 216 242 254 216 242 254 216 242 254 216 242 254

167 197 142 167 197 142 167 197 142 167 197 142 167 197 142 167 197 142 167 197 142 167 197 142 167 197 142 116 137 99 167 197 142 167 197 142 167 197 142 167 197 142 189 204 150 189 204 150 189 204 150 132 142 105 167 197 142 167 197 142 167 197 142 167 197 142 189 204 150 167 197 142 116 137 99 167 197 142 189 204 150 167 197 142 116 137 99 189 204 150 189 204 150 189 204 150 189 204 150 132 142 105 189 204 150 209 215 171 209 215 171 209 215 171 209 215 171 146 150 119 209 215 171 146 150 119 146 150 119 146 150 119 146 150 119 146 150 119 209 215 171 209 215 171 224 228 180 156 159 126 224 228 180 224 228 180 224 228 180 224 228 180 224 228 180 156 159 126 224 228 180 238 235 191 238 235 191 238 235 191 238 235 191 238 235 191 238 235 191 238 235 191 238 235 191 238 235 191 238 235 191 238 235 191 238 235 191 238 235 191 238 235 191 166 164 133 238 235 191 166 164 133 166 164 133 238 235 191 238 235 191 238 235 191 238 235 191 238 235 191 238 235 191 166 164 133 166 164 133 166 164 133 166 164 133 156 159 126 156 159 126 224 228 180 156 159 126 156 159 126 156 159 126 156 159 126 156 159 126 156 159 126 224 228 180 156 159 126 156 159 126 156 159 126 156 159 126 224 228 180 156 159 126 156 159 126 146 150 119 146 150 119 146 150 119 146 150 119 146 150 119 132 142 105 132 142 105 132 142 105 116 137 99 116 137 99 116 137 99 116 137 99 102 133 97 102 133 97 102 133 97 102 133 97 102 133 97 102 133 97 102 133 97 147 191 139 147 191 139 147 191 139 147 191 139 102 133 97 147 191 139 102 133 97 147 191 139 147 191 139 147 191 139 147 191 139 147 191 139 167 197 142 167 197 142 167 197 142 167 197 142 116 137 99 116 137 99 167 197 142 116 137 99 167 197 142 189 204 150 167 197 142 167 197 142 189 204 150 189 204 150 189 204 150 132 142 105 132 142 105 132 142 105 189 204 150 132 142 105 132 142 105 189 204 150 189 204 150 189 204 150 132 142 105 189 204 150 116 137 99 167 197 142 167 197 142 189 204 150 189 204 150 189 204 150 189 204 150 189 204 150 189 204 150 116 137 99 116 137 99 116 137 99 116 137 99 167 197 142 116 137 99 102 133 97 102 133 97 147 191 139 147 191 139 147 191 139 147 191 139 147 191 139 147 191 139 102 133 97 102 133 97 147 191 139 102 133 97 120 145 115 120 145 115 120 145 115 151 169 177 216 242 254 216 242 254 216 242 254 216 242 254 216 242 254 172 208 165 172 208 165 172 208 165 120 145 115 172 208 165 172 208 165 120 145 115 172 208 165 120 145 115 120 145 115 120 145 115 172 208 165 120 145 115 120 145 115 120 145 115 120 145 115 120 145 115 172 208 165 172 208 165 120 145 115 151 169 177 120 145 115 151 169 177 120 145 115 151 169 177 151 169 177 151 169 177 172 208 165 151 169 177 120 145 115 172 208 165 172 208 165 172 208 165 172 208 165 216 242 254 216 242 254 216 242 254 216 242 254 216 242 254 216 242 254 151 169 177 216 242 254 151 169 177 151 169 177 216 242 254 216 242 254 216 242 254 216 242 254 216 242 254 216 242 254 151 169 177 216 242 254 151 169 177 216 242 254 216 242 254 216 242 254 216 242 254 216 242 254 216 242 254 216 242 254 216 242 254 216 242 254

167 197 142 167 197 142 167 197 142 167 197 142 167 197 142 167 197 142 167 197 142 167 197 142 167 197 142 116 137 99 167 197 142 167 197 142 167 197 142 167 197 142 189 204 150 132 142 105 132 142 105 132 142 105 116 137 99 167 197 142 116 137 99 167 197 142 167 197 142 116 137 99 167 197 142 167 197 142 167 197 142 116 137 99 167 197 142 167 197 142 116 137 99 189 204 150 189 204 150 132 142 105 189 204 150 209 215 171 209 215 171 146 150 119 146 150 119 146 150 119 209 215 171 209 215 171 209 215 171 146 150 119 146 150 119 209 215 171 209 215 171 209 215 171 224 228 180 156 159 126 224 228 180 224 228 180 224 228 180 224 228 180 224 228 180 156 159 126 238 235 191 238 235 191 238 235 191 238 235 191 238 235 191 238 235 191 238 235 191 238 235 191 238 235 191 238 235 191 238 235 191 238 235 191 238 235 191 238 235 191 238 235 191 238 235 191 238 235 191 166 164 133 238 235 191 238 235 191 238 235 191 238 235 191 238 235 191 238 235 191 238 235 191 166 164 133 166 164 133 166 164 133 166 164 133 156 159 126 224 228 180 156 159 126 156 159 126 156 159 126 224 228 180 224 228 180 156 159 126 224 228 180 156 159 126 156 159 126 156 159 126 156 159 126 224 228 180 224 228 180 224 228 180 146 150 119 146 150 119 146 150 119 146 150 119 146 150 119 132 142 105 132 142 105 132 142 105 116 137 99 116 137 99 116 137 99 116 137 99 102 133 97 102 133 97 102 133 97 102 133 97 102 133 97 102 133 97 147 191 139 147 191 139 147 191 139 147 191 139 147 191 139 147 191 139 102 133 97 102 133 97 102 133 97 147 191 139 147 191 139 147 191 139 147 191 139 167 197 142 167 197 142 167 197 142 167 197 142 167 197 142 116 137 99 167 197 142 167 197 142 116 137 99 167 197 142 189 204 150 132 142 105 189 204 150 189 204 150 189 204 150 189 204 150 132 142 105 189 204 150 189 204 150 189 204 150 189 204 150 132 142 105 189 204 150 189 204 150 189 204 150 132 142 105 189 204 150 116 137 99 167 197 142 167 197 142 189 204 150 189 204 150 189 204 150 132 142 105 189 204 150 132 142 105 132 142 105 116 137 99 116 137 99 116 137 99 116 137 99 116 137 99 102 133 97 147 191 139 147 191 139 147 191 139 102 133 97 147 191 139 147 191 139 102 133 97 102 133 97 147 191 139 147 191 139 102 133 97 120 145 115 120 145 115 172 208 165 151 169 177 216 242 254 151 169 177 151 169 177 216 242 254 216 242 254 172 208 165 172 208 165 120 145 115 172 208 165 172 208 165 120 145 115 120 145 115 120 145 115 120 145 115 120 145 115 120 145 115 120 145 115 120 145 115 120 145 115 172 208 165 120 145 115 172 208 165 120 145 115 120 145 115 151 169 177 120 145 115 216 242 254 151 169 177 216 242 254 151 169 177 151 169 177 151 169 177 151 169 177 151 169 177 216 242 254 172 208 165 172 208 165 172 208 165 151 169 177 151 169 177 216 242 254 172 208 165 216 242 254 216 242 254 151 169 177 151 169 177 216 242 254 151 169 177 151 169 177 151 169 177 216 242 254 151 169 177 216 242 254 216 242 254 151 169 177 216 242 254 137 164 178 151 169 177 216 242 254 216 242 254 216 242 254 216 242 254 216 242 254 151 169 177 216 242 254 151 169 177 216 242 254

167 197 142 167 197 142 167 197 142 167 197 142 189 204 150 167 197 142 167 197 142 167 197 142 167 197 142 116 137 99 167 197 142 167 197 142 167 197 142 167 197 142 167 197 142 189 204 150 189 204 150 189 204 150 189 204 150 189 204 150 189 204 150 167 197 142 167 197 142 167 197 142 167 197 142 167 197 142 167 197 142 167 197 142 189 204 150 167 197 142 189 204 150 189 204 150 189 204 150 189 204 150 189 204 150 209 215 171 209 215 171 209 215 171 209 215 171 209 215 171 209 215 171 146 150 119 146 150 119 146 150 119 146 150 119 209 215 171 209 215 171 209 215 171 224 228 180 224 228 180 224 228 180 224 228 180 224 228 180 224 228 180 224 228 180 224 228 180 238 235 191 156 159 126 238 235 191 166 164 133 166 164 133 238 235 191 166 164 133 238 235 191 238 235 191 238 235 191 238 235 191 238 235 191 238 235 191 238 235 191 166 164 133 166 164 133 166 164 133 166 164 133 238 235 191 238 235 191 238 235 191 238 235 191 166 164 133 238 235 191 238 235 191 166 164 133 238 235 191 166 164 133 166 164 133 156 159 126 156 159 126 156 159 126 156 159 126 156 159 126 224 228 180 156 159 126 224 228 180 224 228 180 224 228 180 224 228 180 224 228 180 224 228 180 224 228 180 156 159 126 224 228 180 146 150 119 146 150 119 146 150 119 146 150 119 132 142 105 132 142 105 132 142 105 132 142 105 116 137 99 116 137 99 116 137 99 116 137 99 102 133 97 102 133 97 102 133 97 102 133 97 102 133 97 102 133 97 102 133 97 147 191 139 147 191 139 147 191 139 102 133 97 147 191 139 147 191 139 147 191 139 102 133 97 102 133 97 147 191 139 147 191 139 147 191 139 167 197 142 167 197 142 167 197 142 167 197 142 167 197 142 167 197 142 167 197 142 167 197 142 189 204 150 167 197 142 189 204 150 189 204 150 189 204 150 189 204 150 189 204 150 189 204 150 189 204 150 189 204 150 189 204 150 189 204 150 132 142 105 189 204 150 189 204 150 189 204 150 189 204 150 189 204 150 189 204 150 189 204 150 189 204 150 189 204 150 189 204 150 189 204 150 189 204 150 189 204 150 132 142 105 132 142 105 132 142 105 116 137 99 116 137 99 167 197 142 116 137 99 116 137 99 167 197 142 147 191 139 167 197 142 167 197 142 167 197 142 147 191 139 102 133 97 102 133 97 102 133 97 102 133 97 147 191 139 102 133 97 120 145 115 120 145 115 120 145 115 120 145 115 216 242 254 151 169 177 216 242 254 216 242 254 216 242 254 216 242 254 172 208 165 120 145 115 172 208 165 120 145 115 120 145 115 120 145 115 120 145 115 120 145 115 172 208 165 120 145 115 120 145 115 172 208 165 120 145 115 151 169 177 120 145 115 172 208 165 172 208 165 120 145 115 151 169 177 151 169 177 151 169 177 151 169 177 216 242 254 151 169 177 151 169 177 216 242 254 216 242 254 172 208 165 172 208 165 172 208 165 172 208 165 120 145 115 172 208 165 216 242 254 172 208 165 172 208 165 172 208 165 172 208 165 151 169 177 216 242 254 216 242 254 151 169 177 151 169 177 151 169 177 216 242 254 216 242 254 216 242 254 216 242 254 216 242 254 216 242 254 216 242 254 137 164 178 137 164 178 216 242 254 216 242 254 216 242 254 216 242 254 216 242 254 151 169 177 216 242 254 216 242 254

189 204 150 189 204 150 189 204 150 189 204 150 189 204 150 132 142 105 167 197 142 167 197 142 167 197 142 167 197 142 167 197 142 189 204 150 189 204 150 167 197 142 189 204 150 189 204 150 132 142 105 132 142 105 189 204 150 132 142 105 116 137 99 116 137 99 116 137 99 116 137 99 116 137 99 116 137 99 167 197 142 116 137 99 167 197 142 116 137 99 167 197 142 189 204 150 189 204 150 189 204 150 189 204 150 189 204 150 132 142 105 132 142 105 209 215 171 209 215 171 146 150 119 146 150 119 146 150 119 146 150 119 146 150 119 146 150 119 209 215 171 209 215 171 224 228 180 224 228 180 224 228 180 224 228 180 224 228 180 224 228 180 224 228 180 156 159 126 156 159 126 156 159 126 156 159 126 156 159 126 238 235 191 238 235 191 238 235 191 238 235 191 238 235 191 231 224 182 231 224 182 238 235 191 166 164 133 166 164 133 238 235 191 166 164 133 238 235 191 238 235 191 238 235 191 166 164 133 238 235 191 238 235 191 166 164 133 238 235 191 166 164 133 166 164 133 166 164 133 166 164 133 156 159 126 156 159 126 156 159 126 156 159 126 156 159 126 156 159 126 156 159 126 156 159 126 156 159 126 156 159 126 156 159 126 156 159 126 156 159 126 156 159 126 224 228 180 156 159 126 156 159 126 146 150 119 146 150 119 146 150 119 146 150 119 132 142 105 132 142 105 132 142 105 116 137 99 116 137 99 116 137 99 102 133 97 102 133 97 102 133 97 102 133 97 102 133 97 102 133 97 102 133 97 102 133 97 147 191 139 147 191 139 102 133 97 147 191 139 102 133 97 120 145 115 102 133 97 120 145 115 120 145 115 120 145 115 147 191 139 147 191 139 147 191 139 167 197 142 167 197 142 167 197 142 167 197 142 167 197 142 116 137 99 167 197 142 189 204 150 189 204 150 189 204 150 189 204 150 189 204 150 189 204 150 189 204 150 189 204 150 189 204 150 189 204 150 189 204 150 189 204 150 189 204 150 132 142 105 189 204 150 189 204 150 189 204 150 189 204 150 189 204 150 189 204 150 189 204 150 189 204 150 189 204 150 189 204 150 189 204 150 189 204 150 132 142 105 132 142 105 189 204 150 132 142 105 116 137 99 167 197 142 116 137 99 116 137 99 167 197 142 167 197 142 167 197 142 167 197 142 167 197 142 167 197 142 116 137 99 102 133 97 102 133 97 102 133 97 102 133 97 102 133 97 120 145 115 120 145 115 120 145 115 120 145 115 120 145 115 172 208 165 216 242 254 216 242 254 172 208 165 172 208 165 172 208 165 172 208 165 172 208 165 172 208 165 172 208 165 120 145 115 120 145 115 120 145 115 151 169 177 151 169 177 151 169 177 151 169 177 151 169 177 151 169 177 151 169 177 216 242 254 151 169 177 172 208 165 151 169 177 151 169 177 151 169 177 151 169 177 151 169 177 216 242 254 151 169 177 216 242 254 151 169 177 216 242 254 151 169 177 172 208 165 120 145 115 151 169 177 120 145 115 172 208 165 120 145 115 172 208 165 172 208 165 172 208 165 120 145 115 172 208 165 216 242 254 151 169 177 151 169 177 151 169 177 216 242 254 216 242 254 151 169 177 216 242 254 216 242 254 151 169 177 151 169 177 216 242 254 216 242 254 197 235 255 216 242 254 216 242 254 216 242 254 216 242 254 151 169 177 216 242 254 216 242 254 151 169 177

189 204 150 189 204 150 189 204 150 189 204 150 189 204 150 189 204 150 189 204 150 167 197 142 167 197 142 167 197 142 167 197 142 189 204 150 189 204 150 189 204 150 189 204 150 189 204 150 189 204 150 189 204 150 132 142 105 116 137 99 116 137 99 116 137 99 167 197 142 167 197 142 116 137 99 116 137 99 167 197 142 116 137 99 167 197 142 116 137 99 116 137 99 167 197 142 189 204 150 189 204 150 189 204 150 132 142 105 132 142 105 132 142 105 132 142 105 132 142 105 132 142 105 132 142 105 146 150 119 146 150 119 146 150 119 209 215 171 209 215 171 209 215 171 224 228 180 146 150 119 224 228 180 224 228 180 156 159 126 156 159 126 156 159 126 156 159 126 224 228 180 156 159 126 224 228 180 224 228 180 238 235 191 238 235 191 238 235 191 231 224 182 231 224 182 231 224 182 231 224 182 166 164 133 166 164 133 166 164 133 238 235 191 166 164 133 166 164 133 166 164 133 238 235 191 238 235 191 238 235 191 166 164 133 166 164 133 238 235 191 238 235 191 166 164 133 166 164 133 156 159 126 156 159 126 156 159 126 156 159 126 156 159 126 146 150 119 146 150 119 146 150 119 146 150 119 146 150 119 224 228 180 224 228 180 156 159 126 224 228 180 156 159 126 224 228 180 156 159 126 146 150 119 146 150 119 146 150 119 146 150 119 146 150 119 132 142 105 132 142 105 132 142 105 116 137 99 116 137 99 116 137 99 102 133 97 102 133 97 102 133 97 102 133 97 102 133 97 102 133 97 147 191 139 147 191 139 147 191 139 102 133 97 147 191 139 147 191 139 120 145 115 120 145 115 120 145 115 120 145 115 120 145 115 120 145 115 172 208 165 147 191 139 147 191 139 147 191 139 167 197 142 167 197 142 167 197 142 167 197 142 167 197 142 189 204 150 189 204 150 189 204 150 189 204 150 189 204 150 189 204 150 189 204 150 189 204 150 189 204 150 189 204 150 132 142 105 189 204 150 189 204 150 189 204 150 189 204 150 189 204 150 189 204 150 189 204 150 189 204 150 189 204 150 189 204 150 189 204 150 209 215 171 189 204 150 189 204 150 189 204 150 189 204 150 132 142 105 189 204 150 189 204 150 189 204 150 116 137 99 167 197 142 116 137 99 116 137 99 167 197 142 167 197 142 167 197 142 167 197 142 116 137 99 116 137 99 102 133 97 102 133 97 102 133 97 102 133 97 120 145 115 102 133 97 120 145 115 120 145 115 120 145 115 120 145 115 120 145 115 172 208 165 172 208 165 172 208 165 172 208 165 172 208 165 120 145 115 172 208 165 172 208 165 172 208 165 172 208 165 120 145 115 172 208 165 151 169 177 151 169 177 172 208 165 151 169 177 151 169 177 151 169 177 151 169 177 151 169 177 151 169 177 151 169 177 151 169 177 151 169 177 151 169 177 151 169 177 216 242 254 216 242 254 216 242 254 216 242 254 216 242 254 216 242 254 216 242 254 151 169 177 216 242 254 151 169 177 151 169 177 216 242 254 172 208 165 120 145 115 172 208 165 172 208 165 172 208 165 151 169 177 172 208 165 151 169 177 151 169 177 216 242 254 216 242 254 216 242 254 216 242 254 216 242 254 216 242 254 216 242 254 151 169 177 216 242 254 216 242 254 137 164 178 137 164 178 137 164 178 216 242 254 151 169 177 151 169 177 151 169 177 151 169 177 151 169 177 216 242 254

189 204 150 189 204 150 189 204 150 132 142 105 189 204 150 189 204 150 189 204 150 189 204 150 189 204 150 189 204 150 189 204 150 189 204 150 189 204 150 189 204 150 189 204 150 189 204 150 189 204 150 132 142 105 132 142 105 189 204 150 167 197 142 167 197 142 116 137 99 116 137 99 116 137 99 167 197 142 167 197 142 116 137 99 167 197 142 116 137 99 167 197 142 167 197 142 116 137 99 189 204 150 189 204 150 132 142 105 189 204 150 132 142 105 189 204 150 189 204 150 132 142 105 132 142 105 132 142 105 146 150 119 146 150 119 209 215 171 209 215 171 209 215 171 209 215 171 224 228 180 224 228 180 224 228 180 224 228 180 224 228 180 224 228 180 224 228 180 156 159 126 224 228 180 224 228 180 224 228 180 238 235 191 238 235 191 238 235 191 231 224 182 231 224 182 231 224 182 161 156 127 166 164 133 166 164 133 166 164 133 166 164 133 166 164 133 166 164 133 238 235 191 238 235 191 166 164 133 166 164 133 166 164 133 238 235 191 166 164 133 238 235 191 166 164 133 166 164 133 156 159 126 156 159 126 156 159 126 156 159 126 156 159 126 146 150 119 146 150 119 209 215 171 209 215 171 146 150 119 224 228 180 224 228 180 156 159 126 224 228 180 156 159 126 224 228 180 156 159 126 146 150 119 146 150 119 146 150 119 146 150 119 146 150 119 132 142 105 132 142 105 132 142 105 116 137 99 116 137 99 116 137 99 102 133 97 147 191 139 147 191 139 102 133 97 102 133 97 102 133 97 147 191 139 147 191 139 102 133 97 102 133 97 147 191 139 102 133 97 120 145 115 120 145 115 120 145 115 120 145 115 120 145 115 120 145 115 172 208 165 147 191 139 147 191 139 147 191 139 167 197 142 167 197 142 167 197 142 167 197 142 189 204 150 189 204 150 189 204 150 189 204 150 189 204 150 189 204 150 189 204 150 189 204 150 189 204 150 189 204 150 132 142 105 189 204 150 189 204 150 189 204 150 189 204 150 189 204 150 189 204 150 189 204 150 189 204 150 189 204 150 189 204 150 189 204 150 209 215 171 209 215 171 132 142 105 189 204 150 189 204 150 132 142 105 132 142 105 189 204 150 116 137 99 116 137 99 116 137 99 116 137 99 116 137 99 116 137 99 116 137 99 116 137 99 167 197 142 167 197 142 167 197 142 102 133 97 102 133 97 102 133 97 102 133 97 102 133 97 120 145 115 120 145 115 120 145 115 120 145 115 172 208 165 120 145 115 120 145 115 172 208 165 120 145 115 120 145 115 172 208 165 120 145 115 172 208 165 172 208 165 172 208 165 172 208 165 120 145 115 120 145 115 172 208 165 151 169 177 151 169 177 216 242 254 151 169 177 151 169 177 151 169 177 151 169 177 151 169 177 216 242 254 151 169 177 151 169 177 151 169 177 216 242 254 151 169 177 216 242 254 216 242 254 151 169 177 151 169 177 151 169 177 151 169 177 151 169 177 151 169 177 151 169 177 151 169 177 151 169 177 216 242 254 172 208 165 120 145 115 120 145 115 151 169 177 151 169 177 151 169 177 151 169 177 151 169 177 216 242 254 216 242 254 216 242 254 216 242 254 216 242 254 216 242 254 151 169 177 151 169 177 151 169 177 216 242 254 151 169 177 137 164 178 197 235 255 216 242 254 216 242 254 216 242 254 216 242 254 151 169 177 216 242 254 216 242 254 216 242 254

209 215 171 209 215 171 209 215 171 132 142 105 189 204 150 189 204 150 132 142 105 189 204 150 189 204 150 189 204 150 189 204 150 189 204 150 189 204 150 132 142 105 189 204 150 189 204 150 189 204 150 189 204 150 189 204 150 132 142 105 116 137 99 116 137 99 116 137 99 116 137 99 116 137 99 167 197 142 167 197 142 167 197 142 167 197 142 167 197 142 167 197 142 167 197 142 116 137 99 189 204 150 189 204 150 189 204 150 189 204 150 132 142 105 189 204 150 132 142 105 132 142 105 132 142 105 189 204 150 209 215 171 209 215 171 209 215 171 209 215 171 209 215 171 224 228 180 224 228 180 224 228 180 224 228 180 224 228 180 156 159 126 156 159 126 156 159 126 224 228 180 224 228 180 224 228 180 224 228 180 238 235 191 238 235 191 238 235 191 231 224 182 222 214 163 231 224 182 161 156 127 166 164 133 166 164 133 166 164 133 166 164 133 166 164 133 238 235 191 166 164 133 238 235 191 238 235 191 238 235 191 166 164 133 238 235 191 238 235 191 238 235 191 166 164 133 166 164 133 156 159 126 224 228 180 156 159 126 156 159 126 146 150 119 146 150 119 146 150 119 209 215 171 209 215 171 209 215 171 224 228 180 224 228 180 156 159 126 224 228 180 156 159 126 156 159 126 146 150 119 146 150 119 146 150 119 146 150 119 146 150 119 209 215 171 132 142 105 132 142 105 132 142 105 116 137 99 116 137 99 116 137 99 102 133 97 102 133 97 102 133 97 102 133 97 102 133 97 102 133 97 147 191 139 102 133 97 102 133 97 147 191 139 102 133 97 102 133 97 120 145 115 120 145 115 172 208 165 172 208 165 120 145 115 120 145 115 172 208 165 147 191 139 147 191 139 147 191 139 147 191 139 167 197 142 167 197 142 189 204 150 189 204 150 189 204 150 189 204 150 189 204 150 189 204 150 189 204 150 209 215 171 209 215 171 209 215 171 189 204 150 132 142 105 189 204 150 189 204 150 189 204 150 189 204 150 132 142 105 189 204 150 189 204 150 189 204 150 189 204 150 189 204 150 209 215 171 209 215 171 209 215 171 209 215 171 209 215 171 189 204 150 189 204 150 132 142 105 132 142 105 116 137 99 116 137 99 116 137 99 116 137 99 116 137 99 116 137 99 167 197 142 167 197 142 167 197 142 167 197 142 116 137 99 116 137 99 102 133 97 102 133 97 102 133 97 120 145 115 120 145 115 120 145 115 120 145 115 120 145 115 120 145 115 120 145 115 172 208 165 172 208 165 172 208 165 172 208 165 172 208 165 120 145 115 172 208 165 172 208 165 120 145 115 120 145 115 120 145 115 172 208 165 151 169 177 151 169 177 151 169 177 151 169 177 151 169 177 151 169 177 151 169 177 151 169 177 151 169 177 216 242 254 151 169 177 151 169 177 151 169 177 151 169 177 151 169 177 216 242 254 151 169 177 151 169 177 151 169 177 216 242 254 151 169 177 151 169 177 151 169 177 216 242 254 216 242 254 151 169 177 216 242 254 172 208 165 151 169 177 151 169 177 151 169 177 216 242 254 216 242 254 151 169 177 151 169 177 216 242 254 172 208 165 172 208 165 172 208 165 172 208 165 216 242 254 151 169 177 216 242 254 216 242 254 216 242 254 216 242 254 216 242 254 137 164 178 197 235 255 216 242 254 216 242 254 151 169 177 151 169 177 216 242 254 216 242 254 216 242 254

209 215 171 209 215 171 132 142 105 132 142 105 189 204 150 189 204 150 189 204 150 189 204 150 189 204 150 189 204 150 189 204 150 189 204 150 132 142 105 132 142 105 189 204 150 132 142 105 132 142 105 132 142 105 132 142 105 132 142 105 189 204 150 116 137 99 116 137 99 167 197 142 167 197 142 167 197 142 167 197 142 167 197 142 189 204 150 189 204 150 167 197 142 167 197 142 189 204 150 189 204 150 189 204 150 189 204 150 189 204 150 132 142 105 189 204 150 189 204 150 189 204 150 189 204 150 189 204 150 209 215 171 209 215 171 209 215 171 209 215 171 209 215 171 224 228 180 156 159 126 224 228 180 224 228 180 156 159 126 156 159 126 156 159 126 224 228 180 224 228 180 224 228 180 224 228 180 224 228 180 238 235 191 238 235 191 238 235 191 231 224 182 231 224 182 161 156 127 161 156 127 166 164 133 166 164 133 166 164 133 166 164 133 166 164 133 238 235 191 238 235 191 238 235 191 238 235 191 166 164 133 238 235 191 238 235 191 238 235 191 166 164 133 166 164 133 156 159 126 156 159 126 156 159 126 156 159 126 156 159 126 146 150 119 146 150 119 209 215 171 146 150 119 146 150 119 146 150 119 146 150 119 146 150 119 146 150 119 156 159 126 146 150 119 146 150 119 146 150 119 146 150 119 146 150 119 146 150 119 146 150 119 132 142 105 132 142 105 132 142 105 116 137 99 116 137 99 116 137 99 116 137 99 116 137 99 102 133 97 147 191 139 102 133 97 102 133 97 102 133 97 147 191 139 120 145 115 147 191 139 120 145 115 120 145 115 147 191 139 120 145 115 172 208 165 172 208 165 172 208 165 172 208 165 172 208 165 172 208 165 147 191 139 147 191 139 147 191 139 167 197 142 167 197 142 167 197 142 167 197 142 132 142 105 189 204 150 189 204 150 189 204 150 132 142 105 189 204 150 209 215 171 146 150 119 146 150 119 132 142 105 132 142 105 189 204 150 132 142 105 189 204 150 132 142 105 132 142 105 189 204 150 189 204 150 132 142 105 132 142 105 189 204 150 189 204 150 209 215 171 146 150 119 132 142 105 132 142 105 132 142 105 132 142 105 132 142 105 116 137 99 116 137 99 116 137 99 116 137 99 116 137 99 116 137 99 116 137 99 167 197 142 116 137 99 116 137 99 116 137 99 102 133 97 102 133 97 102 133 97 102 133 97 102 133 97 120 145 115 120 145 115 120 145 115 120 145 115 120 145 115 120 145 115 172 208 165 172 208 165 120 145 115 120 145 115 120 145 115 120 145 115 120 145 115 172 208 165 172 208 165 120 145 115 120 145 115 151 169 177 151 169 177 151 169 177 151 169 177 151 169 177 151 169 177 151 169 177 151 169 177 151 169 177 151 169 177 151 169 177 137 164 178 137 164 178 137 164 178 151 169 177 151 169 177 216 242 254 151 169 177 151 169 177 151 169 177 151 169 177 151 169 177 151 169 177 151 169 177 216 242 254 216 242 254 216 242 254 216 242 254 216 242 254 151 169 177 151 169 177 151 169 177 151 169 177 151 169 177 151 169 177 151 169 177 172 208 165 172 208 165 172 208 165 172 208 165 172 208 165 151 169 177 151 169 177 216 242 254 216 242 254 216 242 254 216 242 254 216 242 254 151 169 177 137 164 178 197 235 255 197 235 255 216 242 254 151 169 177 216 242 254 216 242 254 216 242 254 216 242 254

209 215 171 209 215 171 209 215 171 209 215 171 209 215 171 189 204 150 209 215 171 189 204 150 189 204 150 189 204 150 209 215 171 189 204 150 189 204 150 189 204 150 189 204 150 132 142 105 132 142 105 189 204 150 189 204 150 189 204 150 132 142 105 132 142 105 116 137 99 167 197 142 167 197 142 167 197 142 189 204 150 189 204 150 189 204 150 189 204 150 132 142 105 189 204 150 189 204 150 189 204 150 189 204 150 189 204 150 209 215 171 189 204 150 189 204 150 189 204 150 189 204 150 209 215 171 209 215 171 209 215 171 209 215 171 209 215 171 209 215 171 209 215 171 224 228 180 224 228 180 224 228 180 156 159 126 156 159 126 224 228 180 224 228 180 224 228 180 224 228 180 224 228 180 224 228 180 224 228 180 238 235 191 238 235 191 238 235 191 231 224 182 161 156 127 161 156 127 231 224 182 166 164 133 166 164 133 166 164 133 238 235 191 238 235 191 238 235 191 166 164 133 238 235 191 238 235 191 238 235 191 166 164 133 166 164 133 166 164 133 166 164 133 156 159 126 156 159 126 156 159 126 156 159 126 156 159 126 156 159 126 146 150 119 146 150 119 146 150 119 146 150 119 146 150 119 209 215 171 209 215 171 209 215 171 146 150 119 146 150 119 146 150 119 146 150 119 146 150 119 146 150 119 146 150 119 132 142 105 132 142 105 132 142 105 132 142 105 132 142 105 132 142 105 116 137 99 116 137 99 116 137 99 102 133 97 102 133 97 147 191 139 102 133 97 147 191 139 102 133 97 147 191 139 147 191 139 172 208 165 120 145 115 172 208 165 172 208 165 147 191 139 147 191 139 172 208 165 147 191 139 172 208 165 147 191 139 147 191 139 147 191 139 147 191 139 147 191 139 167 197 142 167 197 142 167 197 142 167 197 142 189 204 150 189 204 150 189 204 150 189 204 150 132 142 105 209 215 171 132 142 105 132 142 105 132 142 105 132 142 105 189 204 150 132 142 105 132 142 105 132 142 105 132 142 105 189 204 150 189 204 150 189 204 150 189 204 150 132 142 105 189 204 150 189 204 150 209 215 171 132 142 105 132 142 105 132 142 105 132 142 105 132 142 105 132 142 105 132 142 105 116 137 99 116 137 99 116 137 99 167 197 142 116 137 99 116 137 99 102 133 97 102 133 97 102 133 97 102 133 97 102 133 97 102 133 97 102 133 97 102 133 97 102 133 97 120 145 115 120 145 115 120 145 115 120 145 115 120 145 115 120 145 115 172 208 165 172 208 165 120 145 115 172 208 165 172 208 165 120 145 115 172 208 165 172 208 165 172 208 165 120 145 115 151 169 177 151 169 177 151 169 177 151 169 177 151 169 177 151 169 177 137 164 178 137 164 178 216 242 254 137 164 178 137 164 178 137 164 178 137 164 178 137 164 178 137 164 178 137 164 178 137 164 178 151 169 177 151 169 177 137 164 178 137 164 178 151 169 177 216 242 254 216 242 254 216 242 254 216 242 254 216 242 254 151 169 177 216 242 254 216 242 254 216 242 254 151 169 177 151 169 177 216 242 254 151 169 177 151 169 177 216 242 254 216 242 254 172 208 165 172 208 165 172 208 165 120 145 115 120 145 115 172 208 165 216 242 254 151 169 177 151 169 177 151 169 177 151 169 177 151 169 177 151 169 177 137 164 178 216 242 254 216 242 254 151 169 177 216 242 254 216 242 254 216 242 254 216 242 254

209 215 171 209 215 171 146 150 119 209 215 171 209 215 171 209 215 171 209 215 171 209 215 171 209 215 171 209 215 171 209 215 171 209 215 171 132 142 105 189 204 150 132 142 105 132 142 105 189 204 150 189 204 150 189 204 150 189 204 150 189 204 150 189 204 150 116 137 99 167 197 142 167 197 142 167 197 142 189 204 150 189 204 150 189 204 150 132 142 105 189 204 150 189 204 150 189 204 150 189 204 150 189 204 150 189 204 150 189 204 150 146 150 119 189 204 150 189 204 150 189 204 150 189 204 150 209 215 171 209 215 171 209 215 171 209 215 171 209 215 171 209 215 171 224 228 180 224 228 180 224 228 180 156 159 126 224 228 180 224 228 180 224 228 180 156 159 126 224 228 180 224 228 180 224 228 180 224 228 180 224 228 180 166 164 133 238 235 191 238 235 191 231 224 182 166 164 133 161 156 127 161 156 127 166 164 133 166 164 133 238 235 191 238 235 191 238 235 191 238 235 191 238 235 191 166 164 133 166 164 133 156 159 126 166 164 133 156 159 126 156 159 126 156 159 126 156 159 126 156 159 126 156 159 126 156 159 126 146 150 119 146 150 119 146 150 119 146 150 119 146 150 119 146 150 119 146 150 119 146 150 119 146 150 119 146 150 119 146 150 119 146 150 119 146 150 119 146 150 119 146 150 119 132 142 105 132 142 105 132 142 105 132 142 105 132 142 105 116 137 99 116 137 99 116 137 99 116 137 99 116 137 99 167 197 142 147 191 139 147 191 139 102 133 97 102 133 97 102 133 97 102 133 97 147 191 139 147 191 139 147 191 139 172 208 165 147 191 139 147 191 139 147 191 139 147 191 139 147 191 139 147 191 139 147 191 139 147 191 139 147 191 139 147 191 139 147 191 139 167 197 142 167 197 142 167 197 142 167 197 142 189 204 150 189 204 150 189 204 150 132 142 105 189 204 150 189 204 150 132 142 105 132 142 105 189 204 150 132 142 105 189 204 150 132 142 105 132 142 105 132 142 105 189 204 150 189 204 150 132 142 105 189 204 150 189 204 150 189 204 150 189 204 150 132 142 105 132 142 105 132 142 105 132 142 105 132 142 105 132 142 105 116 137 99 116 137 99 116 137 99 116 137 99 116 137 99 116 137 99 167 197 142 116 137 99 102 133 97 102 133 97 102 133 97 102 133 97 102 133 97 102 133 97 102 133 97 102 133 97 102 133 97 120 145 115 120 145 115 120 145 115 120 145 115 120 145 115 120 145 115 172 208 165 172 208 165 120 145 115 120 145 115 172 208 165 120 145 115 120 145 115 120 145 115 120 145 115 151 169 177 151 169 177 151 169 177 151 169 177 151 169 177 137 164 178 137 164 178 137 164 178 137 164 178 137 164 178 197 235 255 137 164 178 137 164 178 137 164 178 137 164 178 137 164 178 137 164 178 137 164 178 197 235 255 137 164 178 137 164 178 137 164 178 197 235 255 216 242 254 216 242 254 151 169 177 151 169 177 151 169 177 151 169 177 151 169 177 151 169 177 151 169 177 151 169 177 151 169 177 216 242 254 216 242 254 216 242 254 151 169 177 216 242 254 172 208 165 172 208 165 172 208 165 120 145 115 120 145 115 172 208 165 151 169 177 151 169 177 151 169 177 151 169 177 151 169 177 151 169 177 216 242 254 216 242 254 216 242 254 216 242 254 216 242 254 216 242 254 216 242 254 216 242 254 216 242 254 216 242 254

209 215 171 209 215 171 209 215 171 209 215 171 209 215 171 209 215 171 209 215 171 209 215 171 209 215 171 209 215 171 209 215 171 146 150 119 209 215 171 189 204 150 189 204 150 189 204 150 189 204 150 132 142 105 132 142 105 189 204 150 189 204 150 132 142 105 132 142 105 189 204 150 189 204 150 189 204 150 189 204 150 189 204 150 189 204 150 189 204 150 189 204 150 189 204 150 189 204 150 209 215 171 209 215 171 209 215 171 209 215 171 209 215 171 209 215 171 189 204 150 209 215 171 209 215 171 209 215 171 209 215 171 209 215 171 209 215 171 209 215 171 224 228 180 224 228 180 224 228 180 224 228 180 224 228 180 224 228 180 224 228 180 156 159 126 224 228 180 224 228 180 224 228 180 224 228 180 224 228 180 224 228 180 238 235 191 238 235 191 238 235 191 238 235 191 166 164 133 231 224 182 166 164 133 166 164 133 238 235 191 238 235 191 166 164 133 166 164 133 166 164 133 238 235 191 156 159 126 156 159 126 156 159 126 156 159 126 156 159 126 156 159 126 156 159 126 156 159 126 156 159 126 156 159 126 156 159 126 146 150 119 146 150 119 146 150 119 146 150 119 132 142 105 132 142 105 132 142 105 146 150 119 209 215 171 146 150 119 146 150 119 146 150 119 132 142 105 132 142 105 132 142 105 132 142 105 132 142 105 132 142 105 132 142 105 132 142 105 116 137 99 116 137 99 116 137 99 116 137 99 116 137 99 102 133 97 167 197 142 147 191 139 147 191 139 147 191 139 147 191 139 102 133 97 147 191 139 102 133 97 147 191 139 147 191 139 147 191 139 147 191 139 147 191 139 147 191 139 147 191 139 147 191 139 147 191 139 147 191 139 147 191 139 147 191 139 167 197 142 167 197 142 167 197 142 167 197 142 167 197 142 167 197 142 189 204 150 189 204 150 189 204 150 132 142 105 132 142 105 132 142 105 189 204 150 132 142 105 132 142 105 132 142 105 132 142 105 189 204 150 189 204 150 189 204 150 189 204 150 132 142 105 189 204 150 189 204 150 189 204 150 189 204 150 132 142 105 132 142 105 132 142 105 132 142 105 116 137 99 116 137 99 116 137 99 167 197 142 167 197 142 167 197 142 167 197 142 167 197 142 167 197 142 116 137 99 102 133 97 102 133 97 102 133 97 102 133 97 102 133 97 102 133 97 102 133 97 120 145 115 120 145 115 120 145 115 120 145 115 120 145 115 120 145 115 172 208 165 172 208 165 120 145 115 120 145 115 151 169 177 172 208 165 172 208 165 172 208 165 120 145 115 120 145 115 172 208 165 172 208 165 151 169 177 151 169 177 151 169 177 137 164 178 137 164 178 137 164 178 137 164 178 137 164 178 137 164 178 137 164 178 137 164 178 197 235 255 137 164 178 137 164 178 137 164 178 137 164 178 197 235 255 197 235 255 137 164 178 137 164 178 137 164 178 137 164 178 137 164 178 216 242 254 137 164 178 216 242 254 151 169 177 137 164 178 137 164 178 216 242 254 151 169 177 151 169 177 151 169 177 216 242 254 151 169 177 216 242 254 151 169 177 216 242 254 216 242 254 172 208 165 120 145 115 172 208 165 172 208 165 172 208 165 151 169 177 151 169 177 216 242 254 216 242 254 151 169 177 216 242 254 151 169 177 151 169 177 137 164 178 216 242 254 216 242 254 216 242 254 216 242 254 216 242 254 216 242 254 216 242 254

209 215 171 209 215 171 209 215 171 146 150 119 209 215 171 209 215 171 209 215 171 209 215 171 209 215 171 146 150 119 209 215 171 209 215 171 209 215 171 209 215 171 209 215 171 189 204 150 132 142 105 132 142 105 132 142 105 189 204 150 132 142 105 189 204 150 189 204 150 189 204 150 189 204 150 189 204 150 189 204 150 189 204 150 189 204 150 189 204 150 189 204 150 189 204 150 209 215 171 209 215 171 209 215 171 209 215 171 209 215 171 209 215 171 209 215 171 209 215 171 209 215 171 209 215 171 209 215 171 209 215 171 209 215 171 209 215 171 209 215 171 224 228 180 224 228 180 224 228 180 224 228 180 224 228 180 156 159 126 156 159 126 224 228 180 224 228 180 224 228 180 224 228 180 224 228 180 156 159 126 156 159 126 224 228 180 156 159 126 238 235 191 238 235 191 166 164 133 238 235 191 166 164 133 166 164 133 166 164 133 166 164 133 166 164 133 238 235 191 238 235 191 156 159 126 156 159 126 156 159 126 156 159 126 156 159 126 156 159 126 156 159 126 156 159 126 156 159 126 156 159 126 156 159 126 146 150 119 146 150 119 146 150 119 132 142 105 132 142 105 132 142 105 132 142 105 132 142 105 189 204 150 132 142 105 132 142 105 132 142 105 132 142 105 132 142 105 189 204 150 132 142 105 132 142 105 132 142 105 132 142 105 132 142 105 132 142 105 116 137 99 116 137 99 116 137 99 116 137 99 116 137 99 167 197 142 147 191 139 102 133 97 147 191 139 102 133 97 102 133 97 147 191 139 147 191 139 147 191 139 147 191 139 147 191 139 147 191 139 147 191 139 147 191 139 102 133 97 147 191 139 147 191 139 147 191 139 167 197 142 147 191 139 147 191 139 167 197 142 167 197 142 167 197 142 167 197 142 167 197 142 189 204 150 189 204 150 189 204 150 132 142 105 132 142 105 189 204 150 189 204 150 132 142 105 132 142 105 132 142 105 132 142 105 132 142 105 132 142 105 132 142 105 132 142 105 132 142 105 132 142 105 189 204 150 132 142 105 189 204 150 132 142 105 132 142 105 132 142 105 116 137 99 116 137 99 116 137 99 167 197 142 116 137 99 167 197 142 167 197 142 167 197 142 116 137 99 116 137 99 116 137 99 116 137 99 102 133 97 102 133 97 102 133 97 102 133 97 102 133 97 120 145 115 120 145 115 120 145 115 120 145 115 120 145 115 120 145 115 120 145 115 120 145 115 120 145 115 120 145 115 120 145 115 151 169 177 120 145 115 216 242 254 172 208 165 172 208 165 120 145 115 151 169 177 151 169 177 151 169 177 151 169 177 137 164 178 137 164 178 137 164 178 137 164 178 137 164 178 137 164 178 137 164 178 197 235 255 137 164 178 137 164 178 137 164 178 137 164 178 137 164 178 137 164 178 137 164 178 137 164 178 137 164 178 137 164 178 137 164 178 137 164 178 137 164 178 197 235 255 197 235 255 137 164 178 137 164 178 137 164 178 137 164 178 216 242 254 216 242 254 216 242 254 216 242 254 151 169 177 216 242 254 151 169 177 216 242 254 151 169 177 216 242 254 216 242 254 172 208 165 120 145 115 172 208 165 151 169 177 151 169 177 151 169 177 216 242 254 216 242 254 151 169 177 151 169 177 216 242 254 151 169 177 216 242 254 151 169 177 197 235 255 151 169 177 216 242 254 216 242 254 216 242 254 151 169 177 151 169 177

224 228 180 209 215 171 146 150 119 209 215 171 209 215 171 209 215 171 209 215 171 209 215 171 209 215 171 209 215 171 209 215 171 209 215 171 209 215 171 146 150 119 209 215 171 132 142 105 132 142 105 132 142 105 189 204 150 189 204 150 189 204 150 189 204 150 189 204 150 189 204 150 189 204 150 189 204 150 189 204 150 189 204 150 209 215 171 189 204 150 189 204 150 209 215 171 209 215 171 209 215 171 209 215 171 209 215 171 209 215 171 209 215 171 209 215 171 209 215 171 209 215 171 209 215 171 209 215 171 209 215 171 209 215 171 209 215 171 209 215 171 209 215 171 224 228 180 224 228 180 224 228 180 224 228 180 224 228 180 156 159 126 224 228 180 156 159 126 224 228 180 224 228 180 224 228 180 224 228 180 156 159 126 224 228 180 156 159 126 238 235 191 166 164 133 166 164 133 166 164 133 166 164 133 166 164 133 166 164 133 166 164 133 156 159 126 156 159 126 166 164 133 156 159 126 156 159 126 156 159 126 224 228 180 224 228 180 156 159 126 156 159 126 156 159 126 224 228 180 224 228 180 156 159 126 146 150 119 146 150 119 146 150 119 132 142 105 132 142 105 132 142 105 132 142 105 189 204 150 132 142 105 132 142 105 132 142 105 132 142 105 132 142 105 132 142 105 132 142 105 132 142 105 132 142 105 132 142 105 132 142 105 116 137 99 116 137 99 116 137 99 167 197 142 116 137 99 167 197 142 116 137 99 167 197 142 102 133 97 102 133 97 102 133 97 102 133 97 102 133 97 102 133 97 147 191 139 147 191 139 147 191 139 147 191 139 147 191 139 147 191 139 147 191 139 147 191 139 147 191 139 147 191 139 167 197 142 167 197 142 167 197 142 167 197 142 167 197 142 167 197 142 167 197 142 167 197 142 189 204 150 189 204 150 189 204 150 189 204 150 132 142 105 132 142 105 132 142 105 132 142 105 132 142 105 132 142 105 132 142 105 189 204 150 132 142 105 132 142 105 132 142 105 132 142 105 132 142 105 132 142 105 189 204 150 132 142 105 132 142 105 116 137 99 116 137 99 132 142 105 116 137 99 167 197 142 116 137 99 116 137 99 167 197 142 167 197 142 116 137 99 116 137 99 116 137 99 116 137 99 116 137 99 102 133 97 102 133 97 102 133 97 102 133 97 102 133 97 102 133 97 120 145 115 120 145 115 120 145 115 120 145 115 120 145 115 120 145 115 151 169 177 151 169 177 151 169 177 151 169 177 151 169 177 120 145 115 216 242 254 151 169 177 216 242 254 151 169 177 151 169 177 151 169 177 151 169 177 151 169 177 137 164 178 137 164 178 137 164 178 137 164 178 137 164 178 137 164 178 137 164 178 137 164 178 137 164 178 137 164 178 137 164 178 137 164 178 137 164 178 137 164 178 128 158 178 128 158 178 128 158 178 128 158 178 137 164 178 137 164 178 197 235 255 197 235 255 197 235 255 137 164 178 137 164 178 137 164 178 137 164 178 216 242 254 216 242 254 216 242 254 216 242 254 151 169 177 151 169 177 216 242 254 216 242 254 216 242 254 216 242 254 216 242 254 216 242 254 216 242 254 151 169 177 120 145 115 151 169 177 216 242 254 151 169 177 151 169 177 151 169 177 216 242 254 216 242 254 216 242 254 151 169 177 216 242 254 151 169 177 137 164 178 216 242 254 216 242 254 137 164 178 151 169 177 151 169 177 216 242 254

224 228 180 156 159 126 224 228 180 224 228 180 224 228 180 224 228 180 224 228 180 224 228 180 209 215 171 209 215 171 209 215 171 209 215 171 209 215 171 209 215 171 209 215 171 132 142 105 189 204 150 189 204 150 189 204 150 189 204 150 132 142 105 189 204 150 189 204 150 189 204 150 189 204 150 189 204 150 189 204 150 189 204 150 209 215 171 209 215 171 209 215 171 209 215 171 209 215 171 209 215 171 209 215 171 209 215 171 209 215 171 209 215 171 209 215 171 209 215 171 209 215 171 209 215 171 209 215 171 209 215 171 146 150 119 209 215 171 209 215 171 224 228 180 224 228 180 224 228 180 224 228 180 156 159 126 156 159 126 156 159 126 224 228 180 156 159 126 224 228 180 224 228 180 156 159 126 156 159 126 156 159 126 156 159 126 156 159 126 156 159 126 156 159 126 156 159 126 156 159 126 156 159 126 156 159 126 156 159 126 166 164 133 156 159 126 156 159 126 156 159 126 156 159 126 156 159 126 156 159 126 224 228 180 156 159 126 156 159 126 146 150 119 156 159 126 224 228 180 156 159 126 146 150 119 146 150 119 146 150 119 146 150 119 132 142 105 132 142 105 132 142 105 132 142 105 132 142 105 132 142 105 132 142 105 132 142 105 132 142 105 132 142 105 132 142 105 132 142 105 132 142 105 132 142 105 132 142 105 116 137 99 116 137 99 167 197 142 167 197 142 116 137 99 116 137 99 116 137 99 116 137 99 167 197 142 167 197 142 167 197 142 147 191 139 147 191 139 147 191 139 102 133 97 147 191 139 147 191 139 102 133 97 102 133 97 147 191 139 147 191 139 147 191 139 147 191 139 147 191 139 167 197 142 167 197 142 167 197 142 167 197 142 167 197 142 167 197 142 167 197 142 167 197 142 189 204 150 189 204 150 189 204 150 189 204 150 132 142 105 116 137 99 132 142 105 132 142 105 132 142 105 132 142 105 132 142 105 189 204 150 132 142 105 132 142 105 132 142 105 189 204 150 189 204 150 116 137 99 189 204 150 189 204 150 116 137 99 116 137 99 116 137 99 167 197 142 167 197 142 116 137 99 167 197 142 116 137 99 167 197 142 116 137 99 116 137 99 116 137 99 167 197 142 167 197 142 116 137 99 102 133 97 102 133 97 102 133 97 102 133 97 102 133 97 102 133 97 120 145 115 120 145 115 120 145 115 120 145 115 120 145 115 151 169 177 151 169 177 151 169 177 151 169 177 151 169 177 216 242 254 151 169 177 151 169 177 151 169 177 151 169 177 151 169 177 151 169 177 151 169 177 151 169 177 151 169 177 137 164 178 137 164 178 137 164 178 137 164 178 137 164 178 128 158 178 128 158 178 128 158 178 137 164 178 137 164 178 128 158 178 128 158 178 128 158 178 137 164 178 128 158 178 128 158 178 184 227 255 128 158 178 128 158 178 128 158 178 128 158 178 197 235 255 197 235 255 137 164 178 137 164 178 197 235 255 197 235 255 197 235 255 216 242 254 216 242 254 137 164 178 151 169 177 137 164 178 216 242 254 216 242 254 216 242 254 216 242 254 216 242 254 216 242 254 151 169 177 151 169 177 151 169 177 151 169 177 151 169 177 216 242 254 216 242 254 151 169 177 151 169 177 216 242 254 151 169 177 151 169 177 151 169 177 151 169 177 216 242 254 216 242 254 216 242 254 137 164 178 137 164 178 216 242 254 216 242 254 216 242 254

224 228 180 224 228 180 224 228 180 224 228 180 224 228 180 224 228 180 224 228 180 224 228 180 224 228 180 209 215 171 209 215 171 209 215 171 209 215 171 146 150 119 146 150 119 132 142 105 189 204 150 189 204 150 189 204 150 189 204 150 189 204 150 189 204 150 189 204 150 189 204 150 132 142 105 189 204 150 209 215 171 209 215 171 209 215 171 209 215 171 209 215 171 209 215 171 209 215 171 209 215 171 209 215 171 209 215 171 209 215 171 209 215 171 209 215 171 209 215 171 209 215 171 209 215 171 209 215 171 209 215 171 209 215 171 209 215 171 224 228 180 224 228 180 224 228 180 156 159 126 156 159 126 156 159 126 224 228 180 156 159 126 156 159 126 156 159 126 224 228 180 156 159 126 224 228 180 156 159 126 156 159 126 156 159 126 224 228 180 156 159 126 156 159 126 156 159 126 156 159 126 224 228 180 224 228 180 224 228 180 156 159 126 156 159 126 238 235 191 156 159 126 156 159 126 156 159 126 224 228 180 156 159 126 156 159 126 156 159 126 156 159 126 224 228 180 146 150 119 146 150 119 146 150 119 146 150 119 146 150 119 132 142 105 132 142 105 132 142 105 132 142 105 132 142 105 189 204 150 132 142 105 116 137 99 116 137 99 116 137 99 189 204 150 116 137 99 116 137 99 132 142 105 132 142 105 189 204 150 189 204 150 116 137 99 116 137 99 116 137 99 116 137 99 167 197 142 116 137 99 116 137 99 167 197 142 167 197 142 102 133 97 102 133 97 102 133 97 167 197 142 147 191 139 147 191 139 147 191 139 147 191 139 147 191 139 147 191 139 147 191 139 147 191 139 167 197 142 167 197 142 167 197 142 167 197 142 167 197 142 167 197 142 167 197 142 167 197 142 167 197 142 189 204 150 189 204 150 189 204 150 189 204 150 132 142 105 132 142 105 116 137 99 167 197 142 189 204 150 189 204 150 116 137 99 189 204 150 189 204 150 189 204 150 132 142 105 189 204 150 189 204 150 132 142 105 116 137 99 167 197 142 116 137 99 116 137 99 116 137 99 116 137 99 167 197 142 116 137 99 189 204 150 167 197 142 116 137 99 167 197 142 116 137 99 116 137 99 116 137 99 116 137 99 167 197 142 116 137 99 102 133 97 102 133 97 102 133 97 102 133 97 120 145 115 120 145 115 120 145 115 120 145 115 120 145 115 120 145 115 120 145 115 151 169 177 216 242 254 151 169 177 151 169 177 151 169 177 151 169 177 151 169 177 151 169 177 216 242 254 151 169 177 216 242 254 216 242 254 151 169 177 137 164 178 137 164 178 137 164 178 137 164 178 137 164 178 137 164 178 128 158 178 128 158 178 128 158 178 128 158 178 128 158 178 128 158 178 197 235 255 197 235 255 128 158 178 184 227 255 128 158 178 128 158 178 128 158 178 128 158 178 184 227 255 184 227 255 184 227 255 184 227 255 137 164 178 197 235 255 197 235 255 197 235 255 197 235 255 197 235 255 216 242 254 137 164 178 137 164 178 197 235 255 137 164 178 216 242 254 216 242 254 216 242 254 216 242 254 216 242 254 216 242 254 151 169 177 151 169 177 216 242 254 216 242 254 151 169 177 216 242 254 151 169 177 151 169 177 216 242 254 216 242 254 151 169 177 151 169 177 137 164 178 151 169 177 216 242 254 151 169 177 137 164 178 137 164 178 216 242 254 216 242 254 216 242 254 216 242 254

224 228 180 224 228 180 224 228 180 224 228 180 224 228 180 224 228 180 224 228 180 224 228 180 224 228 180 156 159 126 209 215 171 146 150 119 146 150 119 146 150 119 209 215 171 209 215 171 209 215 171 189 204 150 189 204 150 132 142 105 189 204 150 189 204 150 189 204 150 132 142 105 132 142 105 189 204 150 209 215 171 209 215 171 209 215 171 209 215 171 209 215 171 209 215 171 209 215 171 146 150 119 146 150 119 146 150 119 209 215 171 209 215 171 209 215 171 209 215 171 209 215 171 209 215 171 209 215 171 209 215 171 209 215 171 224 228 180 224 228 180 224 228 180 224 228 180 156 159 126 156 159 126 224 228 180 224 228 180 156 159 126 146 150 119 146 150 119 146 150 119 146 150 119 146 150 119 146 150 119 146 150 119 146 150 119 146 150 119 156 159 126 156 159 126 156 159 126 156 159 126 156 159 126 156 159 126 156 159 126 156 159 126 156 159 126 156 159 126 156 159 126 156 159 126 156 159 126 156 159 126 156 159 126 146 150 119 146 150 119 146 150 119 146 150 119 146 150 119 146 150 119 146 150 119 146 150 119 146 150 119 132 142 105 132 142 105 132 142 105 132 142 105 189 204 150 189 204 150 132 142 105 116 137 99 167 197 142 116 137 99 116 137 99 116 137 99 167 197 142 167 197 142 116 137 99 116 137 99 116 137 99 116 137 99 116 137 99 116 137 99 116 137 99 116 137 99 116 137 99 116 137 99 116 137 99 116 137 99 102 133 97 102 133 97 147 191 139 147 191 139 102 133 97 147 191 139 147 191 139 147 191 139 147 191 139 102 133 97 147 191 139 147 191 139 167 197 142 167 197 142 167 197 142 167 197 142 167 197 142 167 197 142 167 197 142 189 204 150 189 204 150 189 204 150 189 204 150 132 142 105 132 142 105 132 142 105 132 142 105 189 204 150 189 204 150 167 197 142 132 142 105 189 204 150 189 204 150 189 204 150 189 204 150 189 204 150 189 204 150 132 142 105 189 204 150 116 137 99 116 137 99 116 137 99 116 137 99 167 197 142 167 197 142 167 197 142 167 197 142 116 137 99 116 137 99 116 137 99 116 137 99 116 137 99 116 137 99 116 137 99 116 137 99 116 137 99 102 133 97 102 133 97 102 133 97 102 133 97 102 133 97 120 145 115 120 145 115 120 145 115 120 145 115 120 145 115 151 169 177 151 169 177 151 169 177 151 169 177 151 169 177 151 169 177 151 169 177 151 169 177 216 242 254 151 169 177 151 169 177 151 169 177 216 242 254 151 169 177 151 169 177 137 164 178 137 164 178 137 164 178 137 164 178 137 164 178 137 164 178 128 158 178 128 158 178 184 227 255 128 158 178 128 158 178 184 227 255 184 227 255 128 158 178 128 158 178 128 158 178 128 158 178 128 158 178 184 227 255 184 227 255 184 227 255 184 227 255 184 227 255 128 158 178 197 235 255 197 235 255 197 235 255 137 164 178 197 235 255 197 235 255 137 164 178 137 164 178 137 164 178 137 164 178 137 164 178 137 164 178 137 164 178 151 169 177 216 242 254 151 169 177 151 169 177 151 169 177 151 169 177 151 169 177 151 169 177 151 169 177 216 242 254 151 169 177 151 169 177 216 242 254 151 169 177 151 169 177 216 242 254 151 169 177 197 235 255 216 242 254 137 164 178 137 164 178 137 164 178 216 242 254 216 242 254 216 242 254 216 242 254

224 228 180 224 228 180 224 228 180 224 228 180 224 228 180 224 228 180 224 228 180 224 228 180 224 228 180 224 228 180 156 159 126 209 215 171 209 215 171 209 215 171 209 215 171 209 215 171 209 215 171 209 215 171 189 204 150 209 215 171 189 204 150 209 215 171 209 215 171 189 204 150 189 204 150 189 204 150 209 215 171 209 215 171 209 215 171 209 215 171 209 215 171 209 215 171 146 150 119 146 150 119 209 215 171 209 215 171 209 215 171 209 215 171 209 215 171 146 150 119 209 215 171 209 215 171 224 228 180 209 215 171 209 215 171 224 228 180 224 228 180 224 228 180 224 228 180 156 159 126 156 159 126 156 159 126 224 228 180 146 150 119 146 150 119 146 150 119 146 150 119 146 150 119 146 150 119 146 150 119 146 150 119 146 150 119 146 150 119 209 215 171 146 150 119 146 150 119 146 150 119 156 159 126 156 159 126 156 159 126 156 159 126 156 159 126 156 159 126 146 150 119 224 228 180 156 159 126 156 159 126 156 159 126 146 150 119 146 150 119 146 150 119 146 150 119 146 150 119 146 150 119 146 150 119 146 150 119 146 150 119 132 142 105 132 142 105 132 142 105 132 142 105 189 204 150 132 142 105 132 142 105 116 137 99 167 197 142 116 137 99 167 197 142 167 197 142 167 197 142 167 197 142 116 137 99 116 137 99 116 137 99 116 137 99 116 137 99 167 197 142 116 137 99 116 137 99 116 137 99 116 137 99 116 137 99 102 133 97 102 133 97 147 191 139 147 191 139 147 191 139 102 133 97 102 133 97 102 133 97 147 191 139 102 133 97 147 191 139 147 191 139 167 197 142 167 197 142 167 197 142 167 197 142 189 204 150 189 204 150 189 204 150 189 204 150 189 204 150 189 204 150 189 204 150 189 204 150 189 204 150 189 204 150 189 204 150 189 204 150 189 204 150 189 204 150 189 204 150 189 204 150 189 204 150 189 204 150 189 204 150 189 204 150 189 204 150 189 204 150 132 142 105 189 204 150 132 142 105 189 204 150 189 204 150 167 197 142 167 197 142 116 137 99 167 197 142 116 137 99 116 137 99 116 137 99 116 137 99 116 137 99 102 133 97 102 133 97 102 133 97 102 133 97 102 133 97 102 133 97 102 133 97 102 133 97 102 133 97 120 145 115 120 145 115 120 145 115 120 145 115 120 145 115 172 208 165 151 169 177 151 169 177 151 169 177 151 169 177 151 169 177 216 242 254 151 169 177 216 242 254 216 242 254 216 242 254 216 242 254 151 169 177 151 169 177 151 169 177 137 164 178 137 164 178 137 164 178 197 235 255 137 164 178 128 158 178 128 158 178 128 158 178 128 158 178 128 158 178 184 227 255 184 227 255 184 227 255 184 227 255 128 158 178 128 158 178 128 158 178 184 227 255 184 227 255 184 227 255 128 158 178 184 227 255 128 158 178 197 235 255 128 158 178 197 235 255 128 158 178 197 235 255 197 235 255 197 235 255 197 235 255 197 235 255 137 164 178 137 164 178 137 164 178 137 164 178 137 164 178 137 164 178 137 164 178 137 164 178 137 164 178 151 169 177 137 164 178 137 164 178 137 164 178 216 242 254 216 242 254 216 242 254 151 169 177 151 169 177 151 169 177 151 169 177 216 242 254 216 242 254 216 242 254 216 242 254 216 242 254 216 242 254 216 242 254 216 242 254 216 242 254 216 242 254 216 242 254 216 242 254

224 228 180 224 228 180 224 228 180 238 235 191 238 235 191 224 228 180 224 228 180 224 228 180 224 228 180 156 159 126 156 159 126 224 228 180 209 215 171 209 215 171 209 215 171 209 215 171 146 150 119 146 150 119 209 215 171 209 215 171 209 215 171 209 215 171 209 215 171 146 150 119 189 204 150 209 215 171 209 215 171 209 215 171 209 215 171 146 150 119 209 215 171 209 215 171 209 215 171 209 215 171 209 215 171 209 215 171 209 215 171 209 215 171 209 215 171 224 228 180 209 215 171 224 228 180 209 215 171 224 228 180 224 228 180 224 228 180 224 228 180 224 228 180 224 228 180 156 159 126 146 150 119 146 150 119 146 150 119 146 150 119 146 150 119 146 150 119 209 215 171 146 150 119 146 150 119 146 150 119 146 150 119 146 150 119 146 150 119 146 150 119 146 150 119 146 150 119 146 150 119 146 150 119 146 150 119 146 150 119 146 150 119 146 150 119 146 150 119 146 150 119 146 150 119 146 150 119 146 150 119 146 150 119 146 150 119 146 150 119 146 150 119 146 150 119 146 150 119 146 150 119 146 150 119 132 142 105 132 142 105 132 142 105 132 142 105 132 142 105 132 142 105 132 142 105 116 137 99 116 137 99 116 137 99 167 197 142 116 137 99 167 197 142 116 137 99 167 197 142 116 137 99 116 137 99 116 137 99 116 137 99 116 137 99 116 137 99 167 197 142 116 137 99 116 137 99 116 137 99 102 133 97 102 133 97 102 133 97 102 133 97 147 191 139 102 133 97 102 133 97 102 133 97 102 133 97 147 191 139 147 191 139 102 133 97 147 191 139 147 191 139 147 191 139 167 197 142 167 197 142 167 197 142 167 197 142 189 204 150 189 204 150 189 204 150 189 204 150 189 204 150 189 204 150 189 204 150 189 204 150 189 204 150 189 204 150 132 142 105 189 204 150 189 204 150 189 204 150 189 204 150 189 204 150 189 204 150 189 204 150 189 204 150 189 204 150 132 142 105 132 142 105 132 142 105 189 204 150 189 204 150 189 204 150 132 142 105 167 197 142 116 137 99 167 197 142 116 137 99 116 137 99 116 137 99 116 137 99 116 137 99 102 133 97 102 133 97 102 133 97 102 133 97 102 133 97 102 133 97 102 133 97 102 133 97 120 145 115 120 145 115 120 145 115 120 145 115 120 145 115 120 145 115 120 145 115 151 169 177 151 169 177 151 169 177 216 242 254 151 169 177 151 169 177 151 169 177 216 242 254 216 242 254 216 242 254 151 169 177 151 169 177 151 169 177 151 169 177 137 164 178 137 164 178 137 164 178 137 164 178 137 164 178 128 158 178 128 158 178 184 227 255 128 158 178 184 227 255 184 227 255 128 158 178 184 227 255 184 227 255 128 158 178 128 158 178 128 158 178 184 227 255 184 227 255 184 227 255 128 158 178 184 227 255 128 158 178 184 227 255 128 158 178 197 235 255 197 235 255 197 235 255 197 235 255 197 235 255 197 235 255 197 235 255 197 235 255 197 235 255 137 164 178 137 164 178 137 164 178 137 164 178 137 164 178 197 235 255 197 235 255 137 164 178 137 164 178 137 164 178 216 242 254 216 242 254 216 242 254 216 242 254 151 169 177 151 169 177 151 169 177 151 169 177 151 169 177 151 169 177 151 169 177 216 242 254 216 242 254 151 169 177 216 242 254 151 169 177 216 242 254 216 242 254 151 169 177 216 242 254

224 228 180 224 228 180 224 228 180 238 235 191 238 235 191 238 235 191 238 235 191 238 235 191 156 159 126 156 159 126 224 228 180 224 228 180 224 228 180 209 215 171 209 215 171 209 215 171 209 215 171 209 215 171 209 215 171 209 215 171 209 215 171 209 215 171 146 150 119 209 215 171 209 215 171 209 215 171 209 215 171 209 215 171 209 215 171 209 215 171 209 215 171 209 215 171 224 228 180 209 215 171 209 215 171 209 215 171 146 150 119 209 215 171 209 215 171 224 228 180 224 228 180 224 228 180 224 228 180 224 228 180 224 228 180 146 150 119 156 159 126 156 159 126 224 228 180 156 159 126 146 150 119 146 150 119 209 215 171 146 150 119 146 150 119 146 150 119 146 150 119 146 150 119 209 215 171 209 215 171 209 215 171 146 150 119 146 150 119 146 150 119 146 150 119 146 150 119 146 150 119 146 150 119 146 150 119 146 150 119 146 150 119 146 150 119 209 215 171 146 150 119 146 150 119 146 150 119 146 150 119 146 150 119 146 150 119 146 150 119 146 150 119 146 150 119 146 150 119 146 150 119 146 150 119 132 142 105 132 142 105 132 142 105 132 142 105 132 142 105 189 204 150 116 137 99 116 137 99 116 137 99 167 197 142 116 137 99 116 137 99 167 197 142 116 137 99 116 137 99 116 137 99 116 137 99 116 137 99 116 137 99 116 137 99 116 137 99 167 197 142 116 137 99 116 137 99 116 137 99 102 133 97 102 133 97 102 133 97 102 133 97 102 133 97 102 133 97 102 133 97 147 191 139 102 133 97 147 191 139 167 197 142 147 191 139 147 191 139 147 191 139 167 197 142 167 197 142 167 197 142 167 197 142 189 204 150 189 204 150 189 204 150 189 204 150 189 204 150 189 204 150 189 204 150 189 204 150 189 204 150 189 204 150 189 204 150 189 204 150 189 204 150 132 142 105 189 204 150 189 204 150 189 204 150 189 204 150 189 204 150 189 204 150 189 204 150 189 204 150 132 142 105 189 204 150 189 204 150 189 204 150 132 142 105 189 204 150 189 204 150 167 197 142 167 197 142 116 137 99 116 137 99 116 137 99 102 133 97 102 133 97 102 133 97 102 133 97 102 133 97 102 133 97 102 133 97 102 133 97 120 145 115 120 145 115 120 145 115 120 145 115 120 145 115 120 145 115 120 145 115 172 208 165 151 169 177 151 169 177 151 169 177 151 169 177 216 242 254 151 169 177 151 169 177 216 242 254 151 169 177 151 169 177 216 242 254 137 164 178 137 164 178 151 169 177 216 242 254 137 164 178 137 164 178 137 164 178 137 164 178 128 158 178 197 235 255 128 158 178 128 158 178 128 158 178 184 227 255 184 227 255 128 158 178 128 158 178 128 158 178 128 158 178 128 158 178 184 227 255 184 227 255 184 227 255 184 227 255 184 227 255 184 227 255 184 227 255 184 227 255 184 227 255 184 227 255 197 235 255 197 235 255 197 235 255 197 235 255 197 235 255 197 235 255 137 164 178 137 164 178 137 164 178 137 164 178 197 235 255 197 235 255 197 235 255 197 235 255 137 164 178 137 164 178 197 235 255 197 235 255 197 235 255 216 242 254 151 169 177 216 242 254 151 169 177 151 169 177 151 169 177 216 242 254 151 169 177 151 169 177 216 242 254 216 242 254 216 242 254 216 242 254 216 242 254 151 169 177 216 242 254 216 242 254 216 242 254 216 242 254

238 235 191 224 228 180 238 235 191 238 235 191 238 235 191 238 235 191 238 235 191 166 164 133 156 159 126 224 228 180 224 228 180 224 228 180 224 228 180 156 159 126 224 228 180 209 215 171 209 215 171 209 215 171 209 215 171 146 150 119 146 150 119 209 215 171 209 215 171 209 215 171 209 215 171 209 215 171 209 215 171 209 215 171 209 215 171 209 215 171 209 215 171 224 228 180 224 228 180 146 150 119 146 150 119 209 215 171 209 215 171 209 215 171 209 215 171 209 215 171 146 150 119 156 159 126 224 228 180 224 228 180 224 228 180 156 159 126 224 228 180 224 228 180 224 228 180 156 159 126 146 150 119 146 150 119 209 215 171 209 215 171 209 215 171 209 215 171 146 150 119 209 215 171 146 150 119 146 150 119 132 142 105 132 142 105 146 150 119 132 142 105 132 142 105 146 150 119 146 150 119 146 150 119 132 142 105 146 150 119 146 150 119 146 150 119 146 150 119 146 150 119 146 150 119 146 150 119 146 150 119 146 150 119 146 150 119 146 150 119 146 150 119 146 150 119 146 150 119 146 150 119 132 142 105 132 142 105 132 142 105 132 142 105 132 142 105 132 142 105 116 137 99 116 137 99 167 197 142 167 197 142 167 197 142 116 137 99 116 137 99 116 137 99 116 137 99 116 137 99 167 197 142 116 137 99 116 137 99 167 197 142 116 137 99 167 197 142 167 197 142 116 137 99 116 137 99 116 137 99 102 133 97 147 191 139 147 191 139 102 133 97 102 133 97 147 191 139 147 191 139 147 191 139 147 191 139 147 191 139 147 191 139 167 197 142 167 197 142 167 197 142 167 197 142 167 197 142 167 197 142 167 197 142 189 204 150 132 142 105 189 204 150 189 204 150 189 204 150 189 204 150 189 204 150 132 142 105 189 204 150 189 204 150 189 204 150 189 204 150 189 204 150 189 204 150 189 204 150 189 204 150 189 204 150 189 204 150 132 142 105 132 142 105 189 204 150 189 204 150 132 142 105 189 204 150 189 204 150 132 142 105 132 142 105 132 142 105 132 142 105 116 137 99 116 137 99 116 137 99 116 137 99 102 133 97 102 133 97 102 133 97 102 133 97 102 133 97 102 133 97 102 133 97 120 145 115 120 145 115 120 145 115 120 145 115 120 145 115 120 145 115 120 145 115 120 145 115 151 169 177 151 169 177 151 169 177 151 169 177 151 169 177 151 169 177 151 169 177 151 169 177 151 169 177 137 164 178 151 169 177 151 169 177 137 164 178 137 164 178 137 164 178 137 164 178 137 164 178 137 164 178 137 164 178 137 164 178 137 164 178 137 164 178 184 227 255 128 158 178 128 158 178 184 227 255 184 227 255 128 158 178 128 158 178 128 158 178 184 227 255 128 158 178 128 158 178 128 158 178 184 227 255 128 158 178 184 227 255 184 227 255 197 235 255 184 227 255 184 227 255 184 227 255 197 235 255 197 235 255 197 235 255 197 235 255 197 235 255 197 235 255 137 164 178 137 164 178 137 164 178 137 164 178 137 164 178 197 235 255 197 235 255 137 164 178 197 235 255 137 164 178 137 164 178 137 164 178 137 164 178 137 164 178 137 164 178 137 164 178 137 164 178 137 164 178 151 169 177 137 164 178 137 164 178 137 164 178 137 164 178 216 242 254 151 169 177 151 169 177 151 169 177 151 169 177 216 242 254 216 242 254 216 242 254 216 242 254 216 242 254

238 235 191 238 235 191 238 235 191 238 235 191 238 235 191 238 235 191 238 235 191 238 235 191 238 235 191 238 235 191 224 228 180 156 159 126 224 228 180 224 228 180 224 228 180 146 150 119 224 228 180 209 215 171 209 215 171 146 150 119 146 150 119 209 215 171 209 215 171 146 150 119 209 215 171 209 215 171 209 215 171 146 150 119 146 150 119 209 215 171 209 215 171 224 228 180 224 228 180 156 159 126 209 215 171 146 150 119 209 215 171 209 215 171 209 215 171 146 150 119 146 150 119 209 215 171 224 228 180 156 159 126 224 228 180 224 228 180 224 228 180 146 150 119 146 150 119 146 150 119 146 150 119 146 150 119 224 228 180 146 150 119 209 215 171 209 215 171 209 215 171 146 150 119 209 215 171 146 150 119 132 142 105 132 142 105 132 142 105 132 142 105 189 204 150 132 142 105 132 142 105 132 142 105 132 142 105 132 142 105 209 215 171 209 215 171 132 142 105 146 150 119 146 150 119 132 142 105 132 142 105 146 150 119 146 150 119 132 142 105 132 142 105 209 215 171 132 142 105 132 142 105 132 142 105 132 142 105 132 142 105 132 142 105 132 142 105 116 137 99 116 137 99 167 197 142 167 197 142 167 197 142 116 137 99 116 137 99 116 137 99 116 137 99 116 137 99 167 197 142 116 137 99 116 137 99 167 197 142 116 137 99 167 197 142 167 197 142 167 197 142 116 137 99 167 197 142 116 137 99 102 133 97 147 191 139 102 133 97 147 191 139 147 191 139 147 191 139 147 191 139 147 191 139 147 191 139 147 191 139 147 191 139 167 197 142 167 197 142 167 197 142 167 197 142 167 197 142 167 197 142 167 197 142 189 204 150 189 204 150 189 204 150 189 204 150 189 204 150 189 204 150 189 204 150 189 204 150 189 204 150 189 204 150 189 204 150 132 142 105 132 142 105 132 142 105 189 204 150 189 204 150 189 204 150 132 142 105 189 204 150 189 204 150 189 204 150 189 204 150 189 204 150 189 204 150 189 204 150 132 142 105 189 204 150 116 137 99 116 137 99 116 137 99 116 137 99 116 137 99 102 133 97 102 133 97 102 133 97 102 133 97 102 133 97 120 145 115 120 145 115 120 145 115 120 145 115 120 145 115 120 145 115 120 145 115 151 169 177 151 169 177 151 169 177 151 169 177 151 169 177 151 169 177 151 169 177 151 169 177 151 169 177 151 169 177 151 169 177 216 242 254 151 169 177 137 164 178 197 235 255 137 164 178 137 164 178 137 164 178 137 164 178 197 235 255 197 235 255 137 164 178 137 164 178 137 164 178 137 164 178 137 164 178 128 158 178 128 158 178 128 158 178 184 227 255 184 227 255 184 227 255 128 158 178 128 158 178 128 158 178 128 158 178 184 227 255 184 227 255 184 227 255 128 158 178 184 227 255 184 227 255 197 235 255 128 158 178 184 227 255 197 235 255 184 227 255 197 235 255 197 235 255 197 235 255 197 235 255 137 164 178 137 164 178 137 164 178 137 164 178 128 158 178 197 235 255 197 235 255 137 164 178 137 164 178 137 164 178 128 158 178 137 164 178 197 235 255 197 235 255 137 164 178 137 164 178 197 235 255 137 164 178 197 235 255 216 242 254 137 164 178 137 164 178 137 164 178 197 235 255 197 235 255 216 242 254 151 169 177 151 169 177 151 169 177 216 242 254 216 242 254 216 242 254 216 242 254 216 242 254

238 235 191 238 235 191 238 235 191 238 235 191 238 235 191 238 235 191 238 235 191 238 235 191 238 235 191 238 235 191 156 159 126 224 228 180 224 228 180 224 228 180 156 159 126 156 159 126 209 215 171 146 150 119 209 215 171 146 150 119 209 215 171 209 215 171 209 215 171 209 215 171 209 215 171 209 215 171 209 215 171 146 150 119 209 215 171 209 215 171 209 215 171 224 228 180 224 228 180 224 228 180 224 228 180 224 228 180 224 228 180 209 215 171 146 150 119 146 150 119 209 215 171 209 215 171 224 228 180 224 228 180 224 228 180 156 159 126 146 150 119 224 228 180 209 215 171 209 215 171 146 150 119 146 150 119 209 215 171 146 150 119 146 150 119 146 150 119 209 215 171 146 150 119 209 215 171 146 150 119 132 142 105 132 142 105 132 142 105 132 142 105 132 142 105 132 142 105 132 142 105 189 204 150 189 204 150 132 142 105 132 142 105 132 142 105 132 142 105 132 142 105 132 142 105 132 142 105 189 204 150 189 204 150 146 150 119 132 142 105 132 142 105 132 142 105 132 142 105 132 142 105 132 142 105 132 142 105 132 142 105 132 142 105 189 204 150 116 137 99 167 197 142 116 137 99 116 137 99 116 137 99 116 137 99 116 137 99 116 137 99 116 137 99 116 137 99 167 197 142 167 197 142 116 137 99 116 137 99 116 137 99 167 197 142 167 197 142 167 197 142 116 137 99 116 137 99 116 137 99 102 133 97 147 191 139 147 191 139 147 191 139 102 133 97 102 133 97 102 133 97 102 133 97 147 191 139 102 133 97 147 191 139 167 197 142 167 197 142 167 197 142 167 197 142 167 197 142 167 197 142 189 204 150 189 204 150 189 204 150 189 204 150 189 204 150 189 204 150 132 142 105 132 142 105 189 204 150 189 204 150 132 142 105 189 204 150 132 142 105 189 204 150 189 204 150 189 204 150 189 204 150 189 204 150 189 204 150 189 204 150 189 204 150 189 204 150 189 204 150 132 142 105 189 204 150 189 204 150 132 142 105 132 142 105 132 142 105 116 137 99 116 137 99 116 137 99 102 133 97 102 133 97 102 133 97 102 133 97 102 133 97 102 133 97 120 145 115 120 145 115 120 145 115 120 145 115 120 145 115 120 145 115 120 145 115 151 169 177 151 169 177 151 169 177 151 169 177 151 169 177 151 169 177 151 169 177 151 169 177 216 242 254 151 169 177 151 169 177 216 242 254 216 242 254 216 242 254 197 235 255 137 164 178 137 164 178 137 164 178 137 164 178 137 164 178 137 164 178 137 164 178 137 164 178 128 158 178 128 158 178 128 158 178 128 158 178 128 158 178 184 227 255 184 227 255 184 227 255 128 158 178 128 158 178 128 158 178 128 158 178 120 152 175 184 227 255 128 158 178 128 158 178 128 158 178 184 227 255 184 227 255 184 227 255 128 158 178 184 227 255 184 227 255 128 158 178 197 235 255 197 235 255 197 235 255 197 235 255 137 164 178 137 164 178 137 164 178 128 158 178 128 158 178 128 158 178 137 164 178 128 158 178 128 158 178 128 158 178 128 158 178 197 235 255 197 235 255 197 235 255 137 164 178 197 235 255 137 164 178 137 164 178 197 235 255 197 235 255 137 164 178 137 164 178 137 164 178 137 164 178 137 164 178 197 235 255 137 164 178 216 242 254 216 242 254 216 242 254 216 242 254 216 242 254 216 242 254 172 208 165

238 235 191 238 235 191 238 235 191 238 235 191 238 235 191 166 164 133 238 235 191 238 235 191 238 235 191 166 164 133 166 164 133 224 228 180 224 228 180 224 228 180 156 159 126 224 228 180 224 228 180 209 215 171 209 215 171 146 150 119 209 215 171 209 215 171 209 215 171 209 215 171 209 215 171 209 215 171 209 215 171 209 215 171 209 215 171 224 228 180 224 228 180 224 228 180 224 228 180 224 228 180 224 228 180 224 228 180 146 150 119 146 150 119 146 150 119 209 215 171 209 215 171 209 215 171 209 215 171 146 150 119 156 159 126 146 150 119 146 150 119 146 150 119 224 228 180 146 150 119 146 150 119 146 150 119 146 150 119 146 150 119 146 150 119 209 215 171 224 228 180 146 150 119 146 150 119 132 142 105 132 142 105 132 142 105 132 142 105 189 204 150 189 204 150 189 204 150 189 204 150 189 204 150 132 142 105 132 142 105 189 204 150 132 142 105 132 142 105 132 142 105 189 204 150 132 142 105 189 204 150 132 142 105 189 204 150 132 142 105 132 142 105 132 142 105 132 142 105 132 142 105 132 142 105 132 142 105 132 142 105 116 137 99 132 142 105 116 137 99 167 197 142 167 197 142 189 204 150 116 137 99 116 137 99 116 137 99 102 133 97 102 133 97 167 197 142 167 197 142 167 197 142 116 137 99 167 197 142 167 197 142 167 197 142 167 197 142 116 137 99 116 137 99 116 137 99 116 137 99 102 133 97 102 133 97 167 197 142 147 191 139 147 191 139 147 191 139 147 191 139 147 191 139 147 191 139 147 191 139 167 197 142 167 197 142 167 197 142 167 197 142 189 204 150 167 197 142 189 204 150 189 204 150 189 204 150 189 204 150 189 204 150 189 204 150 189 204 150 189 204 150 189 204 150 189 204 150 209 215 171 189 204 150 132 142 105 132 142 105 132 142 105 189 204 150 189 204 150 189 204 150 209 215 171 132 142 105 189 204 150 189 204 150 189 204 150 189 204 150 132 142 105 132 142 105 132 142 105 132 142 105 132 142 105 132 142 105 116 137 99 116 137 99 116 137 99 102 133 97 102 133 97 102 133 97 102 133 97 102 133 97 102 133 97 120 145 115 120 145 115 120 145 115 120 145 115 120 145 115 120 145 115 151 169 177 151 169 177 151 169 177 151 169 177 151 169 177 151 169 177 151 169 177 216 242 254 151 169 177 151 169 177 151 169 177 151 169 177 216 242 254 216 242 254 137 164 178 137 164 178 137 164 178 137 164 178 137 164 178 137 164 178 137 164 178 137 164 178 137 164 178 128 158 178 128 158 178 128 158 178 128 158 178 184 227 255 184 227 255 197 235 255 128 158 178 184 227 255 184 227 255 184 227 255 184 227 255 128 158 178 184 227 255 120 152 175 128 158 178 184 227 255 184 227 255 184 227 255 128 158 178 184 227 255 128 158 178 197 235 255 197 235 255 197 235 255 197 235 255 197 235 255 137 164 178 197 235 255 137 164 178 137 164 178 137 164 178 128 158 178 128 158 178 128 158 178 128 158 178 128 158 178 128 158 178 128 158 178 184 227 255 197 235 255 128 158 178 128 158 178 137 164 178 197 235 255 197 235 255 197 235 255 197 235 255 137 164 178 137 164 178 137 164 178 197 235 255 197 235 255 197 235 255 197 235 255 137 164 178 216 242 254 216 242 254 216 242 254 216 242 254 216 242 254 216 242 254 172 208 165

238 235 191 166 164 133 238 235 191 238 235 191 238 235 191 166 164 133 238 235 191 238 235 191 238 235 191 166 164 133 238 235 191 238 235 191 238 235 191 224 228 180 156 159 126 224 228 180 156 159 126 156 159 126 224 228 180 224 228 180 224 228 180 224 228 180 224 228 180 224 228 180 224 228 180 224 228 180 209 215 171 224 228 180 224 228 180 224 228 180 224 228 180 224 228 180 224 228 180 156 159 126 224 228 180 156 159 126 224 228 180 209 215 171 146 150 119 209 215 171 146 150 119 209 215 171 209 215 171 146 150 119 146 150 119 146 150 119 146 150 119 209 215 171 209 215 171 146 150 119 146 150 119 209 215 171 146 150 119 146 150 119 146 150 119 209 215 171 146 150 119 146 150 119 132 142 105 132 142 105 132 142 105 132 142 105 132 142 105 189 204 150 132 142 105 189 204 150 132 142 105 132 142 105 132 142 105 132 142 105 132 142 105 132 142 105 132 142 105 132 142 105 189 204 150 189 204 150 189 204 150 132 142 105 189 204 150 132 142 105 132 142 105 189 204 150 132 142 105 132 142 105 132 142 105 132 142 105 189 204 150 116 137 99 116 137 99 116 137 99 116 137 99 167 197 142 116 137 99 116 137 99 116 137 99 116 137 99 116 137 99 167 197 142 167 197 142 167 197 142 116 137 99 116 137 99 167 197 142 116 137 99 116 137 99 116 137 99 116 137 99 116 137 99 167 197 142 116 137 99 102 133 97 167 197 142 147 191 139 102 133 97 147 191 139 147 191 139 147 191 139 147 191 139 147 191 139 147 191 139 167 197 142 167 197 142 167 197 142 167 197 142 189 204 150 189 204 150 167 197 142 189 204 150 116 137 99 189 204 150 189 204 150 189 204 150 189 204 150 132 142 105 189 204 150 189 204 150 189 204 150 132 142 105 132 142 105 132 142 105 132 142 105 189 204 150 132 142 105 189 204 150 132 142 105 132 142 105 189 204 150 189 204 150 189 204 150 132 142 105 132 142 105 189 204 150 189 204 150 132 142 105 132 142 105 189 204 150 116 137 99 116 137 99 116 137 99 102 133 97 102 133 97 147 191 139 120 145 115 120 145 115 120 145 115 120 145 115 120 145 115 120 145 115 120 145 115 151 169 177 151 169 177 151 169 177 151 169 177 151 169 177 151 169 177 151 169 177 151 169 177 151 169 177 216 242 254 151 169 177 151 169 177 151 169 177 137 164 178 151 169 177 137 164 178 137 164 178 137 164 178 137 164 178 137 164 178 137 164 178 128 158 178 137 164 178 128 158 178 128 158 178 128 158 178 128 158 178 184 227 255 184 227 255 184 227 255 128 158 178 128 158 178 128 158 178 184 227 255 184 227 255 184 227 255 128 158 178 128 158 178 184 227 255 184 227 255 184 227 255 184 227 255 184 227 255 184 227 255 128 158 178 184 227 255 184 227 255 184 227 255 128 158 178 197 235 255 137 164 178 137 164 178 137 164 178 197 235 255 137 164 178 128 158 178 128 158 178 128 158 178 184 227 255 184 227 255 128 158 178 184 227 255 128 158 178 128 158 178 128 158 178 184 227 255 128 158 178 184 227 255 197 235 255 137 164 178 197 235 255 197 235 255 137 164 178 137 164 178 137 164 178 137 164 178 197 235 255 197 235 255 197 235 255 197 235 255 197 235 255 216 242 254 216 242 254 216 242 254 216 242 254 216 242 254 172 208 165 172 208 165

238 235 191 238 235 191 238 235 191 238 235 191 238 235 191 166 164 133 166 164 133 166 164 133 166 164 133 238 235 191 238 235 191 238 235 191 238 235 191 156 159 126 156 159 126 156 159 126 156 159 126 224 228 180 224 228 180 224 228 180 224 228 180 224 228 180 224 228 180 224 228 180 224 228 180 224 228 180 224 228 180 224 228 180 224 228 180 224 228 180 224 228 180 224 228 180 224 228 180 156 159 126 156 159 126 156 159 126 224 228 180 146 150 119 146 150 119 209 215 171 146 150 119 146 150 119 146 150 119 146 150 119 146 150 119 209 215 171 209 215 171 209 215 171 146 150 119 146 150 119 146 150 119 146 150 119 146 150 119 146 150 119 146 150 119 146 150 119 146 150 119 146 150 119 132 142 105 132 142 105 132 142 105 132 142 105 132 142 105 189 204 150 189 204 150 132 142 105 132 142 105 132 142 105 189 204 150 132 142 105 132 142 105 132 142 105 189 204 150 189 204 150 189 204 150 189 204 150 132 142 105 132 142 105 189 204 150 189 204 150 132 142 105 189 204 150 132 142 105 132 142 105 189 204 150 116 137 99 189 204 150 116 137 99 116 137 99 167 197 142 167 197 142 167 197 142 167 197 142 116 137 99 116 137 99 167 197 142 167 197 142 167 197 142 116 137 99 167 197 142 167 197 142 116 137 99 167 197 142 116 137 99 167 197 142 116 137 99 116 137 99 167 197 142 167 197 142 116 137 99 167 197 142 147 191 139 102 133 97 147 191 139 147 191 139 147 191 139 167 197 142 147 191 139 167 197 142 167 197 142 167 197 142 167 197 142 167 197 142 167 197 142 189 204 150 189 204 150 189 204 150 189 204 150 189 204 150 189 204 150 189 204 150 189 204 150 189 204 150 189 204 150 189 204 150 189 204 150 189 204 150 132 142 105 132 142 105 189 204 150 132 142 105 189 204 150 132 142 105 132 142 105 132 142 105 189 204 150 189 204 150 189 204 150 132 142 105 189 204 150 132 142 105 132 142 105 189 204 150 189 204 150 189 204 150 132 142 105 116 137 99 116 137 99 116 137 99 102 133 97 102 133 97 102 133 97 102 133 97 172 208 165 120 145 115 120 145 115 120 145 115 151 169 177 151 169 177 151 169 177 151 169 177 151 169 177 151 169 177 151 169 177 151 169 177 151 169 177 137 164 178 216 242 254 216 242 254 151 169 177 151 169 177 151 169 177 137 164 178 197 235 255 137 164 178 137 164 178 137 164 178 137 164 178 137 164 178 137 164 178 128 158 178 184 227 255 197 235 255 128 158 178 128 158 178 128 158 178 184 227 255 128 158 178 184 227 255 128 158 178 128 158 178 184 227 255 184 227 255 128 158 178 128 158 178 128 158 178 184 227 255 184 227 255 184 227 255 184 227 255 184 227 255 184 227 255 184 227 255 184 227 255 184 227 255 184 227 255 184 227 255 184 227 255 197 235 255 197 235 255 197 235 255 197 235 255 197 235 255 128 158 178 128 158 178 197 235 255 197 235 255 184 227 255 128 158 178 128 158 178 184 227 255 128 158 178 128 158 178 184 227 255 184 227 255 128 158 178 184 227 255 184 227 255 197 235 255 197 235 255 137 164 178 137 164 178 197 235 255 197 235 255 197 235 255 197 235 255 137 164 178 137 164 178 197 235 255 216 242 254 216 242 254 151 169 177 216 242 254 216 242 254 216 242 254 172 208 165 172 208 165

238 235 191 166 164 133 238 235 191 238 235 191 238 235 191 166 164 133 166 164 133 166 164 133 166 164 133 238 235 191 238 235 191 166 164 133 238 235 191 166 164 133 156 159 126 156 159 126 224 228 180 224 228 180 224 228 180 224 228 180 224 228 180 224 228 180 224 228 180 224 228 180 224 228 180 224 228 180 224 228 180 224 228 180 224 228 180 224 228 180 224 228 180 224 228 180 156 159 126 156 159 126 224 228 180 156 159 126 156 159 126 146 150 119 146 150 119 209 215 171 209 215 171 146 150 119 146 150 119 146 150 119 146 150 119 146 150 119 146 150 119 146 150 119 146 150 119 146 150 119 209 215 171 146 150 119 146 150 119 146 150 119 132 142 105 146 150 119 132 142 105 132 142 105 132 142 105 132 142 105 132 142 105 132 142 105 116 137 99 132 142 105 132 142 105 132 142 105 132 142 105 132 142 105 132 142 105 132 142 105 132 142 105 189 204 150 132 142 105 132 142 105 132 142 105 132 142 105 132 142 105 189 204 150 189 204 150 189 204 150 132 142 105 132 142 105 132 142 105 132 142 105 132 142 105 132 142 105 189 204 150 116 137 99 116 137 99 167 197 142 116 137 99 167 197 142 189 204 150 116 137 99 116 137 99 116 137 99 116 137 99 167 197 142 116 137 99 167 197 142 116 137 99 116 137 99 167 197 142 167 197 142 167 197 142 167 197 142 116 137 99 167 197 142 116 137 99 116 137 99 116 137 99 102 133 97 147 191 139 147 191 139 167 197 142 167 197 142 167 197 142 167 197 142 167 197 142 167 197 142 167 197 142 167 197 142 189 204 150 189 204 150 189 204 150 189 204 150 189 204 150 189 204 150 189 204 150 189 204 150 189 204 150 132 142 105 189 204 150 189 204 150 132 142 105 132 142 105 132 142 105 132 142 105 132 142 105 132 142 105 189 204 150 189 204 150 132 142 105 132 142 105 189 204 150 189 204 150 132 142 105 132 142 105 132 142 105 132 142 105 132 142 105 189 204 150 189 204 150 132 142 105 116 137 99 116 137 99 116 137 99 116 137 99 102 133 97 102 133 97 102 133 97 102 133 97 120 145 115 120 145 115 120 145 115 120 145 115 151 169 177 151 169 177 151 169 177 151 169 177 151 169 177 151 169 177 151 169 177 151 169 177 137 164 178 151 169 177 137 164 178 137 164 178 137 164 178 151 169 177 216 242 254 137 164 178 137 164 178 137 164 178 137 164 178 137 164 178 137 164 178 137 164 178 128 158 178 128 158 178 128 158 178 184 227 255 128 158 178 128 158 178 128 158 178 128 158 178 128 158 178 128 158 178 184 227 255 128 158 178 128 158 178 128 158 178 184 227 255 184 227 255 128 158 178 128 158 178 128 158 178 184 227 255 184 227 255 184 227 255 184 227 255 128 158 178 184 227 255 184 227 255 184 227 255 184 227 255 128 158 178 128 158 178 184 227 255 137 164 178 197 235 255 137 164 178 128 158 178 137 164 178 197 235 255 184 227 255 128 158 178 128 158 178 128 158 178 128 158 178 128 158 178 128 158 178 128 158 178 128 158 178 184 227 255 184 227 255 184 227 255 128 158 178 128 158 178 128 158 178 128 158 178 128 158 178 137 164 178 137 164 178 137 164 178 137 164 178 197 235 255 197 235 255 197 235 255 216 242 254 216 242 254 216 242 254 216 242 254 216 242 254 172 208 165 172 208 165 172 208 165

231 224 182 231 224 182 238 235 191 238 235 191 166 164 133 166 164 133 166 164 133 238 235 191 238 235 191 238 235 191 166 164 133 166 164 133 238 235 191 166 164 133 156 159 126 224 228 180 224 228 180 224 228 180 224 228 180 224 228 180 224 228 180 224 228 180 224 228 180 224 228 180 238 235 191 156 159 126 224 228 180 224 228 180 224 228 180 224 228 180 224 228 180 224 228 180 224 228 180 156 159 126 156 159 126 156 159 126 224 228 180 146 150 119 209 215 171 209 215 171 209 215 171 146 150 119 146 150 119 146 150 119 146 150 119 146 150 119 209 215 171 146 150 119 146 150 119 146 150 119 209 215 171 146 150 119 209 215 171 132 142 105 132 142 105 132 142 105 132 142 105 132 142 105 132 142 105 132 142 105 132 142 105 132 142 105 116 137 99 189 204 150 189 204 150 189 204 150 189 204 150 189 204 150 132 142 105 132 142 105 189 204 150 189 204 150 189 204 150 189 204 150 189 204 150 189 204 150 132 142 105 189 204 150 209 215 171 209 215 171 209 215 171 189 204 150 132 142 105 132 142 105 132 142 105 132 142 105 189 204 150 116 137 99 116 137 99 167 197 142 167 197 142 189 204 150 189 204 150 116 137 99 116 137 99 167 197 142 167 197 142 116 137 99 116 137 99 167 197 142 167 197 142 167 197 142 167 197 142 167 197 142 167 197 142 167 197 142 116 137 99 167 197 142 167 197 142 167 197 142 102 133 97 167 197 142 167 197 142 147 191 139 102 133 97 167 197 142 167 197 142 167 197 142 167 197 142 167 197 142 189 204 150 189 204 150 189 204 150 189 204 150 189 204 150 189 204 150 189 204 150 189 204 150 189 204 150 189 204 150 189 204 150 189 204 150 132 142 105 132 142 105 132 142 105 132 142 105 132 142 105 132 142 105 132 142 105 132 142 105 189 204 150 132 142 105 189 204 150 189 204 150 189 204 150 189 204 150 189 204 150 189 204 150 132 142 105 189 204 150 189 204 150 189 204 150 189 204 150 132 142 105 116 137 99 116 137 99 167 197 142 116 137 99 102 133 97 102 133 97 102 133 97 102 133 97 120 145 115 120 145 115 120 145 115 120 145 115 151 169 177 151 169 177 151 169 177 151 169 177 216 242 254 151 169 177 151 169 177 137 164 178 137 164 178 137 164 178 137 164 178 137 164 178 137 164 178 137 164 178 216 242 254 137 164 178 137 164 178 137 164 178 137 164 178 137 164 178 137 164 178 137 164 178 128 158 178 128 158 178 128 158 178 184 227 255 128 158 178 184 227 255 184 227 255 128 158 178 128 158 178 128 158 178 128 158 178 128 158 178 128 158 178 128 158 178 184 227 255 128 158 178 128 158 178 128 158 178 128 158 178 184 227 255 184 227 255 184 227 255 184 227 255 128 158 178 184 227 255 184 227 255 184 227 255 184 227 255 184 227 255 184 227 255 128 158 178 184 227 255 197 235 255 128 158 178 128 158 178 128 158 178 128 158 178 128 158 178 128 158 178 128 158 178 128 158 178 128 158 178 128 158 178 128 158 178 128 158 178 184 227 255 184 227 255 184 227 255 128 158 178 128 158 178 128 158 178 128 158 178 128 158 178 184 227 255 128 158 178 128 158 178 197 235 255 197 235 255 137 164 178 197 235 255 197 235 255 216 242 254 216 242 254 216 242 254 216 242 254 216 242 254 172 208 165 172 208 165 172 208 165

231 224 182 231 224 182 231 224 182 166 164 133 238 235 191 238 235 191 238 235 191 238 235 191 238 235 191 238 235 191 166 164 133 166 164 133 166 164 133 166 164 133 166 164 133 224 228 180 156 159 126 224 228 180 224 228 180 224 228 180 224 228 180 238 235 191 224 228 180 224 228 180 156 159 126 156 159 126 224 228 180 224 228 180 224 228 180 156 159 126 156 159 126 224 228 180 156 159 126 156 159 126 156 159 126 146 150 119 146 150 119 146 150 119 146 150 119 146 150 119 146 150 119 146 150 119 209 215 171 146 150 119 132 142 105 146 150 119 146 150 119 132 142 105 132 142 105 132 142 105 146 150 119 146 150 119 146 150 119 132 142 105 132 142 105 132 142 105 132 142 105 132 142 105 132 142 105 132 142 105 132 142 105 132 142 105 132 142 105 167 197 142 189 204 150 189 204 150 116 137 99 132 142 105 189 204 150 189 204 150 132 142 105 189 204 150 189 204 150 189 204 150 189 204 150 189 204 150 189 204 150 189 204 150 209 215 171 209 215 171 209 215 171 132 142 105 132 142 105 132 142 105 189 204 150 189 204 150 116 137 99 116 137 99 167 197 142 189 204 150 189 204 150 189 204 150 132 142 105 116 137 99 116 137 99 167 197 142 167 197 142 167 197 142 167 197 142 167 197 142 167 197 142 167 197 142 167 197 142 167 197 142 167 197 142 116 137 99 116 137 99 167 197 142 116 137 99 167 197 142 167 197 142 167 197 142 102 133 97 102 133 97 147 191 139 167 197 142 167 197 142 167 197 142 167 197 142 167 197 142 189 204 150 132 142 105 189 204 150 189 204 150 189 204 150 189 204 150 189 204 150 189 204 150 189 204 150 189 204 150 189 204 150 189 204 150 132 142 105 189 204 150 132 142 105 132 142 105 132 142 105 132 142 105 132 142 105 132 142 105 189 204 150 132 142 105 189 204 150 132 142 105 189 204 150 189 204 150 189 204 150 132 142 105 189 204 150 189 204 150 189 204 150 189 204 150 132 142 105 132 142 105 132 142 105 116 137 99 116 137 99 116 137 99 102 133 97 102 133 97 102 133 97 102 133 97 120 145 115 120 145 115 120 145 115 172 208 165 151 169 177 151 169 177 151 169 177 151 169 177 216 242 254 151 169 177 151 169 177 137 164 178 137 164 178 137 164 178 137 164 178 137 164 178 137 164 178 137 164 178 137 164 178 137 164 178 137 164 178 137 164 178 137 164 178 137 164 178 137 164 178 137 164 178 128 158 178 128 158 178 128 158 178 128 158 178 128 158 178 128 158 178 128 158 178 128 158 178 128 158 178 128 158 178 184 227 255 184 227 255 184 227 255 184 227 255 128 158 178 128 158 178 128 158 178 184 227 255 184 227 255 184 227 255 184 227 255 128 158 178 184 227 255 128 158 178 128 158 178 128 158 178 128 158 178 184 227 255 128 158 178 128 158 178 128 158 178 184 227 255 128 158 178 128 158 178 128 158 178 128 158 178 128 158 178 128 158 178 128 158 178 128 158 178 128 158 178 128 158 178 128 158 178 128 158 178 184 227 255 184 227 255 128 158 178 128 158 178 128 158 178 128 158 178 128 158 178 128 158 178 128 158 178 128 158 178 128 158 178 184 227 255 197 235 255 197 235 255 197 235 255 197 235 255 197 235 255 216 242 254 216 242 254 216 242 254 216 242 254 151 169 177 216 242 254 151 169 177 120 145 115

231 224 182 231 224 182 231 224 182 231 224 182 231 224 182 238 235 191 238 235 191 238 235 191 238 235 191 238 235 191 238 235 191 166 164 133 166 164 133 156 159 126 156 159 126 156 159 126 224 228 180 224 228 180 224 228 180 224 228 180 238 235 191 238 235 191 238 235 191 224 228 180 238 235 191 238 235 191 224 228 180 224 228 180 156 159 126 156 159 126 224 228 180 224 228 180 156 159 126 156 159 126 156 159 126 146 150 119 146 150 119 209 215 171 146 150 119 146 150 119 146 150 119 146 150 119 146 150 119 146 150 119 132 142 105 132 142 105 132 142 105 132 142 105 132 142 105 132 142 105 132 142 105 132 142 105 132 142 105 132 142 105 132 142 105 132 142 105 132 142 105 132 142 105 132 142 105 132 142 105 132 142 105 132 142 105 116 137 99 116 137 99 116 137 99 116 137 99 189 204 150 189 204 150 189 204 150 189 204 150 189 204 150 189 204 150 189 204 150 189 204 150 189 204 150 189 204 150 189 204 150 189 204 150 209 215 171 209 215 171 209 215 171 132 142 105 132 142 105 189 204 150 189 204 150 132 142 105 189 204 150 189 204 150 189 204 150 189 204 150 189 204 150 189 204 150 132 142 105 116 137 99 116 137 99 116 137 99 167 197 142 116 137 99 116 137 99 167 197 142 116 137 99 167 197 142 167 197 142 167 197 142 116 137 99 116 137 99 167 197 142 116 137 99 167 197 142 167 197 142 167 197 142 167 197 142 167 197 142 147 191 139 167 197 142 167 197 142 167 197 142 167 197 142 167 197 142 167 197 142 189 204 150 189 204 150 189 204 150 189 204 150 189 204 150 132 142 105 132 142 105 132 142 105 132 142 105 132 142 105 189 204 150 189 204 150 132 142 105 189 204 150 189 204 150 189 204 150 132 142 105 189 204 150 189 204 150 189 204 150 132 142 105 132 142 105 189 204 150 132 142 105 189 204 150 132 142 105 132 142 105 189 204 150 189 204 150 189 204 150 189 204 150 132 142 105 132 142 105 132 142 105 132 142 105 116 137 99 116 137 99 116 137 99 102 133 97 102 133 97 102 133 97 102 133 97 102 133 97 120 145 115 172 208 165 120 145 115 151 169 177 151 169 177 216 242 254 151 169 177 216 242 254 137 164 178 137 164 178 137 164 178 137 164 178 137 164 178 137 164 178 137 164 178 137 164 178 137 164 178 197 235 255 137 164 178 137 164 178 137 164 178 137 164 178 137 164 178 137 164 178 128 158 178 128 158 178 128 158 178 128 158 178 128 158 178 128 158 178 128 158 178 128 158 178 128 158 178 184 227 255 120 152 175 184 227 255 184 227 255 128 158 178 184 227 255 184 227 255 184 227 255 128 158 178 184 227 255 184 227 255 184 227 255 184 227 255 184 227 255 184 227 255 128 158 178 128 158 178 184 227 255 128 158 178 128 158 178 128 158 178 184 227 255 128 158 178 184 227 255 184 227 255 128 158 178 128 158 178 128 158 178 128 158 178 128 158 178 128 158 178 184 227 255 128 158 178 184 227 255 128 158 178 128 158 178 128 158 178 120 152 175 120 152 175 120 152 175 184 227 255 128 158 178 120 152 175 128 158 178 184 227 255 184 227 255 184 227 255 184 227 255 197 235 255 197 235 255 197 235 255 197 235 255 197 235 255 197 235 255 216 242 254 216 242 254 151 169 177 216 242 254 216 242 254 216 242 254 172 208 165

231 224 182 231 224 182 231 224 182 231 224 182 161 156 127 166 164 133 238 235 191 238 235 191 166 164 133 166 164 133 166 164 133 166 164 133 238 235 191 166 164 133 156 159 126 156 159 126 224 228 180 224 228 180 238 235 191 238 235 191 238 235 191 238 235 191 238 235 191 238 235 191 238 235 191 166 164 133 238 235 191 156 159 126 224 228 180 224 228 180 224 228 180 156 159 126 156 159 126 156 159 126 156 159 126 146 150 119 146 150 119 209 215 171 146 150 119 146 150 119 146 150 119 146 150 119 146 150 119 132 142 105 132 142 105 132 142 105 132 142 105 132 142 105 132 142 105 132 142 105 132 142 105 132 142 105 132 142 105 189 204 150 132 142 105 132 142 105 132 142 105 132 142 105 132 142 105 132 142 105 132 142 105 116 137 99 116 137 99 116 137 99 116 137 99 167 197 142 189 204 150 132 142 105 189 204 150 189 204 150 189 204 150 189 204 150 189 204 150 189 204 150 189 204 150 189 204 150 189 204 150 209 215 171 189 204 150 209 215 171 209 215 171 132 142 105 132 142 105 132 142 105 189 204 150 132 142 105 189 204 150 189 204 150 132 142 105 189 204 150 189 204 150 132 142 105 116 137 99 116 137 99 116 137 99 116 137 99 167 197 142 116 137 99 167 197 142 167 197 142 167 197 142 167 197 142 167 197 142 116 137 99 167 197 142 116 137 99 116 137 99 116 137 99 167 197 142 167 197 142 116 137 99 116 137 99 116 137 99 167 197 142 167 197 142 167 197 142 167 197 142 167 197 142 167 197 142 189 204 150 189 204 150 189 204 150 189 204 150 189 204 150 189 204 150 189 204 150 189 204 150 189 204 150 189 204 150 189 204 150 189 204 150 189 204 150 132 142 105 189 204 150 189 204 150 132 142 105 132 142 105 189 204 150 132 142 105 132 142 105 132 142 105 189 204 150 189 204 150 189 204 150 189 204 150 189 204 150 189 204 150 189 204 150 189 204 150 189 204 150 132 142 105 189 204 150 132 142 105 132 142 105 132 142 105 189 204 150 167 197 142 116 137 99 102 133 97 102 133 97 102 133 97 147 191 139 120 145 115 120 145 115 120 145 115 120 145 115 120 145 115 151 169 177 151 169 177 151 169 177 151 169 177 151 169 177 137 164 178 137 164 178 197 235 255 137 164 178 137 164 178 137 164 178 137 164 178 137 164 178 137 164 178 128 158 178 128 158 178 128 158 178 128 158 178 128 158 178 128 158 178 128 158 178 128 158 178 128 158 178 128 158 178 128 158 178 128 158 178 128 158 178 120 152 175 120 152 175 120 152 175 120 152 175 120 152 175 120 152 175 120 152 175 184 227 255 128 158 178 184 227 255 184 227 255 128 158 178 184 227 255 184 227 255 128 158 178 184 227 255 128 158 178 128 158 178 128 158 178 128 158 178 128 158 178 184 227 255 184 227 255 184 227 255 128 158 178 128 158 178 128 158 178 128 158 178 128 158 178 128 158 178 120 152 175 120 152 175 128 158 178 128 158 178 128 158 178 128 158 178 128 158 178 128 158 178 128 158 178 120 152 175 120 152 175 120 152 175 120 152 175 120 152 175 120 152 175 120 152 175 120 152 175 128 158 178 184 227 255 184 227 255 197 235 255 197 235 255 137 164 178 197 235 255 197 235 255 216 242 254 216 242 254 151 169 177 151 169 177 216 242 254 151 169 177 151 169 177 216 242 254

231 224 182 231 224 182 161 156 127 161 156 127 231 224 182 166 164 133 166 164 133 166 164 133 166 164 133 238 235 191 166 164 133 238 235 191 238 235 191 166 164 133 166 164 133 224 228 180 224 228 180 238 235 191 238 235 191 238 235 191 238 235 191 166 164 133 238 235 191 166 164 133 238 235 191 238 235 191 238 235 191 156 159 126 224 228 180 156 159 126 156 159 126 156 159 126 224 228 180 156 159 126 156 159 126 146 150 119 146 150 119 209 215 171 209 215 171 146 150 119 146 150 119 132 142 105 132 142 105 132 142 105 189 204 150 132 142 105 132 142 105 132 142 105 132 142 105 132 142 105 132 142 105 132 142 105 189 204 150 189 204 150 132 142 105 132 142 105 116 137 99 116 137 99 189 204 150 189 204 150 189 204 150 116 137 99 116 137 99 116 137 99 116 137 99 167 197 142 189 204 150 189 204 150 189 204 150 189 204 150 189 204 150 189 204 150 189 204 150 209 215 171 209 215 171 209 215 171 209 215 171 209 215 171 146 150 119 209 215 171 209 215 171 132 142 105 132 142 105 132 142 105 189 204 150 132 142 105 189 204 150 132 142 105 189 204 150 189 204 150 189 204 150 132 142 105 189 204 150 116 137 99 116 137 99 116 137 99 167 197 142 116 137 99 167 197 142 167 197 142 167 197 142 167 197 142 116 137 99 116 137 99 116 137 99 116 137 99 167 197 142 167 197 142 167 197 142 167 197 142 167 197 142 116 137 99 116 137 99 167 197 142 167 197 142 167 197 142 167 197 142 167 197 142 189 204 150 189 204 150 209 215 171 189 204 150 189 204 150 189 204 150 189 204 150 189 204 150 189 204 150 132 142 105 189 204 150 189 204 150 189 204 150 189 204 150 189 204 150 189 204 150 132 142 105 132 142 105 189 204 150 189 204 150 189 204 150 189 204 150 132 142 105 189 204 150 189 204 150 189 204 150 189 204 150 132 142 105 132 142 105 189 204 150 189 204 150 132 142 105 132 142 105 189 204 150 189 204 150 189 204 150 189 204 150 132 142 105 116 137 99 116 137 99 102 133 97 102 133 97 147 191 139 147 191 139 102 133 97 172 208 165 172 208 165 120 145 115 151 169 177 151 169 177 151 169 177 151 169 177 151 169 177 137 164 178 137 164 178 197 235 255 137 164 178 137 164 178 137 164 178 137 164 178 137 164 178 137 164 178 128 158 178 128 158 178 128 158 178 128 158 178 184 227 255 128 158 178 128 158 178 128 158 178 128 158 178 184 227 255 128 158 178 128 158 178 120 152 175 128 158 178 184 227 255 172 218 250 120 152 175 120 152 175 120 152 175 120 152 175 120 152 175 172 218 250 184 227 255 184 227 255 128 158 178 128 158 178 128 158 178 184 227 255 184 227 255 184 227 255 128 158 178 128 158 178 128 158 178 184 227 255 184 227 255 184 227 255 184 227 255 128 158 178 128 158 178 128 158 178 128 158 178 120 152 175 120 152 175 120 152 175 120 152 175 120 152 175 172 218 250 120 152 175 184 227 255 128 158 178 184 227 255 128 158 178 120 152 175 120 152 175 172 218 250 120 152 175 120 152 175 120 152 175 120 152 175 172 218 250 172 218 250 172 218 250 184 227 255 184 227 255 184 227 255 128 158 178 197 235 255 197 235 255 197 235 255 137 164 178 137 164 178 137 164 178 216 242 254 151 169 177 151 169 177 151 169 177 216 242 254

231 224 182 161 156 127 231 224 182 231 224 182 231 224 182 161 156 127 231 224 182 238 235 191 238 235 191 238 235 191 166 164 133 166 164 133 166 164 133 166 164 133 238 235 191 238 235 191 238 235 191 238 235 191 156 159 126 238 235 191 238 235 191 238 235 191 238 235 191 238 235 191 156 159 126 166 164 133 166 164 133 156 159 126 156 159 126 156 159 126 156 159 126 224 228 180 224 228 180 156 159 126 224 228 180 146 150 119 146 150 119 146 150 119 146 150 119 146 150 119 146 150 119 146 150 119 132 142 105 189 204 150 132 142 105 132 142 105 132 142 105 189 204 150 132 142 105 189 204 150 189 204 150 132 142 105 189 204 150 132 142 105 132 142 105 116 137 99 116 137 99 116 137 99 167 197 142 189 204 150 116 137 99 132 142 105 116 137 99 116 137 99 167 197 142 167 197 142 167 197 142 116 137 99 189 204 150 189 204 150 189 204 150 132 142 105 189 204 150 189 204 150 209 215 171 209 215 171 209 215 171 132 142 105 146 150 119 209 215 171 209 215 171 146 150 119 132 142 105 132 142 105 132 142 105 189 204 150 189 204 150 132 142 105 116 137 99 116 137 99 132 142 105 116 137 99 116 137 99 116 137 99 116 137 99 116 137 99 167 197 142 167 197 142 167 197 142 116 137 99 116 137 99 116 137 99 116 137 99 167 197 142 167 197 142 116 137 99 167 197 142 167 197 142 167 197 142 167 197 142 116 137 99 116 137 99 167 197 142 167 197 142 167 197 142 167 197 142 167 197 142 189 204 150 189 204 150 189 204 150 189 204 150 132 142 105 189 204 150 189 204 150 132 142 105 189 204 150 189 204 150 189 204 150 189 204 150 189 204 150 189 204 150 132 142 105 132 142 105 132 142 105 132 142 105 132 142 105 189 204 150 189 204 150 189 204 150 189 204 150 189 204 150 189 204 150 189 204 150 189 204 150 189 204 150 132 142 105 189 204 150 189 204 150 189 204 150 132 142 105 189 204 150 189 204 150 189 204 150 132 142 105 132 142 105 132 142 105 116 137 99 116 137 99 102 133 97 102 133 97 147 191 139 147 191 139 102 133 97 120 145 115 120 145 115 120 145 115 151 169 177 151 169 177 151 169 177 151 169 177 137 164 178 137 164 178 137 164 178 137 164 178 137 164 178 137 164 178 137 164 178 137 164 178 128 158 178 128 158 178 128 158 178 128 158 178 128 158 178 128 158 178 128 158 178 128 158 178 128 158 178 128 158 178 128 158 178 128 158 178 128 158 178 120 152 175 184 227 255 172 218 250 120 152 175 120 152 175 120 152 175 120 152 175 120 152 175 172 218 250 172 218 250 172 218 250 184 227 255 128 158 178 128 158 178 184 227 255 184 227 255 184 227 255 184 227 255 128 158 178 120 152 175 128 158 178 120 152 175 184 227 255 184 227 255 184 227 255 184 227 255 128 158 178 120 152 175 120 152 175 120 152 175 120 152 175 120 152 175 172 218 250 172 218 250 172 218 250 172 218 250 172 218 250 120 152 175 120 152 175 120 152 175 120 152 175 120 152 175 120 152 175 172 218 250 120 152 175 120 152 175 120 152 175 172 218 250 172 218 250 172 218 250 172 218 250 172 218 250 128 158 178 128 158 178 128 158 178 184 227 255 197 235 255 197 235 255 137 164 178 197 235 255 197 235 255 216 242 254 137 164 178 151 169 177 216 242 254 216 242 254

231 224 182 231 224 182 231 224 182 231 224 182 231 224 182 231 224 182 161 156 127 231 224 182 238 235 191 238 235 191 166 164 133 238 235 191 238 235 191 238 235 191 238 235 191 238 235 191 238 235 191 166 164 133 238 235 191 238 235 191 238 235 191 238 235 191 238 235 191 166 164 133 166 164 133 238 235 191 238 235 191 156 159 126 224 228 180 224 228 180 224 228 180 224 228 180 224 228 180 224 228 180 156 159 126 146 150 119 146 150 119 146 150 119 146 150 119 209 215 171 132 142 105 209 215 171 132 142 105 189 204 150 189 204 150 132 142 105 189 204 150 132 142 105 132 142 105 189 204 150 189 204 150 132 142 105 189 204 150 132 142 105 132 142 105 116 137 99 116 137 99 116 137 99 167 197 142 167 197 142 132 142 105 167 197 142 116 137 99 167 197 142 167 197 142 167 197 142 167 197 142 167 197 142 189 204 150 189 204 150 189 204 150 189 204 150 189 204 150 189 204 150 209 215 171 146 150 119 146 150 119 209 215 171 209 215 171 209 215 171 146 150 119 132 142 105 132 142 105 189 204 150 189 204 150 132 142 105 132 142 105 116 137 99 116 137 99 116 137 99 116 137 99 116 137 99 116 137 99 167 197 142 116 137 99 116 137 99 167 197 142 167 197 142 116 137 99 116 137 99 116 137 99 116 137 99 116 137 99 167 197 142 167 197 142 167 197 142 167 197 142 167 197 142 167 197 142 116 137 99 116 137 99 167 197 142 167 197 142 167 197 142 167 197 142 167 197 142 189 204 150 189 204 150 189 204 150 189 204 150 189 204 150 132 142 105 189 204 150 132 142 105 189 204 150 189 204 150 189 204 150 132 142 105 209 215 171 189 204 150 189 204 150 189 204 150 189 204 150 189 204 150 189 204 150 189 204 150 189 204 150 189 204 150 189 204 150 132 142 105 189 204 150 189 204 150 189 204 150 189 204 150 189 204 150 132 142 105 189 204 150 189 204 150 209 215 171 189 204 150 189 204 150 189 204 150 189 204 150 132 142 105 132 142 105 132 142 105 116 137 99 116 137 99 116 137 99 147 191 139 102 133 97 147 191 139 102 133 97 120 145 115 120 145 115 120 145 115 120 145 115 151 169 177 151 169 177 151 169 177 137 164 178 137 164 178 137 164 178 137 164 178 137 164 178 137 164 178 137 164 178 128 158 178 128 158 178 184 227 255 128 158 178 128 158 178 184 227 255 128 158 178 128 158 178 128 158 178 128 158 178 128 158 178 128 158 178 184 227 255 184 227 255 128 158 178 172 218 250 120 152 175 120 152 175 120 152 175 120 152 175 120 152 175 172 218 250 172 218 250 172 218 250 184 227 255 184 227 255 184 227 255 184 227 255 184 227 255 128 158 178 128 158 178 184 227 255 128 158 178 128 158 178 172 218 250 120 152 175 184 227 255 184 227 255 128 158 178 128 158 178 120 152 175 120 152 175 120 152 175 172 218 250 172 218 250 172 218 250 172 218 250 172 218 250 120 152 175 172 218 250 172 218 250 120 152 175 120 152 175 120 152 175 120 152 175 120 152 175 120 152 175 120 152 175 120 152 175 120 152 175 172 218 250 120 152 175 172 218 250 172 218 250 172 218 250 172 218 250 184 227 255 128 158 178 184 227 255 128 158 178 184 227 255 137 164 178 137 164 178 137 164 178 137 164 178 197 235 255 137 164 178 197 235 255 137 164 178 216 242 254

231 224 182 161 156 127 231 224 182 231 224 182 231 224 182 231 224 182 161 156 127 231 224 182 231 224 182 166 164 133 166 164 133 238 235 191 166 164 133 238 235 191 166 164 133 238 235 191 166 164 133 166 164 133 238 235 191 238 235 191 166 164 133 238 235 191 166 164 133 166 164 133 238 235 191 238 235 191 156 159 126 156 159 126 224 228 180 224 228 180 224 228 180 224 228 180 224 228 180 224 228 180 156 159 126 146 150 119 146 150 119 146 150 119 146 150 119 209 215 171 146 150 119 209 215 171 132 142 105 189 204 150 132 142 105 132 142 105 132 142 105 132 142 105 116 137 99 189 204 150 132 142 105 132 142 105 189 204 150 132 142 105 116 137 99 116 137 99 167 197 142 167 197 142 167 197 142 116 137 99 167 197 142 116 137 99 116 137 99 116 137 99 167 197 142 167 197 142 116 137 99 167 197 142 189 204 150 189 204 150 189 204 150 189 204 150 209 215 171 209 215 171 209 215 171 209 215 171 209 215 171 209 215 171 132 142 105 132 142 105 132 142 105 209 215 171 132 142 105 132 142 105 189 204 150 132 142 105 132 142 105 132 142 105 116 137 99 116 137 99 116 137 99 116 137 99 116 137 99 116 137 99 116 137 99 116 137 99 116 137 99 116 137 99 102 133 97 102 133 97 116 137 99 167 197 142 167 197 142 167 197 142 116 137 99 116 137 99 167 197 142 167 197 142 116 137 99 116 137 99 167 197 142 167 197 142 167 197 142 167 197 142 167 197 142 167 197 142 189 204 150 189 204 150 189 204 150 209 215 171 189 204 150 132 142 105 132 142 105 189 204 150 189 204 150 189 204 150 209 215 171 189 204 150 209 215 171 209 215 171 209 215 171 189 204 150 189 204 150 189 204 150 132 142 105 189 204 150 132 142 105 189 204 150 189 204 150 132 142 105 189 204 150 189 204 150 189 204 150 189 204 150 189 204 150 189 204 150 189 204 150 189 204 150 189 204 150 132 142 105 132 142 105 189 204 150 132 142 105 132 142 105 132 142 105 132 142 105 116 137 99 116 137 99 167 197 142 116 137 99 102 133 97 102 133 97 102 133 97 120 145 115 120 145 115 120 145 115 120 145 115 151 169 177 151 169 177 151 169 177 216 242 254 197 235 255 137 164 178 137 164 178 137 164 178 197 235 255 137 164 178 128 158 178 128 158 178 128 158 178 128 158 178 128 158 178 128 158 178 128 158 178 120 152 175 128 158 178 120 152 175 184 227 255 128 158 178 184 227 255 184 227 255 120 152 175 120 152 175 120 152 175 120 152 175 120 152 175 120 152 175 172 218 250 172 218 250 172 218 250 184 227 255 184 227 255 184 227 255 184 227 255 128 158 178 128 158 178 128 158 178 184 227 255 184 227 255 128 158 178 184 227 255 184 227 255 172 218 250 172 218 250 128 158 178 120 152 175 120 152 175 120 152 175 120 152 175 172 218 250 172 218 250 172 218 250 172 218 250 120 152 175 120 152 175 172 218 250 120 152 175 120 152 175 120 152 175 120 152 175 120 152 175 120 152 175 172 218 250 172 218 250 172 218 250 120 152 175 172 218 250 172 218 250 172 218 250 172 218 250 172 218 250 120 152 175 120 152 175 120 152 175 120 152 175 184 227 255 128 158 178 128 158 178 128 158 178 128 158 178 197 235 255 197 235 255 197 235 255 137 164 178 197 235 255 197 235 255 216 242 254

231 224 182 231 224 182 231 224 182 231 224 182 231 224 182 231 224 182 231 224 182 231 224 182 231 224 182 166 164 133 238 235 191 238 235 191 238 235 191 238 235 191 238 235 191 238 235 191 238 235 191 238 235 191 238 235 191 238 235 191 238 235 191 238 235 191 238 235 191 238 235 191 238 235 191 238 235 191 238 235 191 238 235 191 238 235 191 238 235 191 238 235 191 238 235 191 238 235 191 224 228 180 156 159 126 224 228 180 224 228 180 146 150 119 146 150 119 209 215 171 209 215 171 132 142 105 132 142 105 189 204 150 189 204 150 132 142 105 132 142 105 132 142 105 116 137 99 189 204 150 116 137 99 189 204 150 189 204 150 132 142 105 189 204 150 189 204 150 167 197 142 167 197 142 116 137 99 167 197 142 189 204 150 116 137 99 116 137 99 116 137 99 116 137 99 116 137 99 116 137 99 167 197 142 189 204 150 189 204 150 189 204 150 132 142 105 209 215 171 209 215 171 209 215 171 209 215 171 209 215 171 132 142 105 132 142 105 209 215 171 209 215 171 132 142 105 132 142 105 189 204 150 189 204 150 132 142 105 132 142 105 116 137 99 116 137 99 116 137 99 167 197 142 116 137 99 116 137 99 116 137 99 116 137 99 116 137 99 102 133 97 102 133 97 102 133 97 147 191 139 167 197 142 102 133 97 167 197 142 167 197 142 167 197 142 167 197 142 116 137 99 167 197 142 167 197 142 167 197 142 167 197 142 167 197 142 167 197 142 116 137 99 167 197 142 167 197 142 189 204 150 189 204 150 189 204 150 209 215 171 209 215 171 209 215 171 189 204 150 189 204 150 189 204 150 209 215 171 209 215 171 209 215 171 209 215 171 209 215 171 209 215 171 209 215 171 209 215 171 189 204 150 189 204 150 189 204 150 189 204 150 189 204 150 189 204 150 189 204 150 189 204 150 189 204 150 189 204 150 132 142 105 132 142 105 189 204 150 189 204 150 189 204 150 209 215 171 209 215 171 189 204 150 189 204 150 209 215 171 189 204 150 132 142 105 132 142 105 116 137 99 116 137 99 116 137 99 116 137 99 102 133 97 102 133 97 102 133 97 102 133 97 172 208 165 172 208 165 120 145 115 120 145 115 151 169 177 151 169 177 216 242 254 137 164 178 137 164 178 137 164 178 137 164 178 137 164 178 197 235 255 137 164 178 128 158 178 184 227 255 128 158 178 128 158 178 128 158 178 120 152 175 120 152 175 172 218 250 120 152 175 172 218 250 184 227 255 120 152 175 120 152 175 120 152 175 184 227 255 120 152 175 120 152 175 120 152 175 172 218 250 172 218 250 172 218 250 172 218 250 172 218 250 184 227 255 184 227 255 184 227 255 184 227 255 184 227 255 184 227 255 184 227 255 184 227 255 184 227 255 184 227 255 128 158 178 184 227 255 172 218 250 120 152 175 120 152 175 120 152 175 172 218 250 172 218 250 120 152 175 120 152 175 120 152 175 172 218 250 172 218 250 172 218 250 172 218 250 120 152 175 120 152 175 120 152 175 120 152 175 120 152 175 120 152 175 172 218 250 120 152 175 120 152 175 120 152 175 172 218 250 172 218 250 172 218 250 172 218 250 172 218 250 120 152 175 172 218 250 120 152 175 120 152 175 120 152 175 120 152 175 184 227 255 184 227 255 128 158 178 128 158 178 197 235 255 197 235 255 197 235 255 197 235 255 137 164 178 197 235 255

231 224 182 231 224 182 231 224 182 231 224 182 231 224 182 161 156 127 161 156 127 231 224 182 231 224 182 161 156 127 231 224 182 231 224 182 231 224 182 238 235 191 231 224 182 238 235 191 238 235 191 238 235 191 166 164 133 166 164 133 238 235 191 166 164 133 166 164 133 166 164 133 166 164 133 166 164 133 166 164 133 166 164 133 238 235 191 238 235 191 166 164 133 238 235 191 166 164 133 156 159 126 156 159 126 156 159 126 146 150 119 146 150 119 146 150 119 146 150 119 146 150 119 132 142 105 132 142 105 132 142 105 132 142 105 132 142 105 132 142 105 132 142 105 116 137 99 167 197 142 116 137 99 116 137 99 116 137 99 132 142 105 116 137 99 189 204 150 116 137 99 167 197 142 116 137 99 167 197 142 116 137 99 116 137 99 116 137 99 116 137 99 167 197 142 167 197 142 116 137 99 189 204 150 189 204 150 189 204 150 132 142 105 132 142 105 189 204 150 132 142 105 209 215 171 209 215 171 209 215 171 146 150 119 209 215 171 189 204 150 132 142 105 132 142 105 189 204 150 132 142 105 132 142 105 132 142 105 116 137 99 116 137 99 116 137 99 116 137 99 116 137 99 116 137 99 116 137 99 116 137 99 102 133 97 102 133 97 102 133 97 147 191 139 102 133 97 147 191 139 167 197 142 102 133 97 167 197 142 167 197 142 167 197 142 116 137 99 167 197 142 167 197 142 116 137 99 116 137 99 167 197 142 167 197 142 167 197 142 167 197 142 167 197 142 189 204 150 189 204 150 189 204 150 189 204 150 209 215 171 146 150 119 146 150 119 209 215 171 189 204 150 209 215 171 209 215 171 209 215 171 209 215 171 209 215 171 146 150 119 209 215 171 209 215 171 146 150 119 146 150 119 189 204 150 132 142 105 189 204 150 189 204 150 132 142 105 132 142 105 189 204 150 189 204 150 132 142 105 132 142 105 132 142 105 189 204 150 189 204 150 189 204 150 189 204 150 132 142 105 132 142 105 189 204 150 132 142 105 132 142 105 132 142 105 132 142 105 116 137 99 116 137 99 116 137 99 116 137 99 102 133 97 147 191 139 102 133 97 147 191 139 120 145 115 120 145 115 120 145 115 120 145 115 151 169 177 151 169 177 216 242 254 151 169 177 137 164 178 137 164 178 197 235 255 197 235 255 197 235 255 137 164 178 128 158 178 128 158 178 128 158 178 128 158 178 120 152 175 120 152 175 172 218 250 172 218 250 120 152 175 120 152 175 120 152 175 120 152 175 120 152 175 120 152 175 172 218 250 120 152 175 172 218 250 172 218 250 172 218 250 172 218 250 172 218 250 172 218 250 184 227 255 184 227 255 184 227 255 184 227 255 184 227 255 128 158 178 184 227 255 184 227 255 184 227 255 184 227 255 128 158 178 184 227 255 120 152 175 120 152 175 120 152 175 120 152 175 172 218 250 172 218 250 172 218 250 172 218 250 172 218 250 172 218 250 172 218 250 120 152 175 120 152 175 120 152 175 120 152 175 120 152 175 120 152 175 172 218 250 120 152 175 120 152 175 120 152 175 120 152 175 120 152 175 120 152 175 120 152 175 120 152 175 120 152 175 120 152 175 120 152 175 120 152 175 120 152 175 120 152 175 120 152 175 172 218 250 120 152 175 172 218 250 128 158 178 128 158 178 184 227 255 197 235 255 197 235 255 137 164 178 137 164 178 137 164 178 197 235 255

222 214 163 231 224 182 222 214 163 231 224 182 231 224 182 161 156 127 161 156 127 161 156 127 161 156 127 231 224 182 231 224 182 231 224 182 231 224 182 166 164 133 231 224 182 166 164 133 166 164 133 166 164 133 166 164 133 238 235 191 238 235 191 238 235 191 238 235 191 238 235 191 166 164 133 238 235 191 238 235 191 238 235 191 238 235 191 238 235 191 238 235 191 238 235 191 238 235 191 156 159 126 156 159 126 156 159 126 146 150 119 146 150 119 146 150 119 146 150 119 146 150 119 132 142 105 132 142 105 189 204 150 132 142 105 132 142 105 116 137 99 116 137 99 116 137 99 167 197 142 116 137 99 167 197 142 116 137 99 167 197 142 116 137 99 116 137 99 116 137 99 116 137 99 116 137 99 167 197 142 116 137 99 116 137 99 116 137 99 116 137 99 167 197 142 167 197 142 167 197 142 189 204 150 189 204 150 189 204 150 189 204 150 189 204 150 189 204 150 132 142 105 189 204 150 132 142 105 209 215 171 146 150 119 209 215 171 209 215 171 209 215 171 209 215 171 189 204 150 132 142 105 132 142 105 116 137 99 116 137 99 116 137 99 116 137 99 116 137 99 167 197 142 167 197 142 167 197 142 102 133 97 102 133 97 102 133 97 102 133 97 147 191 139 147 191 139 147 191 139 167 197 142 102 133 97 167 197 142 167 197 142 116 137 99 167 197 142 167 197 142 167 197 142 116 137 99 167 197 142 167 197 142 167 197 142 167 197 142 167 197 142 167 197 142 189 204 150 189 204 150 189 204 150 189 204 150 189 204 150 209 215 171 209 215 171 209 215 171 209 215 171 209 215 171 209 215 171 209 215 171 209 215 171 209 215 171 209 215 171 209 215 171 146 150 119 146 150 119 209 215 171 132 142 105 132 142 105 132 142 105 189 204 150 189 204 150 189 204 150 189 204 150 189 204 150 189 204 150 189 204 150 189 204 150 189 204 150 189 204 150 189 204 150 209 215 171 209 215 171 132 142 105 189 204 150 132 142 105 132 142 105 132 142 105 132 142 105 132 142 105 167 197 142 167 197 142 116 137 99 116 137 99 147 191 139 147 191 139 147 191 139 102 133 97 120 145 115 172 208 165 120 145 115 172 208 165 216 242 254 151 169 177 151 169 177 137 164 178 137 164 178 197 235 255 137 164 178 128 158 178 128 158 178 128 158 178 128 158 178 128 158 178 128 158 178 184 227 255 172 218 250 120 152 175 120 152 175 120 152 175 172 218 250 120 152 175 120 152 175 120 152 175 172 218 250 172 218 250 120 152 175 172 218 250 120 152 175 172 218 250 172 218 250 184 227 255 184 227 255 184 227 255 184 227 255 184 227 255 184 227 255 184 227 255 184 227 255 184 227 255 128 158 178 128 158 178 184 227 255 128 158 178 184 227 255 120 152 175 172 218 250 120 152 175 172 218 250 172 218 250 172 218 250 172 218 250 172 218 250 120 152 175 172 218 250 172 218 250 120 152 175 120 152 175 120 152 175 172 218 250 120 152 175 120 152 175 120 152 175 172 218 250 120 152 175 120 152 175 112 147 172 112 147 172 112 147 172 172 218 250 120 152 175 120 152 175 120 152 175 120 152 175 120 152 175 112 147 172 112 147 172 172 218 250 120 152 175 120 152 175 120 152 175 184 227 255 184 227 255 184 227 255 184 227 255 128 158 178 137 164 178 137 164 178 137 164 178 137 164 178

222 214 163 155 149 114 161 156 127 161 156 127 231 224 182 231 224 182 231 224 182 231 224 182 231 224 182 231 224 182 231 224 182 231 224 182 231 224 182 231 224 182 238 235 191 231 224 182 238 235 191 166 164 133 238 235 191 238 235 191 238 235 191 166 164 133 166 164 133 166 164 133 156 159 126 156 159 126 238 235 191 238 235 191 166 164 133 238 235 191 238 235 191 238 235 191 238 235 191 166 164 133 156 159 126 156 159 126 146 150 119 146 150 119 146 150 119 146 150 119 146 150 119 132 142 105 132 142 105 132 142 105 132 142 105 116 137 99 116 137 99 116 137 99 116 137 99 116 137 99 116 137 99 116 137 99 116 137 99 167 197 142 116 137 99 116 137 99 167 197 142 116 137 99 116 137 99 116 137 99 116 137 99 116 137 99 167 197 142 116 137 99 167 197 142 167 197 142 167 197 142 167 197 142 189 204 150 189 204 150 189 204 150 189 204 150 132 142 105 189 204 150 189 204 150 189 204 150 132 142 105 132 142 105 132 142 105 209 215 171 209 215 171 132 142 105 132 142 105 132 142 105 132 142 105 132 142 105 116 137 99 116 137 99 116 137 99 167 197 142 167 197 142 167 197 142 167 197 142 102 133 97 102 133 97 102 133 97 102 133 97 102 133 97 102 133 97 102 133 97 147 191 139 167 197 142 167 197 142 167 197 142 167 197 142 167 197 142 167 197 142 167 197 142 167 197 142 167 197 142 167 197 142 167 197 142 167 197 142 167 197 142 189 204 150 189 204 150 189 204 150 189 204 150 189 204 150 189 204 150 209 215 171 209 215 171 209 215 171 209 215 171 209 215 171 209 215 171 209 215 171 209 215 171 209 215 171 209 215 171 209 215 171 209 215 171 209 215 171 146 150 119 132 142 105 132 142 105 189 204 150 189 204 150 189 204 150 189 204 150 189 204 150 189 204 150 189 204 150 189 204 150 189 204 150 189 204 150 189 204 150 189 204 150 209 215 171 209 215 171 132 142 105 209 215 171 132 142 105 132 142 105 132 142 105 132 142 105 132 142 105 189 204 150 116 137 99 116 137 99 116 137 99 116 137 99 102 133 97 102 133 97 102 133 97 102 133 97 120 145 115 120 145 115 120 145 115 151 169 177 151 169 177 151 169 177 137 164 178 137 164 178 137 164 178 137 164 178 128 158 178 128 158 178 128 158 178 128 158 178 128 158 178 128 158 178 128 158 178 120 152 175 120 152 175 172 218 250 172 218 250 120 152 175 120 152 175 120 152 175 172 218 250 172 218 250 120 152 175 120 152 175 120 152 175 172 218 250 172 218 250 184 227 255 172 218 250 184 227 255 184 227 255 184 227 255 184 227 255 128 158 178 128 158 178 128 158 178 184 227 255 128 158 178 184 227 255 184 227 255 184 227 255 184 227 255 120 152 175 120 152 175 120 152 175 172 218 250 172 218 250 120 152 175 172 218 250 172 218 250 120 152 175 172 218 250 172 218 250 120 152 175 172 218 250 120 152 175 120 152 175 120 152 175 120 152 175 120 152 175 172 218 250 112 147 172 112 147 172 112 147 172 112 147 172 112 147 172 160 210 247 112 147 172 112 147 172 112 147 172 112 147 172 112 147 172 112 147 172 112 147 172 160 210 247 120 152 175 120 152 175 120 152 175 172 218 250 120 152 175 128 158 178 128 158 178 128 158 178 128 158 178 137 164 178 137 164 178 137 164 178

222 214 163 222 214 163 222 214 163 222 214 163 231 224 182 231 224 182 231 224 182 231 224 182 222 214 163 231 224 182 231 224 182 231 224 182 231 224 182 231 224 182 161 156 127 238 235 191 231 224 182 166 164 133 166 164 133 166 164 133 166 164 133 166 164 133 166 164 133 156 159 126 156 159 126 224 228 180 238 235 191 166 164 133 238 235 191 238 235 191 238 235 191 238 235 191 231 224 182 166 164 133 156 159 126 156 159 126 156 159 126 146 150 119 146 150 119 146 150 119 146 150 119 132 142 105 132 142 105 132 142 105 132 142 105 116 137 99 116 137 99 116 137 99 116 137 99 116 137 99 167 197 142 116 137 99 167 197 142 167 197 142 167 197 142 167 197 142 116 137 99 116 137 99 167 197 142 116 137 99 116 137 99 116 137 99 167 197 142 116 137 99 167 197 142 167 197 142 167 197 142 167 197 142 189 204 150 189 204 150 189 204 150 132 142 105 189 204 150 189 204 150 189 204 150 132 142 105 132 142 105 132 142 105 132 142 105 209 215 171 209 215 171 146 150 119 132 142 105 132 142 105 132 142 105 189 204 150 189 204 150 116 137 99 116 137 99 116 137 99 116 137 99 116 137 99 116 137 99 102 133 97 102 133 97 102 133 97 102 133 97 147 191 139 147 191 139 147 191 139 147 191 139 167 197 142 167 197 142 167 197 142 167 197 142 167 197 142 167 197 142 167 197 142 167 197 142 167 197 142 167 197 142 167 197 142 167 197 142 189 204 150 189 204 150 189 204 150 189 204 150 189 204 150 189 204 150 189 204 150 209 215 171 209 215 171 209 215 171 209 215 171 209 215 171 209 215 171 209 215 171 209 215 171 209 215 171 209 215 171 209 215 171 209 215 171 146 150 119 146 150 119 146 150 119 189 204 150 189 204 150 189 204 150 209 215 171 132 142 105 189 204 150 189 204 150 209 215 171 209 215 171 189 204 150 189 204 150 189 204 150 209 215 171 209 215 171 146 150 119 209 215 171 209 215 171 209 215 171 132 142 105 132 142 105 189 204 150 189 204 150 189 204 150 116 137 99 116 137 99 167 197 142 116 137 99 102 133 97 102 133 97 147 191 139 147 191 139 120 145 115 120 145 115 120 145 115 151 169 177 151 169 177 151 169 177 137 164 178 137 164 178 137 164 178 128 158 178 128 158 178 128 158 178 128 158 178 128 158 178 128 158 178 128 158 178 184 227 255 120 152 175 172 218 250 172 218 250 172 218 250 120 152 175 120 152 175 120 152 175 172 218 250 120 152 175 120 152 175 120 152 175 120 152 175 172 218 250 184 227 255 184 227 255 120 152 175 184 227 255 184 227 255 184 227 255 184 227 255 184 227 255 184 227 255 184 227 255 184 227 255 184 227 255 184 227 255 184 227 255 184 227 255 128 158 178 120 152 175 120 152 175 172 218 250 172 218 250 120 152 175 120 152 175 172 218 250 120 152 175 120 152 175 120 152 175 120 152 175 120 152 175 172 218 250 120 152 175 120 152 175 120 152 175 172 218 250 172 218 250 112 147 172 112 147 172 112 147 172 112 147 172 112 147 172 112 147 172 160 210 247 112 147 172 112 147 172 112 147 172 112 147 172 160 210 247 160 210 247 160 210 247 112 147 172 172 218 250 120 152 175 172 218 250 120 152 175 172 218 250 120 152 175 184 227 255 184 227 255 184 227 255 128 158 178 128 158 178 197 235 255

222 214 163 155 149 114 161 156 127 161 156 127 222 214 163 231 224 182 231 224 182 161 156 127 161 156 127 161 156 127 161 156 127 161 156 127 161 156 127 161 156 127 161 156 127 166 164 133 238 235 191 166 164 133 166 164 133 166 164 133 166 164 133 238 235 191 166 164 133 156 159 126 224 228 180 224 228 180 238 235 191 238 235 191 238 235 191 166 164 133 238 235 191 166 164 133 166 164 133 166 164 133 156 159 126 156 159 126 156 159 126 146 150 119 146 150 119 146 150 119 146 150 119 132 142 105 189 204 150 189 204 150 132 142 105 116 137 99 116 137 99 116 137 99 116 137 99 167 197 142 167 197 142 167 197 142 167 197 142 116 137 99 116 137 99 116 137 99 116 137 99 116 137 99 116 137 99 116 137 99 116 137 99 116 137 99 116 137 99 116 137 99 167 197 142 167 197 142 116 137 99 167 197 142 167 197 142 132 142 105 189 204 150 132 142 105 189 204 150 189 204 150 132 142 105 132 142 105 132 142 105 189 204 150 189 204 150 189 204 150 132 142 105 132 142 105 132 142 105 132 142 105 132 142 105 132 142 105 132 142 105 116 137 99 116 137 99 167 197 142 167 197 142 116 137 99 116 137 99 102 133 97 102 133 97 147 191 139 147 191 139 147 191 139 147 191 139 147 191 139 167 197 142 167 197 142 167 197 142 167 197 142 167 197 142 167 197 142 167 197 142 167 197 142 167 197 142 167 197 142 167 197 142 189 204 150 189 204 150 189 204 150 189 204 150 189 204 150 189 204 150 189 204 150 209 215 171 209 215 171 209 215 171 209 215 171 209 215 171 224 228 180 224 228 180 209 215 171 209 215 171 224 228 180 224 228 180 224 228 180 209 215 171 209 215 171 146 150 119 209 215 171 209 215 171 209 215 171 189 204 150 189 204 150 189 204 150 132 142 105 189 204 150 132 142 105 209 215 171 209 215 171 209 215 171 189 204 150 189 204 150 209 215 171 132 142 105 132 142 105 132 142 105 146 150 119 132 142 105 132 142 105 132 142 105 132 142 105 116 137 99 116 137 99 116 137 99 116 137 99 116 137 99 116 137 99 102 133 97 102 133 97 102 133 97 120 145 115 120 145 115 120 145 115 151 169 177 151 169 177 151 169 177 151 169 177 137 164 178 137 164 178 137 164 178 137 164 178 128 158 178 128 158 178 128 158 178 128 158 178 128 158 178 128 158 178 184 227 255 184 227 255 172 218 250 184 227 255 120 152 175 120 152 175 172 218 250 172 218 250 172 218 250 120 152 175 172 218 250 172 218 250 172 218 250 172 218 250 172 218 250 120 152 175 184 227 255 184 227 255 184 227 255 184 227 255 184 227 255 184 227 255 128 158 178 184 227 255 184 227 255 128 158 178 184 227 255 128 158 178 128 158 178 128 158 178 120 152 175 120 152 175 120 152 175 120 152 175 120 152 175 120 152 175 120 152 175 120 152 175 120 152 175 120 152 175 172 218 250 172 218 250 172 218 250 120 152 175 120 152 175 120 152 175 112 147 172 112 147 172 112 147 172 112 147 172 112 147 172 112 147 172 112 147 172 160 210 247 112 147 172 112 147 172 112 147 172 112 147 172 112 147 172 160 210 247 160 210 247 160 210 247 160 210 247 160 210 247 112 147 172 172 218 250 172 218 250 172 218 250 172 218 250 184 227 255 184 227 255 184 227 255 128 158 178 184 227 255 184 227 255

231 224 182 161 156 127 161 156 127 231 224 182 222 214 163 161 156 127 222 214 163 161 156 127 161 156 127 231 224 182 161 156 127 231 224 182 231 224 182 161 156 127 161 156 127 161 156 127 166 164 133 166 164 133 166 164 133 238 235 191 238 235 191 238 235 191 166 164 133 156 159 126 156 159 126 224 228 180 238 235 191 166 164 133 238 235 191 238 235 191 238 235 191 166 164 133 166 164 133 156 159 126 156 159 126 156 159 126 156 159 126 146 150 119 146 150 119 146 150 119 146 150 119 132 142 105 132 142 105 132 142 105 132 142 105 189 204 150 189 204 150 116 137 99 167 197 142 167 197 142 167 197 142 116 137 99 116 137 99 116 137 99 116 137 99 167 197 142 167 197 142 116 137 99 116 137 99 116 137 99 116 137 99 116 137 99 167 197 142 167 197 142 167 197 142 167 197 142 167 197 142 167 197 142 116 137 99 189 204 150 189 204 150 132 142 105 189 204 150 189 204 150 189 204 150 189 204 150 189 204 150 189 204 150 189 204 150 132 142 105 132 142 105 132 142 105 132 142 105 132 142 105 189 204 150 189 204 150 189 204 150 116 137 99 116 137 99 167 197 142 167 197 142 116 137 99 116 137 99 102 133 97 167 197 142 147 191 139 167 197 142 147 191 139 167 197 142 167 197 142 167 197 142 167 197 142 167 197 142 167 197 142 189 204 150 189 204 150 189 204 150 189 204 150 189 204 150 189 204 150 189 204 150 189 204 150 189 204 150 189 204 150 189 204 150 189 204 150 189 204 150 209 215 171 209 215 171 209 215 171 209 215 171 224 228 180 224 228 180 224 228 180 224 228 180 224 228 180 224 228 180 224 228 180 224 228 180 224 228 180 224 228 180 146 150 119 209 215 171 209 215 171 209 215 171 209 215 171 209 215 171 189 204 150 209 215 171 189 204 150 189 204 150 209 215 171 209 215 171 209 215 171 209 215 171 132 142 105 209 215 171 189 204 150 132 142 105 132 142 105 189 204 150 132 142 105 132 142 105 132 142 105 132 142 105 132 142 105 116 137 99 116 137 99 116 137 99 116 137 99 102 133 97 102 133 97 102 133 97 102 133 97 120 145 115 120 145 115 120 145 115 120 145 115 120 145 115 151 169 177 151 169 177 151 169 177 137 164 178 137 164 178 137 164 178 128 158 178 128 158 178 128 158 178 128 158 178 128 158 178 128 158 178 128 158 178 184 227 255 184 227 255 128 158 178 184 227 255 120 152 175 172 218 250 172 218 250 172 218 250 172 218 250 120 152 175 172 218 250 172 218 250 172 218 250 172 218 250 184 227 255 184 227 255 184 227 255 184 227 255 184 227 255 184 227 255 184 227 255 184 227 255 184 227 255 184 227 255 128 158 178 184 227 255 128 158 178 128 158 178 128 158 178 128 158 178 120 152 175 120 152 175 120 152 175 120 152 175 120 152 175 120 152 175 120 152 175 120 152 175 120 152 175 120 152 175 172 218 250 172 218 250 172 218 250 120 152 175 120 152 175 112 147 172 112 147 172 112 147 172 112 147 172 112 147 172 112 147 172 160 210 247 112 147 172 112 147 172 112 147 172 112 147 172 160 210 247 112 147 172 160 210 247 160 210 247 160 210 247 160 210 247 160 210 247 160 210 247 112 147 172 160 210 247 172 218 250 172 218 250 172 218 250 172 218 250 184 227 255 184 227 255 184 227 255 128 158 178 128 158 178

231 224 182 161 156 127 161 156 127 161 156 127 161 156 127 161 156 127 231 224 182 161 156 127 161 156 127 231 224 182 231 224 182 231 224 182 161 156 127 161 156 127 161 156 127 231 224 182 166 164 133 238 235 191 238 235 191 238 235 191 166 164 133 166 164 133 166 164 133 156 159 126 156 159 126 224 228 180 238 235 191 238 235 191 238 235 191 238 235 191 238 235 191 166 164 133 156 159 126 156 159 126 156 159 126 156 159 126 156 159 126 146 150 119 146 150 119 146 150 119 146 150 119 146 150 119 132 142 105 132 142 105 189 204 150 189 204 150 116 137 99 116 137 99 167 197 142 116 137 99 116 137 99 116 137 99 116 137 99 116 137 99 116 137 99 116 137 99 116 137 99 102 133 97 102 133 97 102 133 97 116 137 99 116 137 99 167 197 142 167 197 142 167 197 142 167 197 142 167 197 142 167 197 142 167 197 142 167 197 142 189 204 150 189 204 150 189 204 150 132 142 105 132 142 105 132 142 105 132 142 105 132 142 105 132 142 105 132 142 105 132 142 105 132 142 105 132 142 105 132 142 105 132 142 105 116 137 99 116 137 99 116 137 99 116 137 99 116 137 99 116 137 99 116 137 99 167 197 142 167 197 142 167 197 142 167 197 142 167 197 142 167 197 142 167 197 142 167 197 142 167 197 142 167 197 142 189 204 150 189 204 150 189 204 150 189 204 150 189 204 150 189 204 150 189 204 150 189 204 150 189 204 150 189 204 150 189 204 150 189 204 150 189 204 150 189 204 150 209 215 171 209 215 171 209 215 171 209 215 171 224 228 180 224 228 180 224 228 180 224 228 180 224 228 180 156 159 126 224 228 180 224 228 180 224 228 180 156 159 126 224 228 180 146 150 119 146 150 119 146 150 119 209 215 171 146 150 119 146 150 119 146 150 119 209 215 171 132 142 105 209 215 171 209 215 171 209 215 171 209 215 171 146 150 119 132 142 105 132 142 105 132 142 105 132 142 105 189 204 150 132 142 105 132 142 105 132 142 105 132 142 105 132 142 105 116 137 99 116 137 99 116 137 99 116 137 99 102 133 97 102 133 97 102 133 97 102 133 97 102 133 97 120 145 115 120 145 115 120 145 115 120 145 115 151 169 177 151 169 177 151 169 177 137 164 178 137 164 178 137 164 178 128 158 178 128 158 178 128 158 178 128 158 178 128 158 178 128 158 178 128 158 178 128 158 178 184 227 255 128 158 178 120 152 175 120 152 175 120 152 175 120 152 175 120 152 175 120 152 175 172 218 250 120 152 175 172 218 250 172 218 250 172 218 250 172 218 250 172 218 250 184 227 255 120 152 175 184 227 255 184 227 255 184 227 255 128 158 178 184 227 255 184 227 255 128 158 178 184 227 255 184 227 255 128 158 178 128 158 178 128 158 178 128 158 178 120 152 175 120 152 175 120 152 175 120 152 175 120 152 175 120 152 175 120 152 175 120 152 175 120 152 175 172 218 250 120 152 175 120 152 175 120 152 175 120 152 175 112 147 172 112 147 172 112 147 172 112 147 172 112 147 172 112 147 172 112 147 172 112 147 172 112 147 172 112 147 172 105 140 168 112 147 172 112 147 172 112 147 172 160 210 247 160 210 247 160 210 247 160 210 247 160 210 247 160 210 247 160 210 247 160 210 247 172 218 250 172 218 250 172 218 250 172 218 250 184 227 255 128 158 178 128 158 178 128 158 178 128 158 178

231 224 182 161 156 127 231 224 182 161 156 127 231 224 182 231 224 182 161 156 127 161 156 127 161 156 127 161 156 127 161 156 127 161 156 127 161 156 127 161 156 127 231 224 182 231 224 182 161 156 127 166 164 133 166 164 133 166 164 133 166 164 133 166 164 133 166 164 133 156 159 126 224 228 180 224 228 180 224 228 180 166 164 133 238 235 191 166 164 133 166 164 133 156 159 126 156 159 126 156 159 126 156 159 126 146 150 119 156 159 126 146 150 119 146 150 119 146 150 119 146 150 119 132 142 105 132 142 105 132 142 105 132 142 105 116 137 99 116 137 99 116 137 99 116 137 99 116 137 99 116 137 99 102 133 97 102 133 97 102 133 97 102 133 97 102 133 97 102 133 97 102 133 97 102 133 97 102 133 97 147 191 139 167 197 142 167 197 142 167 197 142 167 197 142 167 197 142 167 197 142 167 197 142 189 204 150 167 197 142 189 204 150 189 204 150 189 204 150 132 142 105 132 142 105 132 142 105 189 204 150 132 142 105 132 142 105 132 142 105 132 142 105 132 142 105 132 142 105 132 142 105 189 204 150 116 137 99 116 137 99 116 137 99 116 137 99 116 137 99 167 197 142 167 197 142 167 197 142 167 197 142 167 197 142 167 197 142 167 197 142 167 197 142 167 197 142 167 197 142 189 204 150 189 204 150 189 204 150 189 204 150 189 204 150 189 204 150 189 204 150 189 204 150 189 204 150 189 204 150 189 204 150 189 204 150 189 204 150 189 204 150 209 215 171 209 215 171 209 215 171 209 215 171 224 228 180 224 228 180 224 228 180 224 228 180 224 228 180 224 228 180 224 228 180 224 228 180 224 228 180 224 228 180 224 228 180 224 228 180 224 228 180 224 228 180 224 228 180 209 215 171 146 150 119 209 215 171 209 215 171 209 215 171 209 215 171 209 215 171 209 215 171 209 215 171 209 215 171 146 150 119 146 150 119 132 142 105 132 142 105 132 142 105 132 142 105 132 142 105 132 142 105 132 142 105 132 142 105 132 142 105 116 137 99 116 137 99 116 137 99 116 137 99 116 137 99 102 133 97 102 133 97 102 133 97 102 133 97 102 133 97 120 145 115 120 145 115 120 145 115 151 169 177 151 169 177 151 169 177 137 164 178 137 164 178 137 164 178 137 164 178 137 164 178 197 235 255 197 235 255 184 227 255 128 158 178 128 158 178 184 227 255 184 227 255 184 227 255 184 227 255 184 227 255 120 152 175 120 152 175 120 152 175 120 152 175 120 152 175 120 152 175 172 218 250 172 218 250 172 218 250 172 218 250 172 218 250 120 152 175 184 227 255 184 227 255 184 227 255 184 227 255 184 227 255 184 227 255 184 227 255 184 227 255 184 227 255 184 227 255 128 158 178 128 158 178 128 158 178 128 158 178 128 158 178 184 227 255 120 152 175 120 152 175 172 218 250 120 152 175 172 218 250 120 152 175 112 147 172 112 147 172 112 147 172 120 152 175 112 147 172 120 152 175 112 147 172 112 147 172 112 147 172 112 147 172 112 147 172 112 147 172 112 147 172 112 147 172 160 210 247 105 140 168 105 140 168 105 140 168 160 210 247 160 210 247 160 210 247 160 210 247 160 210 247 160 210 247 160 210 247 160 210 247 112 147 172 112 147 172 172 218 250 172 218 250 172 218 250 120 152 175 120 152 175 172 218 250 120 152 175 184 227 255 128 158 178 184 227 255

231 224 182 161 156 127 161 156 127 161 156 127 161 156 127 161 156 127 161 156 127 161 156 127 231 224 182 161 156 127 161 156 127 161 156 127 161 156 127 161 156 127 161 156 127 161 156 127 166 164 133 166 164 133 166 164 133 166 164 133 166 164 133 166 164 133 166 164 133 156 159 126 224 228 180 224 228 180 224 228 180 238 235 191 238 235 191 156 159 126 156 159 126 156 159 126 156 159 126 156 159 126 156 159 126 146 150 119 146 150 119 146 150 119 146 150 119 146 150 119 146 150 119 132 142 105 132 142 105 132 142 105 132 142 105 132 142 105 116 137 99 116 137 99 116 137 99 102 133 97 102 133 97 102 133 97 102 133 97 102 133 97 102 133 97 102 133 97 102 133 97 147 191 139 102 133 97 102 133 97 147 191 139 147 191 139 167 197 142 167 197 142 167 197 142 116 137 99 167 197 142 189 204 150 189 204 150 189 204 150 189 204 150 189 204 150 189 204 150 132 142 105 132 142 105 189 204 150 189 204 150 132 142 105 132 142 105 132 142 105 132 142 105 189 204 150 132 142 105 189 204 150 132 142 105 116 137 99 116 137 99 116 137 99 116 137 99 167 197 142 167 197 142 167 197 142 167 197 142 167 197 142 167 197 142 167 197 142 167 197 142 167 197 142 167 197 142 189 204 150 189 204 150 189 204 150 189 204 150 189 204 150 189 204 150 189 204 150 189 204 150 189 204 150 189 204 150 132 142 105 189 204 150 189 204 150 189 204 150 189 204 150 209 215 171 209 215 171 209 215 171 209 215 171 224 228 180 224 228 180 224 228 180 224 228 180 224 228 180 224 228 180 224 228 180 224 228 180 224 228 180 224 228 180 224 228 180 224 228 180 156 159 126 156 159 126 224 228 180 146 150 119 146 150 119 209 215 171 146 150 119 209 215 171 209 215 171 209 215 171 209 215 171 209 215 171 146 150 119 146 150 119 146 150 119 132 142 105 132 142 105 132 142 105 132 142 105 132 142 105 132 142 105 132 142 105 116 137 99 116 137 99 116 137 99 116 137 99 116 137 99 116 137 99 102 133 97 102 133 97 102 133 97 102 133 97 120 145 115 120 145 115 120 145 115 120 145 115 120 145 115 151 169 177 151 169 177 137 164 178 137 164 178 137 164 178 137 164 178 137 164 178 128 158 178 128 158 178 128 158 178 128 158 178 128 158 178 184 227 255 128 158 178 128 158 178 184 227 255 184 227 255 128 158 178 120 152 175 120 152 175 172 218 250 172 218 250 172 218 250 120 152 175 172 218 250 172 218 250 120 152 175 120 152 175 172 218 250 120 152 175 172 218 250 120 152 175 184 227 255 184 227 255 128 158 178 128 158 178 128 158 178 128 158 178 128 158 178 128 158 178 128 158 178 184 227 255 184 227 255 184 227 255 184 227 255 120 152 175 120 152 175 120 152 175 172 218 250 120 152 175 172 218 250 120 152 175 112 147 172 112 147 172 112 147 172 160 210 247 112 147 172 112 147 172 112 147 172 160 210 247 112 147 172 112 147 172 112 147 172 160 210 247 112 147 172 112 147 172 105 140 168 105 140 168 105 140 168 105 140 168 150 201 240 105 140 168 160 210 247 112 147 172 160 210 247 160 210 247 112 147 172 112 147 172 112 147 172 160 210 247 160 210 247 112 147 172 172 218 250 120 152 175 172 218 250 172 218 250 120 152 175 120 152 175 120 152 175 120 152 175

231 224 182 161 156 127 231 224 182 161 156 127 161 156 127 161 156 127 161 156 127 161 156 127 231 224 182 161 156 127 231 224 182 161 156 127 161 156 127 161 156 127 161 156 127 166 164 133 166 164 133 166 164 133 166 164 133 166 164 133 166 164 133 156 159 126 156 159 126 156 159 126 238 235 191 238 235 191 238 235 191 156 159 126 156 159 126 156 159 126 156 159 126 156 159 126 156 159 126 146 150 119 146 150 119 146 150 119 146 150 119 146 150 119 146 150 119 132 142 105 132 142 105 132 142 105 132 142 105 132 142 105 132 142 105 116 137 99 116 137 99 116 137 99 116 137 99 102 133 97 102 133 97 102 133 97 147 191 139 147 191 139 147 191 139 102 133 97 102 133 97 147 191 139 102 133 97 147 191 139 147 191 139 147 191 139 167 197 142 167 197 142 167 197 142 167 197 142 167 197 142 167 197 142 189 204 150 189 204 150 189 204 150 189 204 150 189 204 150 189 204 150 189 204 150 189 204 150 132 142 105 132 142 105 132 142 105 189 204 150 189 204 150 189 204 150 132 142 105 189 204 150 116 137 99 116 137 99 116 137 99 116 137 99 167 197 142 167 197 142 167 197 142 167 197 142 167 197 142 167 197 142 189 204 150 167 197 142 189 204 150 189 204 150 189 204 150 189 204 150 189 204 150 189 204 150 189 204 150 189 204 150 209 215 171 189 204 150 209 215 171 189 204 150 189 204 150 209 215 171 209 215 171 209 215 171 209 215 171 209 215 171 209 215 171 209 215 171 209 215 171 224 228 180 224 228 180 224 228 180 224 228 180 224 228 180 224 228 180 224 228 180 224 228 180 224 228 180 238 235 191 224 228 180 238 235 191 224 228 180 224 228 180 224 228 180 224 228 180 156 159 126 146 150 119 209 215 171 146 150 119 209 215 171 209 215 171 209 215 171 209 215 171 146 150 119 146 150 119 132 142 105 132 142 105 132 142 105 132 142 105 132 142 105 132 142 105 132 142 105 116 137 99 116 137 99 116 137 99 116 137 99 116 137 99 116 137 99 116 137 99 102 133 97 102 133 97 102 133 97 120 145 115 120 145 115 120 145 115 120 145 115 120 145 115 120 145 115 151 169 177 151 169 177 151 169 177 137 164 178 137 164 178 137 164 178 137 164 178 137 164 178 137 164 178 128 158 178 128 158 178 128 158 178 128 158 178 128 158 178 128 158 178 184 227 255 184 227 255 128 158 178 184 227 255 120 152 175 120 152 175 120 152 175 120 152 175 120 152 175 120 152 175 172 218 250 172 218 250 120 152 175 120 152 175 172 218 250 172 218 250 172 218 250 184 227 255 184 227 255 184 227 255 184 227 255 184 227 255 184 227 255 128 158 178 128 158 178 184 227 255 128 158 178 128 158 178 128 158 178 184 227 255 184 227 255 184 227 255 172 218 250 120 152 175 120 152 175 172 218 250 172 218 250 120 152 175 112 147 172 160 210 247 112 147 172 160 210 247 112 147 172 160 210 247 160 210 247 160 210 247 112 147 172 112 147 172 160 210 247 160 210 247 112 147 172 112 147 172 160 210 247 160 210 247 150 201 240 105 140 168 150 201 240 105 140 168 150 201 240 160 210 247 160 210 247 160 210 247 160 210 247 112 147 172 160 210 247 172 218 250 172 218 250 172 218 250 172 218 250 172 218 250 172 218 250 120 152 175 120 152 175 120 152 175 120 152 175 120 152 175

231 224 182 231 224 182 231 224 182 161 156 127 231 224 182 231 224 182 161 156 127 231 224 182 231 224 182 231 224 182 231 224 182 161 156 127 161 156 127 161 156 127 166 164 133 166 164 133 166 164 133 166 164 133 166 164 133 166 164 133 156 159 126 156 159 126 224 228 180 224 228 180 238 235 191 238 235 191 156 159 126 156 159 126 156 159 126 156 159 126 224 228 180 156 159 126 146 150 119 146 150 119 146 150 119 146 150 119 146 150 119 146 150 119 132 142 105 132 142 105 132 142 105 132 142 105 132 142 105 132 142 105 116 137 99 116 137 99 116 137 99 102 133 97 102 133 97 102 133 97 147 191 139 147 191 139 147 191 139 102 133 97 147 191 139 102 133 97 102 133 97 147 191 139 102 133 97 147 191 139 147 191 139 102 133 97 167 197 142 167 197 142 167 197 142 167 197 142 167 197 142 116 137 99 167 197 142 132 142 105 132 142 105 132 142 105 189 204 150 132 142 105 132 142 105 132 142 105 116 137 99 132 142 105 189 204 150 189 204 150 132 142 105 189 204 150 132 142 105 189 204 150 132 142 105 167 197 142 167 197 142 167 197 142 167 197 142 167 197 142 167 197 142 167 197 142 167 197 142 189 204 150 189 204 150 189 204 150 189 204 150 189 204 150 189 204 150 189 204 150 189 204 150 189 204 150 209 215 171 209 215 171 209 215 171 209 215 171 209 215 171 209 215 171 209 215 171 209 215 171 209 215 171 209 215 171 209 215 171 209 215 171 209 215 171 209 215 171 209 215 171 224 228 180 224 228 180 224 228 180 224 228 180 224 228 180 224 228 180 224 228 180 224 228 180 224 228 180 224 228 180 238 235 191 238 235 191 156 159 126 224 228 180 224 228 180 156 159 126 156 159 126 224 228 180 209 215 171 146 150 119 209 215 171 146 150 119 146 150 119 146 150 119 132 142 105 146 150 119 132 142 105 132 142 105 132 142 105 132 142 105 132 142 105 132 142 105 116 137 99 116 137 99 116 137 99 116 137 99 116 137 99 116 137 99 116 137 99 102 133 97 102 133 97 102 133 97 120 145 115 120 145 115 120 145 115 120 145 115 120 145 115 120 145 115 151 169 177 151 169 177 151 169 177 137 164 178 137 164 178 197 235 255 137 164 178 137 164 178 137 164 178 137 164 178 128 158 178 128 158 178 128 158 178 184 227 255 128 158 178 184 227 255 184 227 255 184 227 255 184 227 255 184 227 255 120 152 175 120 152 175 120 152 175 172 218 250 172 218 250 172 218 250 172 218 250 172 218 250 120 152 175 120 152 175 172 218 250 120 152 175 120 152 175 184 227 255 184 227 255 184 227 255 184 227 255 184 227 255 184 227 255 184 227 255 128 158 178 184 227 255 128 158 178 128 158 178 128 158 178 128 158 178 184 227 255 128 158 178 128 158 178 120 152 175 120 152 175 172 218 250 120 152 175 112 147 172 112 147 172 112 147 172 112 147 172 160 210 247 112 147 172 160 210 247 112 147 172 112 147 172 112 147 172 160 210 247 160 210 247 112 147 172 160 210 247 160 210 247 112 147 172 105 140 168 105 140 168 105 140 168 150 201 240 150 201 240 150 201 240 150 201 240 112 147 172 160 210 247 112 147 172 112 147 172 160 210 247 160 210 247 112 147 172 172 218 250 120 152 175 172 218 250 120 152 175 172 218 250 172 218 250 172 218 250 120 152 175 120 152 175

231 224 182 161 156 127 231 224 182 231 224 182 161 156 127 161 156 127 161 156 127 231 224 182 231 224 182 161 156 127 161 156 127 161 156 127 161 156 127 161 156 127 166 164 133 166 164 133 166 164 133 166 164 133 166 164 133 156 159 126 156 159 126 156 159 126 156 159 126 238 235 191 238 235 191 156 159 126 166 164 133 156 159 126 238 235 191 156 159 126 156 159 126 156 159 126 146 150 119 146 150 119 146 150 119 146 150 119 146 150 119 146 150 119 132 142 105 132 142 105 132 142 105 132 142 105 132 142 105 116 137 99 116 137 99 116 137 99 102 133 97 102 133 97 102 133 97 102 133 97 102 133 97 102 133 97 147 191 139 147 191 139 147 191 139 102 133 97 147 191 139 147 191 139 147 191 139 147 191 139 147 191 139 102 133 97 102 133 97 167 197 142 167 197 142 116 137 99 167 197 142 116 137 99 116 137 99 116 137 99 116 137 99 189 204 150 189 204 150 189 204 150 116 137 99 116 137 99 116 137 99 167 197 142 189 204 150 189 204 150 189 204 150 189 204 150 189 204 150 189 204 150 132 142 105 132 142 105 189 204 150 167 197 142 167 197 142 189 204 150 189 204 150 189 204 150 189 204 150 189 204 150 189 204 150 189 204 150 189 204 150 189 204 150 189 204 150 189 204 150 189 204 150 209 215 171 209 215 171 209 215 171 209 215 171 209 215 171 209 215 171 209 215 171 209 215 171 209 215 171 209 215 171 209 215 171 209 215 171 209 215 171 209 215 171 209 215 171 209 215 171 224 228 180 224 228 180 224 228 180 224 228 180 224 228 180 224 228 180 224 228 180 238 235 191 224 228 180 224 228 180 224 228 180 238 235 191 156 159 126 156 159 126 156 159 126 156 159 126 156 159 126 224 228 180 224 228 180 224 228 180 146 150 119 146 150 119 209 215 171 146 150 119 132 142 105 132 142 105 132 142 105 132 142 105 132 142 105 132 142 105 132 142 105 132 142 105 116 137 99 167 197 142 116 137 99 116 137 99 116 137 99 116 137 99 102 133 97 102 133 97 102 133 97 102 133 97 120 145 115 120 145 115 120 145 115 120 145 115 120 145 115 120 145 115 151 169 177 151 169 177 151 169 177 151 169 177 137 164 178 137 164 178 137 164 178 137 164 178 197 235 255 137 164 178 128 158 178 128 158 178 128 158 178 184 227 255 128 158 178 184 227 255 128 158 178 128 158 178 128 158 178 120 152 175 120 152 175 120 152 175 172 218 250 172 218 250 172 218 250 172 218 250 172 218 250 172 218 250 120 152 175 120 152 175 172 218 250 172 218 250 172 218 250 172 218 250 184 227 255 184 227 255 184 227 255 184 227 255 184 227 255 184 227 255 128 158 178 128 158 178 128 158 178 184 227 255 128 158 178 128 158 178 184 227 255 184 227 255 128 158 178 120 152 175 172 218 250 172 218 250 120 152 175 112 147 172 112 147 172 160 210 247 160 210 247 112 147 172 112 147 172 112 147 172 112 147 172 160 210 247 112 147 172 160 210 247 160 210 247 160 210 247 112 147 172 112 147 172 112 147 172 105 140 168 105 140 168 105 140 168 105 140 168 105 140 168 150 201 240 150 201 240 105 140 168 105 140 168 160 210 247 160 210 247 160 210 247 160 210 247 112 147 172 172 218 250 112 147 172 112 147 172 112 147 172 120 152 175 112 147 172 112 147 172 112 147 172 120 152 175

231 224 182 161 156 127 231 224 182 231 224 182 231 224 182 231 224 182 231 224 182 231 224 182 161 156 127 161 156 127 161 156 127 231 224 182 231 224 182 231 224 182 161 156 127 166 164 133 238 235 191 238 235 191 238 235 191 238 235 191 224 228 180 224 228 180 224 228 180 224 228 180 156 159 126 156 159 126 224 228 180 156 159 126 224 228 180 156 159 126 156 159 126 156 159 126 146 150 119 146 150 119 146 150 119 146 150 119 146 150 119 132 142 105 132 142 105 132 142 105 132 142 105 132 142 105 116 137 99 116 137 99 116 137 99 116 137 99 102 133 97 147 191 139 147 191 139 147 191 139 102 133 97 102 133 97 147 191 139 147 191 139 102 133 97 102 133 97 147 191 139 102 133 97 102 133 97 102 133 97 147 191 139 102 133 97 102 133 97 147 191 139 102 133 97 116 137 99 167 197 142 116 137 99 116 137 99 116 137 99 167 197 142 167 197 142 132 142 105 132 142 105 132 142 105 189 204 150 167 197 142 189 204 150 189 204 150 189 204 150 132 142 105 132 142 105 132 142 105 132 142 105 132 142 105 189 204 150 189 204 150 132 142 105 189 204 150 189 204 150 189 204 150 189 204 150 189 204 150 189 204 150 189 204 150 132 142 105 189 204 150 189 204 150 189 204 150 189 204 150 189 204 150 209 215 171 209 215 171 209 215 171 209 215 171 209 215 171 209 215 171 209 215 171 209 215 171 209 215 171 209 215 171 224 228 180 224 228 180 224 228 180 209 215 171 224 228 180 224 228 180 224 228 180 224 228 180 224 228 180 224 228 180 156 159 126 224 228 180 224 228 180 224 228 180 156 159 126 156 159 126 224 228 180 224 228 180 156 159 126 156 159 126 224 228 180 224 228 180 156 159 126 224 228 180 224 228 180 224 228 180 146 150 119 146 150 119 146 150 119 146 150 119 209 215 171 189 204 150 132 142 105 132 142 105 189 204 150 132 142 105 132 142 105 132 142 105 116 137 99 116 137 99 116 137 99 116 137 99 116 137 99 102 133 97 102 133 97 102 133 97 102 133 97 120 145 115 120 145 115 120 145 115 120 145 115 151 169 177 151 169 177 151 169 177 151 169 177 151 169 177 151 169 177 216 242 254 137 164 178 137 164 178 137 164 178 137 164 178 137 164 178 137 164 178 128 158 178 128 158 178 184 227 255 128 158 178 184 227 255 184 227 255 184 227 255 184 227 255 128 158 178 120 152 175 172 218 250 120 152 175 172 218 250 172 218 250 172 218 250 172 218 250 120 152 175 172 218 250 120 152 175 172 218 250 172 218 250 120 152 175 172 218 250 172 218 250 172 218 250 184 227 255 128 158 178 128 158 178 128 158 178 128 158 178 128 158 178 128 158 178 128 158 178 128 158 178 128 158 178 120 152 175 120 152 175 128 158 178 120 152 175 120 152 175 172 218 250 120 152 175 120 152 175 120 152 175 112 147 172 112 147 172 112 147 172 112 147 172 160 210 247 112 147 172 160 210 247 112 147 172 112 147 172 112 147 172 112 147 172 112 147 172 112 147 172 112 147 172 105 140 168 105 140 168 105 140 168 150 201 240 105 140 168 105 140 168 150 201 240 105 140 168 150 201 240 105 140 168 150 201 240 112 147 172 112 147 172 112 147 172 112 147 172 112 147 172 112 147 172 112 147 172 112 147 172 112 147 172 112 147 172 112 147 172 160 210 247 160 210 247

231 224 182 161 156 127 231 224 182 231 224 182 231 224 182 161 156 127 161 156 127 161 156 127 231 224 182 231 224 182 161 156 127 161 156 127 231 224 182 161 156 127 231 224 182 166 164 133 238 235 191 238 235 191 238 235 191 166 164 133 166 164 133 224 228 180 224 228 180 156 159 126 156 159 126 156 159 126 224 228 180 156 159 126 156 159 126 156 159 126 146 150 119 146 150 119 146 150 119 146 150 119 146 150 119 146 150 119 209 215 171 132 142 105 132 142 105 132 142 105 132 142 105 132 142 105 132 142 105 116 137 99 116 137 99 116 137 99 102 133 97 102 133 97 147 191 139 102 133 97 102 133 97 147 191 139 147 191 139 147 191 139 102 133 97 102 133 97 102 133 97 102 133 97 102 133 97 102 133 97 147 191 139 147 191 139 147 191 139 147 191 139 147 191 139 147 191 139 116 137 99 167 197 142 167 197 142 167 197 142 167 197 142 167 197 142 189 204 150 189 204 150 132 142 105 132 142 105 116 137 99 167 197 142 189 204 150 189 204 150 132 142 105 132 142 105 189 204 150 189 204 150 189 204 150 189 204 150 189 204 150 189 204 150 189 204 150 189 204 150 189 204 150 189 204 150 189 204 150 189 204 150 189 204 150 189 204 150 189 204 150 189 204 150 189 204 150 209 215 171 209 215 171 209 215 171 209 215 171 209 215 171 209 215 171 209 215 171 209 215 171 209 215 171 209 215 171 224 228 180 224 228 180 224 228 180 224 228 180 224 228 180 224 228 180 224 228 180 224 228 180 224 228 180 224 228 180 224 228 180 156 159 126 156 159 126 224 228 180 224 228 180 224 228 180 224 228 180 156 159 126 156 159 126 156 159 126 156 159 126 224 228 180 224 228 180 224 228 180 156 159 126 224 228 180 224 228 180 156 159 126 146 150 119 146 150 119 209 215 171 209 215 171 146 150 119 209 215 171 132 142 105 189 204 150 189 204 150 189 204 150 189 204 150 132 142 105 116 137 99 167 197 142 116 137 99 116 137 99 102 133 97 102 133 97 102 133 97 102 133 97 120 145 115 120 145 115 120 145 115 151 169 177 151 169 177 151 169 177 151 169 177 151 169 177 151 169 177 151 169 177 137 164 178 137 164 178 137 164 178 137 164 178 197 235 255 197 235 255 137 164 178 137 164 178 128 158 178 128 158 178 184 227 255 128 158 178 184 227 255 184 227 255 184 227 255 184 227 255 128 158 178 128 158 178 172 218 250 184 227 255 172 218 250 184 227 255 184 227 255 184 227 255 120 152 175 184 227 255 120 152 175 172 218 250 172 218 250 120 152 175 172 218 250 172 218 250 120 152 175 120 152 175 184 227 255 184 227 255 128 158 178 184 227 255 128 158 178 128 158 178 184 227 255 184 227 255 128 158 178 128 158 178 172 218 250 120 152 175 120 152 175 120 152 175 120 152 175 120 152 175 172 218 250 120 152 175 112 147 172 112 147 172 112 147 172 160 210 247 112 147 172 112 147 172 160 210 247 112 147 172 160 210 247 112 147 172 160 210 247 112 147 172 105 140 168 105 140 168 105 140 168 105 140 168 105 140 168 105 140 168 105 140 168 150 201 240 150 201 240 150 201 240 150 201 240 150 201 240 150 201 240 105 140 168 105 140 168 160 210 247 112 147 172 112 147 172 112 147 172 112 147 172 112 147 172 112 147 172 112 147 172 112 147 172 112 147 172 112 147 172

231 224 182 231 224 182 231 224 182 231 224 182 231 224 182 161 156 127 231 224 182 231 224 182 231 224 182 161 156 127 161 156 127 231 224 182 231 224 182 161 156 127 231 224 182 166 164 133 238 235 191 166 164 133 238 235 191 166 164 133 238 235 191 238 235 191 238 235 191 156 159 126 156 159 126 156 159 126 156 159 126 156 159 126 156 159 126 156 159 126 146 150 119 146 150 119 146 150 119 146 150 119 146 150 119 146 150 119 209 215 171 132 142 105 132 142 105 132 142 105 132 142 105 132 142 105 132 142 105 116 137 99 116 137 99 116 137 99 167 197 142 102 133 97 102 133 97 102 133 97 102 133 97 102 133 97 102 133 97 102 133 97 102 133 97 102 133 97 147 191 139 102 133 97 102 133 97 102 133 97 102 133 97 147 191 139 102 133 97 102 133 97 147 191 139 147 191 139 167 197 142 167 197 142 167 197 142 167 197 142 167 197 142 167 197 142 189 204 150 116 137 99 116 137 99 116 137 99 116 137 99 189 204 150 189 204 150 132 142 105 189 204 150 189 204 150 189 204 150 189 204 150 189 204 150 189 204 150 189 204 150 189 204 150 189 204 150 189 204 150 189 204 150 189 204 150 189 204 150 189 204 150 189 204 150 132 142 105 189 204 150 209 215 171 209 215 171 209 215 171 209 215 171 209 215 171 209 215 171 209 215 171 209 215 171 224 228 180 224 228 180 224 228 180 224 228 180 224 228 180 224 228 180 224 228 180 224 228 180 224 228 180 224 228 180 224 228 180 224 228 180 224 228 180 224 228 180 224 228 180 224 228 180 156 159 126 224 228 180 156 159 126 156 159 126 156 159 126 156 159 126 224 228 180 224 228 180 224 228 180 156 159 126 224 228 180 224 228 180 224 228 180 224 228 180 156 159 126 156 159 126 224 228 180 209 215 171 209 215 171 209 215 171 146 150 119 132 142 105 132 142 105 132 142 105 132 142 105 132 142 105 132 142 105 132 142 105 189 204 150 116 137 99 116 137 99 102 133 97 102 133 97 102 133 97 102 133 97 120 145 115 120 145 115 120 145 115 120 145 115 151 169 177 151 169 177 151 169 177 151 169 177 151 169 177 151 169 177 216 242 254 151 169 177 216 242 254 137 164 178 137 164 178 137 164 178 137 164 178 137 164 178 137 164 178 128 158 178 184 227 255 184 227 255 184 227 255 184 227 255 184 227 255 184 227 255 128 158 178 128 158 178 184 227 255 120 152 175 120 152 175 120 152 175 120 152 175 120 152 175 184 227 255 184 227 255 172 218 250 120 152 175 172 218 250 172 218 250 172 218 250 172 218 250 172 218 250 172 218 250 172 218 250 172 218 250 120 152 175 184 227 255 128 158 178 128 158 178 128 158 178 120 152 175 120 152 175 120 152 175 120 152 175 120 152 175 120 152 175 120 152 175 120 152 175 120 152 175 120 152 175 120 152 175 120 152 175 112 147 172 112 147 172 112 147 172 160 210 247 112 147 172 160 210 247 160 210 247 112 147 172 160 210 247 112 147 172 112 147 172 112 147 172 112 147 172 105 140 168 105 140 168 105 140 168 105 140 168 105 140 168 150 201 240 105 140 168 105 140 168 150 201 240 105 140 168 105 140 168 105 140 168 105 140 168 105 140 168 105 140 168 105 140 168 105 140 168 105 140 168 112 147 172 105 140 168 105 140 168 105 140 168 112 147 172 112 147 172 112 147 172

231 224 182 231 224 182 231 224 182 231 224 182 231 224 182 161 156 127 231 224 182 231 224 182 161 156 127 161 156 127 161 156 127 231 224 182 231 224 182 231 224 182 231 224 182 161 156 127 231 224 182 238 235 191 238 235 191 238 235 191 238 235 191 238 235 191 166 164 133 156 159 126 224 228 180 224 228 180 156 159 126 156 159 126 156 159 126 146 150 119 146 150 119 146 150 119 146 150 119 132 142 105 146 150 119 132 142 105 209 215 171 132 142 105 132 142 105 132 142 105 189 204 150 189 204 150 132 142 105 116 137 99 116 137 99 167 197 142 116 137 99 102 133 97 102 133 97 102 133 97 102 133 97 147 191 139 102 133 97 102 133 97 102 133 97 102 133 97 102 133 97 102 133 97 147 191 139 147 191 139 147 191 139 147 191 139 102 133 97 147 191 139 147 191 139 147 191 139 167 197 142 167 197 142 167 197 142 167 197 142 167 197 142 167 197 142 189 204 150 116 137 99 189 204 150 167 197 142 189 204 150 189 204 150 189 204 150 189 204 150 189 204 150 189 204 150 189 204 150 132 142 105 189 204 150 189 204 150 189 204 150 189 204 150 189 204 150 189 204 150 189 204 150 189 204 150 209 215 171 209 215 171 209 215 171 209 215 171 209 215 171 209 215 171 209 215 171 209 215 171 224 228 180 209 215 171 209 215 171 209 215 171 224 228 180 224 228 180 224 228 180 224 228 180 224 228 180 224 228 180 224 228 180 224 228 180 224 228 180 224 228 180 224 228 180 224 228 180 224 228 180 224 228 180 224 228 180 224 228 180 224 228 180 224 228 180 224 228 180 224 228 180 224 228 180 224 228 180 224 228 180 224 228 180 224 228 180 224 228 180 224 228 180 224 228 180 238 235 191 224 228 180 156 159 126 156 159 126 224 228 180 156 159 126 156 159 126 146 150 119 209 215 171 146 150 119 146 150 119 189 204 150 132 142 105 132 142 105 189 204 150 189 204 150 189 204 150 132 142 105 116 137 99 116 137 99 102 133 97 102 133 97 102 133 97 102 133 97 120 145 115 120 145 115 120 145 115 120 145 115 151 169 177 151 169 177 151 169 177 151 169 177 151 169 177 151 169 177 216 242 254 151 169 177 137 164 178 137 164 178 137 164 178 137 164 178 137 164 178 137 164 178 197 235 255 197 235 255 197 235 255 128 158 178 184 227 255 184 227 255 184 227 255 184 227 255 128 158 178 128 158 178 128 158 178 120 152 175 184 227 255 120 152 175 120 152 175 172 218 250 120 152 175 120 152 175 184 227 255 184 227 255 172 218 250 172 218 250 172 218 250 172 218 250 172 218 250 120 152 175 120 152 175 172 218 250 172 218 250 120 152 175 128 158 178 120 152 175 120 152 175 120 152 175 120 152 175 120 152 175 120 152 175 120 152 175 172 218 250 172 218 250 120 152 175 120 152 175 120 152 175 120 152 175 172 218 250 112 147 172 112 147 172 160 210 247 160 210 247 160 210 247 160 210 247 160 210 247 112 147 172 160 210 247 160 210 247 112 147 172 112 147 172 105 140 168 105 140 168 105 140 168 150 201 240 105 140 168 150 201 240 98 134 163 98 134 163 98 134 163 98 134 163 98 134 163 105 140 168 98 134 163 105 140 168 105 140 168 105 140 168 105 140 168 105 140 168 105 140 168 105 140 168 105 140 168 105 140 168 105 140 168 150 201 240 112 147 172 112 147 172

231 224 182 231 224 182 231 224 182 161 156 127 231 224 182 231 224 182 231 224 182 161 156 127 231 224 182 231 224 182 231 224 182 231 224 182 231 224 182 231 224 182 161 156 127 161 156 127 166 164 133 166 164 133 166 164 133 166 164 133 166 164 133 166 164 133 166 164 133 156 159 126 156 159 126 156 159 126 156 159 126 156 159 126 156 159 126 146 150 119 146 150 119 146 150 119 146 150 119 132 142 105 132 142 105 132 142 105 189 204 150 132 142 105 132 142 105 132 142 105 132 142 105 132 142 105 132 142 105 116 137 99 116 137 99 116 137 99 116 137 99 116 137 99 147 191 139 147 191 139 147 191 139 147 191 139 102 133 97 147 191 139 147 191 139 102 133 97 147 191 139 102 133 97 147 191 139 147 191 139 102 133 97 147 191 139 147 191 139 147 191 139 147 191 139 147 191 139 147 191 139 167 197 142 116 137 99 116 137 99 116 137 99 167 197 142 167 197 142 189 204 150 167 197 142 116 137 99 167 197 142 116 137 99 132 142 105 189 204 150 189 204 150 189 204 150 132 142 105 132 142 105 189 204 150 189 204 150 189 204 150 189 204 150 189 204 150 209 215 171 209 215 171 209 215 171 209 215 171 209 215 171 209 215 171 209 215 171 209 215 171 209 215 171 209 215 171 209 215 171 209 215 171 224 228 180 209 215 171 224 228 180 224 228 180 224 228 180 224 228 180 224 228 180 224 228 180 224 228 180 224 228 180 238 235 191 238 235 191 238 235 191 238 235 191 238 235 191 224 228 180 238 235 191 224 228 180 224 228 180 238 235 191 156 159 126 224 228 180 224 228 180 224 228 180 224 228 180 224 228 180 224 228 180 224 228 180 224 228 180 224 228 180 224 228 180 224 228 180 156 159 126 156 159 126 224 228 180 224 228 180 156 159 126 224 228 180 146 150 119 209 215 171 146 150 119 146 150 119 132 142 105 132 142 105 189 204 150 132 142 105 132 142 105 132 142 105 116 137 99 116 137 99 116 137 99 102 133 97 102 133 97 102 133 97 120 145 115 120 145 115 120 145 115 120 145 115 151 169 177 151 169 177 151 169 177 151 169 177 151 169 177 216 242 254 151 169 177 216 242 254 151 169 177 137 164 178 137 164 178 197 235 255 137 164 178 137 164 178 197 235 255 128 158 178 128 158 178 128 158 178 128 158 178 184 227 255 184 227 255 184 227 255 128 158 178 128 158 178 184 227 255 128 158 178 120 152 175 172 218 250 120 152 175 172 218 250 172 218 250 120 152 175 172 218 250 184 227 255 120 152 175 120 152 175 172 218 250 120 152 175 172 218 250 172 218 250 172 218 250 172 218 250 172 218 250 120 152 175 120 152 175 120 152 175 120 152 175 120 152 175 120 152 175 172 218 250 172 218 250 120 152 175 120 152 175 120 152 175 120 152 175 120 152 175 120 152 175 120 152 175 120 152 175 112 147 172 112 147 172 112 147 172 160 210 247 160 210 247 112 147 172 112 147 172 112 147 172 112 147 172 112 147 172 112 147 172 112 147 172 112 147 172 105 140 168 105 140 168 105 140 168 105 140 168 105 140 168 98 134 163 98 134 163 98 134 163 98 134 163 98 134 163 98 134 163 140 192 234 98 134 163 98 134 163 98 134 163 98 134 163 150 201 240 105 140 168 105 140 168 150 201 240 105 140 168 105 140 168 105 140 168 105 140 168 105 140 168 105 140 168

231 224 182 231 224 182 161 156 127 231 224 182 231 224 182 161 156 127 161 156 127 161 156 127 231 224 182 231 224 182 231 224 182 231 224 182 161 156 127 231 224 182 231 224 182 231 224 182 231 224 182 238 235 191 166 164 133 166 164 133 166 164 133 166 164 133 238 235 191 156 159 126 156 159 126 156 159 126 156 159 126 156 159 126 224 228 180 146 150 119 146 150 119 146 150 119 146 150 119 146 150 119 132 142 105 132 142 105 189 204 150 132 142 105 132 142 105 132 142 105 132 142 105 132 142 105 189 204 150 116 137 99 116 137 99 116 137 99 116 137 99 116 137 99 167 197 142 102 133 97 147 191 139 102 133 97 102 133 97 147 191 139 147 191 139 102 133 97 102 133 97 102 133 97 102 133 97 102 133 97 147 191 139 147 191 139 102 133 97 147 191 139 102 133 97 147 191 139 147 191 139 147 191 139 167 197 142 167 197 142 167 197 142 167 197 142 167 197 142 167 197 142 116 137 99 167 197 142 116 137 99 167 197 142 189 204 150 189 204 150 189 204 150 189 204 150 189 204 150 189 204 150 189 204 150 189 204 150 189 204 150 189 204 150 189 204 150 209 215 171 209 215 171 209 215 171 209 215 171 209 215 171 209 215 171 209 215 171 209 215 171 209 215 171 209 215 171 209 215 171 224 228 180 224 228 180 224 228 180 224 228 180 224 228 180 224 228 180 224 228 180 224 228 180 238 235 191 238 235 191 238 235 191 238 235 191 238 235 191 238 235 191 238 235 191 238 235 191 238 235 191 238 235 191 238 235 191 238 235 191 238 235 191 238 235 191 224 228 180 224 228 180 156 159 126 224 228 180 238 235 191 224 228 180 224 228 180 224 228 180 238 235 191 224 228 180 238 235 191 156 159 126 156 159 126 156 159 126 156 159 126 156 159 126 224 228 180 146 150 119 146 150 119 146 150 119 146 150 119 132 142 105 132 142 105 189 204 150 132 142 105 132 142 105 132 142 105 116 137 99 116 137 99 116 137 99 102 133 97 102 133 97 102 133 97 120 145 115 120 145 115 120 145 115 151 169 177 151 169 177 151 169 177 216 242 254 216 242 254 151 169 177 151 169 177 216 242 254 216 242 254 216 242 254 216 242 254 197 235 255 137 164 178 137 164 178 137 164 178 128 158 178 128 158 178 128 158 178 128 158 178 184 227 255 184 227 255 128 158 178 184 227 255 128 158 178 184 227 255 184 227 255 184 227 255 128 158 178 172 218 250 120 152 175 120 152 175 120 152 175 172 218 250 184 227 255 172 218 250 120 152 175 120 152 175 172 218 250 172 218 250 172 218 250 120 152 175 172 218 250 172 218 250 172 218 250 120 152 175 120 152 175 120 152 175 120 152 175 120 152 175 120 152 175 120 152 175 120 152 175 120 152 175 120 152 175 120 152 175 120 152 175 120 152 175 120 152 175 120 152 175 112 147 172 112 147 172 112 147 172 160 210 247 160 210 247 112 147 172 112 147 172 112 147 172 112 147 172 112 147 172 112 147 172 112 147 172 112 147 172 105 140 168 105 140 168 105 140 168 105 140 168 105 140 168 98 134 163 98 134 163 98 134 163 140 192 234 98 134 163 98 134 163 98 134 163 98 134 163 98 134 163 140 192 234 98 134 163 98 134 163 98 134 163 105 140 168 98 134 163 105 140 168 98 134 163 105 140 168 105 140 168 150 201 240 150 201 240 150 201 240

231 224 182 161 156 127 231 224 182 231 224 182 222 214 163 231 224 182 231 224 182 161 156 127 231 224 182 231 224 182 231 224 182 161 156 127 231 224 182 231 224 182 231 224 182 231 224 182 231 224 182 231 224 182 238 235 191 238 235 191 166 164 133 166 164 133 166 164 133 156 159 126 156 159 126 224 228 180 224 228 180 156 159 126 146 150 119 146 150 119 146 150 119 146 150 119 146 150 119 132 142 105 132 142 105 132 142 105 132 142 105 132 142 105 132 142 105 189 204 150 132 142 105 189 204 150 132 142 105 116 137 99 116 137 99 116 137 99 167 197 142 167 197 142 102 133 97 102 133 97 102 133 97 102 133 97 147 191 139 147 191 139 102 133 97 102 133 97 120 145 115 120 145 115 120 145 115 147 191 139 147 191 139 102 133 97 102 133 97 147 191 139 102 133 97 147 191 139 147 191 139 147 191 139 102 133 97 116 137 99 167 197 142 167 197 142 167 197 142 116 137 99 167 197 142 116 137 99 167 197 142 189 204 150 189 204 150 189 204 150 189 204 150 189 204 150 189 204 150 189 204 150 189 204 150 189 204 150 189 204 150 189 204 150 189 204 150 209 215 171 209 215 171 209 215 171 209 215 171 209 215 171 209 215 171 209 215 171 209 215 171 209 215 171 209 215 171 209 215 171 224 228 180 224 228 180 224 228 180 224 228 180 224 228 180 224 228 180 238 235 191 238 235 191 238 235 191 238 235 191 238 235 191 238 235 191 238 235 191 238 235 191 238 235 191 238 235 191 238 235 191 238 235 191 166 164 133 238 235 191 238 235 191 238 235 191 156 159 126 224 228 180 238 235 191 238 235 191 238 235 191 156 159 126 224 228 180 238 235 191 238 235 191 238 235 191 238 235 191 156 159 126 156 159 126 156 159 126 156 159 126 224 228 180 224 228 180 156 159 126 146 150 119 146 150 119 146 150 119 146 150 119 132 142 105 132 142 105 132 142 105 132 142 105 189 204 150 132 142 105 116 137 99 116 137 99 102 133 97 102 133 97 102 133 97 120 145 115 120 145 115 120 145 115 151 169 177 151 169 177 151 169 177 216 242 254 151 169 177 151 169 177 216 242 254 216 242 254 216 242 254 151 169 177 151 169 177 151 169 177 137 164 178 137 164 178 137 164 178 137 164 178 128 158 178 128 158 178 128 158 178 128 158 178 128 158 178 128 158 178 184 227 255 128 158 178 128 158 178 184 227 255 184 227 255 184 227 255 184 227 255 120 152 175 120 152 175 172 218 250 172 218 250 172 218 250 120 152 175 120 152 175 120 152 175 172 218 250 120 152 175 120 152 175 172 218 250 172 218 250 172 218 250 120 152 175 172 218 250 172 218 250 172 218 250 172 218 250 172 218 250 120 152 175 120 152 175 120 152 175 120 152 175 120 152 175 120 152 175 172 218 250 120 152 175 172 218 250 112 147 172 172 218 250 112 147 172 112 147 172 112 147 172 112 147 172 112 147 172 112 147 172 160 210 247 160 210 247 112 147 172 112 147 172 112 147 172 105 140 168 105 140 168 105 140 168 105 140 168 105 140 168 105 140 168 98 134 163 98 134 163 98 134 163 140 192 234 98 134 163 140 192 234 140 192 234 98 134 163 140 192 234 140 192 234 98 134 163 98 134 163 98 134 163 140 192 234 98 134 163 98 134 163 98 134 163 98 134 163 98 134 163 150 201 240 105 140 168 105 140 168

222 214 163 231 224 182 222 214 163 231 224 182 222 214 163 161 156 127 161 156 127 161 156 127 231 224 182 231 224 182 161 156 127 161 156 127 231 224 182 231 224 182 231 224 182 231 224 182 222 214 163 161 156 127 231 224 182 166 164 133 166 164 133 166 164 133 156 159 126 156 159 126 156 159 126 224 228 180 156 159 126 156 159 126 224 228 180 146 150 119 146 150 119 146 150 119 132 142 105 132 142 105 132 142 105 132 142 105 189 204 150 132 142 105 189 204 150 189 204 150 189 204 150 189 204 150 116 137 99 116 137 99 116 137 99 116 137 99 116 137 99 116 137 99 116 137 99 147 191 139 102 133 97 102 133 97 147 191 139 102 133 97 102 133 97 120 145 115 120 145 115 172 208 165 172 208 165 172 208 165 147 191 139 102 133 97 102 133 97 102 133 97 147 191 139 147 191 139 147 191 139 147 191 139 102 133 97 147 191 139 167 197 142 167 197 142 167 197 142 167 197 142 116 137 99 167 197 142 189 204 150 189 204 150 189 204 150 189 204 150 209 215 171 189 204 150 209 215 171 189 204 150 189 204 150 189 204 150 189 204 150 189 204 150 209 215 171 209 215 171 209 215 171 209 215 171 209 215 171 209 215 171 209 215 171 209 215 171 209 215 171 224 228 180 224 228 180 224 228 180 224 228 180 224 228 180 224 228 180 224 228 180 238 235 191 238 235 191 238 235 191 238 235 191 238 235 191 238 235 191 231 224 182 231 224 182 231 224 182 231 224 182 231 224 182 238 235 191 238 235 191 238 235 191 166 164 133 238 235 191 238 235 191 166 164 133 166 164 133 224 228 180 238 235 191 238 235 191 238 235 191 156 159 126 238 235 191 238 235 191 238 235 191 238 235 191 238 235 191 166 164 133 156 159 126 156 159 126 224 228 180 156 159 126 156 159 126 146 150 119 146 150 119 146 150 119 146 150 119 146 150 119 209 215 171 132 142 105 132 142 105 132 142 105 189 204 150 132 142 105 116 137 99 116 137 99 116 137 99 102 133 97 102 133 97 120 145 115 120 145 115 151 169 177 151 169 177 151 169 177 151 169 177 216 242 254 151 169 177 216 242 254 216 242 254 216 242 254 216 242 254 151 169 177 216 242 254 216 242 254 137 164 178 137 164 178 137 164 178 128 158 178 128 158 178 128 158 178 184 227 255 128 158 178 128 158 178 184 227 255 128 158 178 128 158 178 184 227 255 184 227 255 184 227 255 128 158 178 128 158 178 120 152 175 184 227 255 172 218 250 172 218 250 120 152 175 184 227 255 120 152 175 172 218 250 172 218 250 172 218 250 172 218 250 172 218 250 120 152 175 184 227 255 120 152 175 172 218 250 120 152 175 120 152 175 120 152 175 120 152 175 120 152 175 120 152 175 172 218 250 172 218 250 112 147 172 112 147 172 120 152 175 172 218 250 120 152 175 172 218 250 172 218 250 112 147 172 112 147 172 112 147 172 112 147 172 112 147 172 160 210 247 160 210 247 112 147 172 112 147 172 105 140 168 105 140 168 105 140 168 105 140 168 105 140 168 105 140 168 105 140 168 105 140 168 98 134 163 98 134 163 140 192 234 140 192 234 98 134 163 98 134 163 98 134 163 140 192 234 98 134 163 98 134 163 98 134 163 98 134 163 140 192 234 98 134 163 98 134 163 98 134 163 98 134 163 98 134 163 98 134 163 98 134 163 98 134 163 150 201 240

231 224 182 161 156 127 222 214 163 222 214 163 231 224 182 161 156 127 161 156 127 161 156 127 161 156 127 161 156 127 161 156 127 231 224 182 231 224 182 161 156 127 161 156 127 231 224 182 231 224 182 161 156 127 161 156 127 166 164 133 166 164 133 166 164 133 156 159 126 156 159 126 156 159 126 156 159 126 156 159 126 224 228 180 156 159 126 146 150 119 146 150 119 146 150 119 132 142 105 132 142 105 132 142 105 132 142 105 189 204 150 189 204 150 189 204 150 189 204 150 132 142 105 132 142 105 116 137 99 116 137 99 116 137 99 116 137 99 116 137 99 167 197 142 167 197 142 116 137 99 102 133 97 147 191 139 102 133 97 102 133 97 102 133 97 120 145 115 172 208 165 172 208 165 120 145 115 120 145 115 120 145 115 102 133 97 147 191 139 147 191 139 147 191 139 147 191 139 147 191 139 147 191 139 147 191 139 167 197 142 167 197 142 116 137 99 167 197 142 167 197 142 116 137 99 167 197 142 189 204 150 189 204 150 189 204 150 189 204 150 189 204 150 209 215 171 209 215 171 146 150 119 209 215 171 209 215 171 209 215 171 209 215 171 209 215 171 209 215 171 209 215 171 146 150 119 146 150 119 209 215 171 209 215 171 146 150 119 209 215 171 224 228 180 224 228 180 224 228 180 224 228 180 224 228 180 224 228 180 224 228 180 238 235 191 238 235 191 238 235 191 238 235 191 238 235 191 231 224 182 231 224 182 231 224 182 161 156 127 161 156 127 161 156 127 161 156 127 166 164 133 166 164 133 166 164 133 238 235 191 238 235 191 166 164 133 238 235 191 238 235 191 238 235 191 238 235 191 166 164 133 166 164 133 238 235 191 238 235 191 238 235 191 238 235 191 238 235 191 156 159 126 156 159 126 224 228 180 224 228 180 156 159 126 146 150 119 146 150 119 146 150 119 146 150 119 146 150 119 146 150 119 132 142 105 132 142 105 132 142 105 132 142 105 132 142 105 116 137 99 116 137 99 116 137 99 102 133 97 102 133 97 120 145 115 120 145 115 120 145 115 151 169 177 151 169 177 151 169 177 151 169 177 216 242 254 151 169 177 151 169 177 151 169 177 151 169 177 151 169 177 151 169 177 151 169 177 137 164 178 137 164 178 137 164 178 137 164 178 128 158 178 128 158 178 128 158 178 184 227 255 128 158 178 184 227 255 184 227 255 128 158 178 128 158 178 128 158 178 128 158 178 128 158 178 128 158 178 128 158 178 128 158 178 172 218 250 120 152 175 172 218 250 120 152 175 120 152 175 120 152 175 120 152 175 184 227 255 184 227 255 120 152 175 120 152 175 120 152 175 172 218 250 120 152 175 172 218 250 172 218 250 172 218 250 172 218 250 120 152 175 120 152 175 120 152 175 172 218 250 172 218 250 112 147 172 112 147 172 160 210 247 112 147 172 112 147 172 172 218 250 112 147 172 112 147 172 112 147 172 160 210 247 112 147 172 160 210 247 160 210 247 112 147 172 112 147 172 112 147 172 160 210 247 160 210 247 105 140 168 105 140 168 105 140 168 105 140 168 105 140 168 105 140 168 98 134 163 98 134 163 140 192 234 98 134 163 140 192 234 140 192 234 140 192 234 98 134 163 98 134 163 98 134 163 98 134 163 98 134 163 98 134 163 98 134 163 98 134 163 98 134 163 98 134 163 98 134 163 98 134 163 98 134 163 140 192 234 150 201 240

231 224 182 231 224 182 222 214 163 161 156 127 161 156 127 161 156 127 161 156 127 161 156 127 161 156 127 231 224 182 231 224 182 231 224 182 231 224 182 231 224 182 231 224 182 231 224 182 161 156 127 161 156 127 161 156 127 161 156 127 166 164 133 166 164 133 156 159 126 224 228 180 224 228 180 224 228 180 224 228 180 156 159 126 146 150 119 146 150 119 146 150 119 146 150 119 132 142 105 189 204 150 189 204 150 189 204 150 189 204 150 189 204 150 189 204 150 189 204 150 132 142 105 132 142 105 132 142 105 116 137 99 116 137 99 116 137 99 116 137 99 167 197 142 116 137 99 167 197 142 102 133 97 102 133 97 102 133 97 102 133 97 102 133 97 120 145 115 120 145 115 120 145 115 120 145 115 172 208 165 172 208 165 147 191 139 147 191 139 102 133 97 147 191 139 147 191 139 147 191 139 147 191 139 147 191 139 167 197 142 167 197 142 167 197 142 167 197 142 167 197 142 167 197 142 167 197 142 167 197 142 189 204 150 189 204 150 189 204 150 189 204 150 189 204 150 209 215 171 209 215 171 209 215 171 209 215 171 209 215 171 146 150 119 209 215 171 209 215 171 209 215 171 209 215 171 209 215 171 209 215 171 224 228 180 224 228 180 224 228 180 224 228 180 224 228 180 224 228 180 224 228 180 224 228 180 224 228 180 238 235 191 238 235 191 238 235 191 238 235 191 238 235 191 231 224 182 231 224 182 231 224 182 231 224 182 231 224 182 161 156 127 161 156 127 166 164 133 166 164 133 166 164 133 238 235 191 238 235 191 238 235 191 238 235 191 166 164 133 238 235 191 166 164 133 238 235 191 238 235 191 238 235 191 238 235 191 238 235 191 238 235 191 238 235 191 166 164 133 166 164 133 224 228 180 224 228 180 156 159 126 156 159 126 146 150 119 146 150 119 146 150 119 146 150 119 146 150 119 132 142 105 132 142 105 132 142 105 132 142 105 116 137 99 116 137 99 116 137 99 116 137 99 102 133 97 102 133 97 102 133 97 120 145 115 120 145 115 120 145 115 151 169 177 216 242 254 151 169 177 216 242 254 151 169 177 151 169 177 216 242 254 216 242 254 151 169 177 216 242 254 151 169 177 137 164 178 137 164 178 137 164 178 137 164 178 137 164 178 128 158 178 128 158 178 128 158 178 184 227 255 184 227 255 184 227 255 128 158 178 184 227 255 184 227 255 128 158 178 184 227 255 128 158 178 128 158 178 128 158 178 128 158 178 120 152 175 120 152 175 120 152 175 120 152 175 120 152 175 120 152 175 172 218 250 172 218 250 120 152 175 120 152 175 120 152 175 172 218 250 172 218 250 172 218 250 172 218 250 120 152 175 120 152 175 120 152 175 172 218 250 172 218 250 172 218 250 172 218 250 172 218 250 120 152 175 112 147 172 160 210 247 112 147 172 160 210 247 172 218 250 112 147 172 112 147 172 112 147 172 112 147 172 112 147 172 160 210 247 112 147 172 112 147 172 160 210 247 112 147 172 112 147 172 112 147 172 105 140 168 105 140 168 105 140 168 150 201 240 105 140 168 105 140 168 98 134 163 140 192 234 98 134 163 98 134 163 140 192 234 140 192 234 98 134 163 98 134 163 92 128 158 98 134 163 92 128 158 140 192 234 92 128 158 140 192 234 92 128 158 92 128 158 98 134 163 140 192 234 98 134 163 140 192 234 140 192 234 98 134 163

231 224 182 231 224 182 161 156 127 161 156 127 161 156 127 231 224 182 161 156 127 161 156 127 231 224 182 231 224 182 231 224 182 231 224 182 231 224 182 231 224 182 231 224 182 161 156 127 161 156 127 161 156 127 161 156 127 166 164 133 166 164 133 166 164 133 166 164 133 156 159 126 156 159 126 156 159 126 156 159 126 156 159 126 146 150 119 146 150 119 209 215 171 146 150 119 132 142 105 132 142 105 189 204 150 189 204 150 189 204 150 189 204 150 132 142 105 132 142 105 132 142 105 132 142 105 132 142 105 116 137 99 116 137 99 116 137 99 116 137 99 167 197 142 167 197 142 167 197 142 102 133 97 102 133 97 147 191 139 147 191 139 147 191 139 147 191 139 120 145 115 172 208 165 120 145 115 120 145 115 172 208 165 147 191 139 147 191 139 102 133 97 147 191 139 147 191 139 147 191 139 147 191 139 147 191 139 147 191 139 102 133 97 167 197 142 167 197 142 167 197 142 167 197 142 116 137 99 167 197 142 189 204 150 189 204 150 189 204 150 189 204 150 209 215 171 209 215 171 209 215 171 209 215 171 209 215 171 209 215 171 209 215 171 209 215 171 209 215 171 209 215 171 209 215 171 209 215 171 209 215 171 224 228 180 224 228 180 224 228 180 224 228 180 224 228 180 224 228 180 224 228 180 224 228 180 224 228 180 238 235 191 238 235 191 238 235 191 238 235 191 238 235 191 231 224 182 231 224 182 231 224 182 161 156 127 231 224 182 161 156 127 166 164 133 166 164 133 166 164 133 166 164 133 166 164 133 238 235 191 238 235 191 166 164 133 166 164 133 238 235 191 238 235 191 238 235 191 238 235 191 238 235 191 238 235 191 238 235 191 238 235 191 238 235 191 238 235 191 166 164 133 156 159 126 156 159 126 224 228 180 156 159 126 146 150 119 146 150 119 146 150 119 146 150 119 146 150 119 132 142 105 132 142 105 132 142 105 116 137 99 116 137 99 116 137 99 116 137 99 116 137 99 102 133 97 102 133 97 102 133 97 120 145 115 120 145 115 120 145 115 151 169 177 151 169 177 151 169 177 151 169 177 151 169 177 151 169 177 216 242 254 151 169 177 151 169 177 137 164 178 137 164 178 137 164 178 137 164 178 137 164 178 137 164 178 128 158 178 128 158 178 128 158 178 128 158 178 184 227 255 128 158 178 184 227 255 128 158 178 184 227 255 128 158 178 128 158 178 128 158 178 128 158 178 128 158 178 120 152 175 120 152 175 120 152 175 120 152 175 120 152 175 120 152 175 120 152 175 172 218 250 172 218 250 120 152 175 120 152 175 120 152 175 120 152 175 120 152 175 120 152 175 120 152 175 120 152 175 120 152 175 120 152 175 120 152 175 120 152 175 120 152 175 120 152 175 172 218 250 172 218 250 120 152 175 172 218 250 160 210 247 160 210 247 160 210 247 112 147 172 112 147 172 112 147 172 112 147 172 160 210 247 160 210 247 160 210 247 160 210 247 112 147 172 112 147 172 112 147 172 112 147 172 160 210 247 105 140 168 105 140 168 105 140 168 150 201 240 105 140 168 98 134 163 98 134 163 98 134 163 98 134 163 140 192 234 98 134 163 98 134 163 98 134 163 98 134 163 92 128 158 132 184 227 92 128 158 140 192 234 98 134 163 132 184 227 92 128 158 92 128 158 92 128 158 92 128 158 140 192 234 92 128 158 98 134 163 98 134 163

231 224 182 231 224 182 222 214 163 231 224 182 222 214 163 231 224 182 161 156 127 161 156 127 161 156 127 231 224 182 231 224 182 231 224 182 231 224 182 161 156 127 161 156 127 231 224 182 231 224 182 161 156 127 166 164 133 166 164 133 166 164 133 166 164 133 166 164 133 156 159 126 224 228 180 224 228 180 224 228 180 156 159 126 146 150 119 146 150 119 146 150 119 146 150 119 132 142 105 132 142 105 209 215 171 209 215 171 209 215 171 132 142 105 132 142 105 189 204 150 132 142 105 132 142 105 132 142 105 116 137 99 116 137 99 167 197 142 167 197 142 167 197 142 167 197 142 116 137 99 167 197 142 147 191 139 147 191 139 147 191 139 147 191 139 147 191 139 102 133 97 172 208 165 120 145 115 172 208 165 172 208 165 147 191 139 147 191 139 102 133 97 147 191 139 147 191 139 147 191 139 147 191 139 147 191 139 102 133 97 167 197 142 167 197 142 167 197 142 167 197 142 167 197 142 167 197 142 167 197 142 189 204 150 189 204 150 189 204 150 209 215 171 209 215 171 146 150 119 146 150 119 209 215 171 146 150 119 209 215 171 209 215 171 209 215 171 209 215 171 209 215 171 209 215 171 224 228 180 224 228 180 224 228 180 224 228 180 224 228 180 224 228 180 224 228 180 224 228 180 224 228 180 224 228 180 224 228 180 224 228 180 238 235 191 238 235 191 238 235 191 238 235 191 231 224 182 161 156 127 161 156 127 231 224 182 231 224 182 166 164 133 166 164 133 166 164 133 166 164 133 166 164 133 166 164 133 166 164 133 166 164 133 166 164 133 238 235 191 238 235 191 238 235 191 238 235 191 238 235 191 238 235 191 238 235 191 238 235 191 238 235 191 166 164 133 166 164 133 166 164 133 238 235 191 224 228 180 224 228 180 156 159 126 146 150 119 146 150 119 146 150 119 132 142 105 132 142 105 132 142 105 132 142 105 116 137 99 116 137 99 116 137 99 116 137 99 116 137 99 102 133 97 102 133 97 102 133 97 102 133 97 120 145 115 120 145 115 120 145 115 151 169 177 151 169 177 151 169 177 151 169 177 151 169 177 151 169 177 151 169 177 151 169 177 137 164 178 137 164 178 137 164 178 137 164 178 137 164 178 137 164 178 137 164 178 137 164 178 128 158 178 128 158 178 184 227 255 184 227 255 128 158 178 128 158 178 128 158 178 128 158 178 128 158 178 128 158 178 128 158 178 184 227 255 120 152 175 120 152 175 120 152 175 120 152 175 120 152 175 120 152 175 172 218 250 172 218 250 120 152 175 120 152 175 172 218 250 120 152 175 120 152 175 120 152 175 120 152 175 172 218 250 172 218 250 120 152 175 172 218 250 172 218 250 172 218 250 172 218 250 172 218 250 172 218 250 120 152 175 120 152 175 172 218 250 172 218 250 112 147 172 112 147 172 112 147 172 112 147 172 160 210 247 112 147 172 160 210 247 160 210 247 160 210 247 160 210 247 112 147 172 112 147 172 112 147 172 112 147 172 105 140 168 105 140 168 105 140 168 105 140 168 150 201 240 105 140 168 105 140 168 105 140 168 150 201 240 140 192 234 140 192 234 140 192 234 98 134 163 98 134 163 98 134 163 92 128 158 92 128 158 92 128 158 92 128 158 92 128 158 92 128 158 92 128 158 92 128 158 132 184 227 132 184 227 140 192 234 92 128 158 92 128 158 140 192 234 140 192 234

231 224 182 231 224 182 231 224 182 161 156 127 231 224 182 161 156 127 161 156 127 231 224 182 231 224 182 231 224 182 231 224 182 231 224 182 231 224 182 231 224 182 231 224 182 161 156 127 161 156 127 161 156 127 166 164 133 166 164 133 166 164 133 166 164 133 238 235 191 238 235 191 224 228 180 156 159 126 156 159 126 156 159 126 146 150 119 146 150 119 146 150 119 146 150 119 146 150 119 189 204 150 209 215 171 209 215 171 132 142 105 209 215 171 132 142 105 132 142 105 132 142 105 132 142 105 132 142 105 116 137 99 116 137 99 167 197 142 167 197 142 167 197 142 167 197 142 116 137 99 167 197 142 102 133 97 147 191 139 102 133 97 147 191 139 102 133 97 102 133 97 120 145 115 172 208 165 147 191 139 172 208 165 172 208 165 120 145 115 102 133 97 147 191 139 147 191 139 147 191 139 147 191 139 147 191 139 102 133 97 147 191 139 167 197 142 167 197 142 116 137 99 167 197 142 167 197 142 167 197 142 189 204 150 189 204 150 189 204 150 209 215 171 146 150 119 146 150 119 209 215 171 209 215 171 146 150 119 209 215 171 209 215 171 209 215 171 209 215 171 224 228 180 224 228 180 224 228 180 224 228 180 224 228 180 224 228 180 224 228 180 156 159 126 224 228 180 224 228 180 224 228 180 238 235 191 224 228 180 238 235 191 238 235 191 238 235 191 238 235 191 238 235 191 166 164 133 161 156 127 231 224 182 231 224 182 166 164 133 166 164 133 166 164 133 166 164 133 238 235 191 166 164 133 166 164 133 238 235 191 166 164 133 238 235 191 238 235 191 238 235 191 238 235 191 166 164 133 238 235 191 238 235 191 166 164 133 238 235 191 238 235 191 238 235 191 166 164 133 166 164 133 238 235 191 156 159 126 156 159 126 156 159 126 146 150 119 146 150 119 146 150 119 132 142 105 132 142 105 132 142 105 132 142 105 116 137 99 116 137 99 116 137 99 116 137 99 102 133 97 102 133 97 102 133 97 102 133 97 102 133 97 120 145 115 120 145 115 151 169 177 151 169 177 151 169 177 151 169 177 151 169 177 151 169 177 137 164 178 137 164 178 137 164 178 137 164 178 137 164 178 137 164 178 137 164 178 137 164 178 137 164 178 197 235 255 128 158 178 128 158 178 128 158 178 128 158 178 128 158 178 128 158 178 128 158 178 184 227 255 128 158 178 128 158 178 120 152 175 120 152 175 120 152 175 120 152 175 120 152 175 120 152 175 120 152 175 120 152 175 120 152 175 120 152 175 120 152 175 120 152 175 120 152 175 120 152 175 120 152 175 120 152 175 120 152 175 172 218 250 120 152 175 120 152 175 120 152 175 120 152 175 120 152 175 120 152 175 120 152 175 120 152 175 120 152 175 172 218 250 120 152 175 172 218 250 120 152 175 120 152 175 112 147 172 112 147 172 112 147 172 112 147 172 112 147 172 112 147 172 112 147 172 112 147 172 112 147 172 112 147 172 105 140 168 105 140 168 105 140 168 105 140 168 105 140 168 105 140 168 105 140 168 150 201 240 105 140 168 150 201 240 150 201 240 98 134 163 98 134 163 98 134 163 98 134 163 98 134 163 98 134 163 98 134 163 92 128 158 92 128 158 92 128 158 132 184 227 92 128 158 92 128 158 92 128 158 92 128 158 92 128 158 132 184 227 132 184 227 92 128 158 132 184 227 92 128 158 92 128 158

231 224 182 231 224 182 231 224 182 161 156 127 161 156 127 161 156 127 231 224 182 231 224 182 161 156 127 161 156 127 231 224 182 161 156 127 231 224 182 231 224 182 161 156 127 161 156 127 161 156 127 161 156 127 166 164 133 238 235 191 166 164 133 166 164 133 166 164 133 156 159 126 238 235 191 224 228 180 224 228 180 156 159 126 146 150 119 146 150 119 209 215 171 209 215 171 146 150 119 132 142 105 209 215 171 132 142 105 209 215 171 209 215 171 132 142 105 132 142 105 132 142 105 132 142 105 132 142 105 132 142 105 116 137 99 167 197 142 167 197 142 116 137 99 167 197 142 116 137 99 116 137 99 102 133 97 102 133 97 102 133 97 102 133 97 102 133 97 102 133 97 120 145 115 172 208 165 147 191 139 147 191 139 147 191 139 147 191 139 147 191 139 147 191 139 147 191 139 147 191 139 147 191 139 147 191 139 147 191 139 167 197 142 167 197 142 167 197 142 167 197 142 167 197 142 167 197 142 167 197 142 189 204 150 189 204 150 189 204 150 189 204 150 132 142 105 209 215 171 209 215 171 146 150 119 146 150 119 209 215 171 209 215 171 209 215 171 224 228 180 224 228 180 224 228 180 224 228 180 224 228 180 224 228 180 224 228 180 224 228 180 224 228 180 238 235 191 224 228 180 238 235 191 238 235 191 238 235 191 238 235 191 238 235 191 238 235 191 238 235 191 166 164 133 238 235 191 238 235 191 166 164 133 166 164 133 166 164 133 166 164 133 166 164 133 238 235 191 238 235 191 166 164 133 166 164 133 238 235 191 238 235 191 238 235 191 238 235 191 238 235 191 166 164 133 166 164 133 238 235 191 238 235 191 166 164 133 238 235 191 238 235 191 238 235 191 238 235 191 238 235 191 166 164 133 156 159 126 156 159 126 156 159 126 146 150 119 146 150 119 146 150 119 132 142 105 189 204 150 132 142 105 189 204 150 116 137 99 116 137 99 116 137 99 102 133 97 102 133 97 102 133 97 102 133 97 102 133 97 120 145 115 120 145 115 120 145 115 151 169 177 151 169 177 151 169 177 137 164 178 151 169 177 151 169 177 151 169 177 197 235 255 197 235 255 137 164 178 137 164 178 137 164 178 137 164 178 137 164 178 197 235 255 128 158 178 128 158 178 128 158 178 128 158 178 184 227 255 128 158 178 128 158 178 128 158 178 128 158 178 120 152 175 120 152 175 184 227 255 120 152 175 184 227 255 120 152 175 120 152 175 120 152 175 112 147 172 112 147 172 120 152 175 112 147 172 120 152 175 120 152 175 172 218 250 172 218 250 120 152 175 120 152 175 120 152 175 172 218 250 120 152 175 172 218 250 172 218 250 172 218 250 120 152 175 120 152 175 172 218 250 172 218 250 172 218 250 120 152 175 120 152 175 172 218 250 172 218 250 112 147 172 112 147 172 160 210 247 160 210 247 112 147 172 112 147 172 112 147 172 112 147 172 112 147 172 112 147 172 105 140 168 105 140 168 150 201 240 160 210 247 160 210 247 150 201 240 105 140 168 150 201 240 150 201 240 150 201 240 150 201 240 150 201 240 98 134 163 98 134 163 98 134 163 98 134 163 98 134 163 98 134 163 92 128 158 92 128 158 92 128 158 132 184 227 132 184 227 92 128 158 92 128 158 132 184 227 92 128 158 132 184 227 132 184 227 132 184 227 92 128 158 92 128 158 92 128 158 92 128 158

231 224 182 231 224 182 231 224 182 231 224 182 231 224 182 231 224 182 231 224 182 161 156 127 161 156 127 231 224 182 231 224 182 231 224 182 231 224 182 161 156 127 161 156 127 161 156 127 161 156 127 161 156 127 231 224 182 238 235 191 166 164 133 166 164 133 238 235 191 238 235 191 238 235 191 156 159 126 156 159 126 156 159 126 224 228 180 146 150 119 146 150 119 146 150 119 146 150 119 132 142 105 189 204 150 132 142 105 132 142 105 146 150 119 132 142 105 132 142 105 132 142 105 132 142 105 132 142 105 132 142 105 116 137 99 116 137 99 116 137 99 167 197 142 167 197 142 116 137 99 167 197 142 167 197 142 147 191 139 147 191 139 102 133 97 102 133 97 102 133 97 120 145 115 120 145 115 147 191 139 120 145 115 147 191 139 147 191 139 147 191 139 102 133 97 147 191 139 147 191 139 147 191 139 147 191 139 167 197 142 147 191 139 167 197 142 167 197 142 167 197 142 167 197 142 116 137 99 189 204 150 189 204 150 189 204 150 189 204 150 189 204 150 209 215 171 209 215 171 209 215 171 209 215 171 209 215 171 209 215 171 209 215 171 209 215 171 209 215 171 224 228 180 224 228 180 224 228 180 224 228 180 224 228 180 224 228 180 224 228 180 238 235 191 238 235 191 238 235 191 238 235 191 238 235 191 238 235 191 238 235 191 238 235 191 238 235 191 238 235 191 238 235 191 166 164 133 166 164 133 166 164 133 166 164 133 166 164 133 166 164 133 166 164 133 166 164 133 166 164 133 166 164 133 166 164 133 166 164 133 238 235 191 238 235 191 238 235 191 166 164 133 238 235 191 238 235 191 238 235 191 238 235 191 238 235 191 238 235 191 166 164 133 166 164 133 238 235 191 166 164 133 166 164 133 156 159 126 156 159 126 156 159 126 146 150 119 146 150 119 146 150 119 132 142 105 132 142 105 132 142 105 132 142 105 116 137 99 116 137 99 116 137 99 102 133 97 102 133 97 102 133 97 102 133 97 120 145 115 120 145 115 120 145 115 151 169 177 151 169 177 151 169 177 151 169 177 137 164 178 137 164 178 137 164 178 137 164 178 137 164 178 137 164 178 137 164 178 137 164 178 197 235 255 137 164 178 137 164 178 137 164 178 128 158 178 128 158 178 128 158 178 128 158 178 128 158 178 128 158 178 128 158 178 120 152 175 128 158 178 120 152 175 184 227 255 120 152 175 120 152 175 120 152 175 120 152 175 120 152 175 120 152 175 112 147 172 112 147 172 112 147 172 112 147 172 112 147 172 112 147 172 112 147 172 112 147 172 112 147 172 112 147 172 172 218 250 172 218 250 172 218 250 172 218 250 172 218 250 120 152 175 120 152 175 172 218 250 172 218 250 120 152 175 120 152 175 172 218 250 172 218 250 120 152 175 112 147 172 120 152 175 112 147 172 160 210 247 112 147 172 112 147 172 112 147 172 112 147 172 112 147 172 112 147 172 105 140 168 160 210 247 105 140 168 150 201 240 150 201 240 105 140 168 105 140 168 105 140 168 150 201 240 105 140 168 150 201 240 105 140 168 105 140 168 105 140 168 140 192 234 98 134 163 140 192 234 98 134 163 92 128 158 92 128 158 92 128 158 132 184 227 132 184 227 92 128 158 92 128 158 92 128 158 132 184 227 132 184 227 132 184 227 92 128 158 92 128 158 92 128 158 92 128 158 92 128 158 92 128 158

231 224 182 231 224 182 231 224 182 231 224 182 231 224 182 231 224 182 231 224 182 161 156 127 231 224 182 161 156 127 231 224 182 231 224 182 161 156 127 161 156 127 161 156 127 161 156 127 161 156 127 161 156 127 166 164 133 166 164 133 166 164 133 166 164 133 238 235 191 238 235 191 238 235 191 238 235 191 156 159 126 156 159 126 156 159 126 146 150 119 146 150 119 209 215 171 146 150 119 132 142 105 189 204 150 209 215 171 189 204 150 189 204 150 132 142 105 132 142 105 132 142 105 189 204 150 189 204 150 189 204 150 116 137 99 116 137 99 167 197 142 167 197 142 167 197 142 116 137 99 116 137 99 167 197 142 167 197 142 102 133 97 102 133 97 102 133 97 102 133 97 147 191 139 147 191 139 147 191 139 147 191 139 147 191 139 120 145 115 120 145 115 147 191 139 147 191 139 147 191 139 147 191 139 167 197 142 167 197 142 167 197 142 167 197 142 167 197 142 167 197 142 189 204 150 167 197 142 189 204 150 189 204 150 189 204 150 189 204 150 209 215 171 189 204 150 209 215 171 209 215 171 209 215 171 209 215 171 209 215 171 209 215 171 209 215 171 224 228 180 224 228 180 224 228 180 224 228 180 224 228 180 224 228 180 238 235 191 238 235 191 238 235 191 238 235 191 238 235 191 238 235 191 238 235 191 238 235 191 238 235 191 238 235 191 238 235 191 238 235 191 166 164 133 166 164 133 238 235 191 166 164 133 238 235 191 238 235 191 166 164 133 166 164 133 238 235 191 238 235 191 166 164 133 238 235 191 166 164 133 238 235 191 238 235 191 238 235 191 238 235 191 231 224 182 231 224 182 238 235 191 238 235 191 238 235 191 166 164 133 166 164 133 238 235 191 238 235 191 166 164 133 156 159 126 156 159 126 156 159 126 156 159 126 146 150 119 146 150 119 146 150 119 132 142 105 132 142 105 132 142 105 132 142 105 116 137 99 116 137 99 116 137 99 102 133 97 102 133 97 102 133 97 120 145 115 120 145 115 120 145 115 120 145 115 151 169 177 151 169 177 151 169 177 151 169 177 137 164 178 137 164 178 137 164 178 137 164 178 137 164 178 197 235 255 197 235 255 197 235 255 197 235 255 197 235 255 137 164 178 128 158 178 128 158 178 128 158 178 128 158 178 128 158 178 128 158 178 128 158 178 128 158 178 128 158 178 184 227 255 184 227 255 184 227 255 120 152 175 172 218 250 120 152 175 120 152 175 112 147 172 112 147 172 112 147 172 112 147 172 112 147 172 112 147 172 112 147 172 112 147 172 112 147 172 112 147 172 112 147 172 160 210 247 172 218 250 172 218 250 172 218 250 120 152 175 120 152 175 120 152 175 172 218 250 172 218 250 120 152 175 120 152 175 172 218 250 172 218 250 120 152 175 112 147 172 120 152 175 112 147 172 112 147 172 160 210 247 112 147 172 112 147 172 112 147 172 160 210 247 112 147 172 112 147 172 160 210 247 160 210 247 105 140 168 150 201 240 150 201 240 150 201 240 150 201 240 105 140 168 105 140 168 105 140 168 150 201 240 105 140 168 105 140 168 98 134 163 150 201 240 98 134 163 140 192 234 98 134 163 92 128 158 132 184 227 132 184 227 132 184 227 132 184 227 132 184 227 92 128 158 92 128 158 132 184 227 92 128 158 132 184 227 92 128 158 92 128 158 92 128 158 92 128 158 84 124 155 84 124 155

231 224 182 231 224 182 161 156 127 161 156 127 161 156 127 161 156 127 161 156 127 161 156 127 231 224 182 231 224 182 231 224 182 161 156 127 161 156 127 161 156 127 161 156 127 161 156 127 161 156 127 161 156 127 166 164 133 166 164 133 166 164 133 166 164 133 166 164 133 166 164 133 166 164 133 166 164 133 156 159 126 224 228 180 156 159 126 146 150 119 146 150 119 146 150 119 146 150 119 146 150 119 189 204 150 209 215 171 132 142 105 132 142 105 132 142 105 132 142 105 132 142 105 132 142 105 132 142 105 132 142 105 116 137 99 116 137 99 116 137 99 167 197 142 116 137 99 116 137 99 116 137 99 102 133 97 102 133 97 102 133 97 102 133 97 102 133 97 147 191 139 120 145 115 120 145 115 120 145 115 120 145 115 120 145 115 120 145 115 172 208 165 147 191 139 147 191 139 147 191 139 147 191 139 147 191 139 167 197 142 102 133 97 167 197 142 167 197 142 167 197 142 167 197 142 116 137 99 189 204 150 189 204 150 189 204 150 189 204 150 189 204 150 209 215 171 209 215 171 209 215 171 209 215 171 209 215 171 209 215 171 209 215 171 224 228 180 224 228 180 224 228 180 224 228 180 224 228 180 224 228 180 224 228 180 238 235 191 238 235 191 238 235 191 238 235 191 238 235 191 238 235 191 238 235 191 166 164 133 238 235 191 166 164 133 166 164 133 166 164 133 166 164 133 238 235 191 238 235 191 166 164 133 238 235 191 166 164 133 166 164 133 238 235 191 238 235 191 166 164 133 166 164 133 238 235 191 238 235 191 238 235 191 238 235 191 238 235 191 231 224 182 231 224 182 231 224 182 231 224 182 231 224 182 231 224 182 166 164 133 166 164 133 238 235 191 238 235 191 166 164 133 156 159 126 156 159 126 156 159 126 156 159 126 146 150 119 146 150 119 146 150 119 132 142 105 132 142 105 132 142 105 189 204 150 132 142 105 116 137 99 116 137 99 102 133 97 102 133 97 102 133 97 120 145 115 120 145 115 120 145 115 120 145 115 120 145 115 151 169 177 151 169 177 151 169 177 216 242 254 137 164 178 137 164 178 197 235 255 197 235 255 197 235 255 137 164 178 137 164 178 197 235 255 137 164 178 137 164 178 137 164 178 128 158 178 128 158 178 128 158 178 128 158 178 128 158 178 184 227 255 184 227 255 120 152 175 184 227 255 128 158 178 120 152 175 120 152 175 120 152 175 120 152 175 120 152 175 120 152 175 160 210 247 112 147 172 112 147 172 160 210 247 112 147 172 112 147 172 160 210 247 160 210 247 160 210 247 160 210 247 160 210 247 172 218 250 172 218 250 172 218 250 172 218 250 172 218 250 120 152 175 172 218 250 120 152 175 120 152 175 172 218 250 120 152 175 120 152 175 120 152 175 112 147 172 112 147 172 112 147 172 160 210 247 172 218 250 112 147 172 112 147 172 112 147 172 112 147 172 112 147 172 112 147 172 160 210 247 112 147 172 160 210 247 160 210 247 150 201 240 105 140 168 105 140 168 105 140 168 150 201 240 105 140 168 105 140 168 105 140 168 98 134 163 98 134 163 140 192 234 98 134 163 140 192 234 98 134 163 92 128 158 132 184 227 92 128 158 92 128 158 92 128 158 92 128 158 92 128 158 92 128 158 92 128 158 92 128 158 92 128 158 92 128 158 92 128 158 92 128 158 92 128 158 84 124 155 84 124 155

231 224 182 161 156 127 161 156 127 231 224 182 161 156 127 231 224 182 161 156 127 161 156 127 231 224 182 161 156 127 161 156 127 161 156 127 166 164 133 166 164 133 161 156 127 166 164 133 166 164 133 166 164 133 161 156 127 166 164 133 166 164 133 166 164 133 238 235 191 238 235 191 156 159 126 156 159 126 156 159 126 156 159 126 156 159 126 146 150 119 146 150 119 209 215 171 146 150 119 146 150 119 209 215 171 209 215 171 209 215 171 132 142 105 189 204 150 132 142 105 132 142 105 116 137 99 189 204 150 189 204 150 116 137 99 167 197 142 167 197 142 116 137 99 116 137 99 116 137 99 116 137 99 102 133 97 102 133 97 102 133 97 102 133 97 147 191 139 147 191 139 102 133 97 120 145 115 172 208 165 120 145 115 120 145 115 172 208 165 172 208 165 147 191 139 147 191 139 102 133 97 147 191 139 147 191 139 147 191 139 167 197 142 147 191 139 167 197 142 116 137 99 167 197 142 167 197 142 189 204 150 189 204 150 189 204 150 189 204 150 189 204 150 209 215 171 209 215 171 209 215 171 209 215 171 209 215 171 209 215 171 209 215 171 224 228 180 224 228 180 224 228 180 224 228 180 224 228 180 224 228 180 224 228 180 238 235 191 238 235 191 238 235 191 166 164 133 238 235 191 238 235 191 238 235 191 238 235 191 238 235 191 238 235 191 238 235 191 166 164 133 166 164 133 166 164 133 166 164 133 238 235 191 238 235 191 166 164 133 166 164 133 166 164 133 238 235 191 238 235 191 238 235 191 238 235 191 238 235 191 238 235 191 238 235 191 238 235 191 238 235 191 231 224 182 231 224 182 231 224 182 161 156 127 231 224 182 166 164 133 166 164 133 238 235 191 238 235 191 238 235 191 166 164 133 224 228 180 156 159 126 156 159 126 146 150 119 146 150 119 209 215 171 146 150 119 132 142 105 132 142 105 132 142 105 132 142 105 116 137 99 116 137 99 116 137 99 102 133 97 102 133 97 120 145 115 120 145 115 120 145 115 172 208 165 120 145 115 151 169 177 216 242 254 216 242 254 216 242 254 137 164 178 197 235 255 197 235 255 137 164 178 197 235 255 197 235 255 197 235 255 197 235 255 137 164 178 137 164 178 137 164 178 128 158 178 184 227 255 128 158 178 128 158 178 184 227 255 184 227 255 184 227 255 128 158 178 172 218 250 120 152 175 120 152 175 172 218 250 120 152 175 120 152 175 120 152 175 120 152 175 112 147 172 112 147 172 112 147 172 112 147 172 160 210 247 160 210 247 160 210 247 160 210 247 160 210 247 172 218 250 172 218 250 172 218 250 172 218 250 172 218 250 172 218 250 172 218 250 172 218 250 172 218 250 172 218 250 172 218 250 120 152 175 120 152 175 112 147 172 120 152 175 112 147 172 160 210 247 160 210 247 172 218 250 160 210 247 172 218 250 112 147 172 112 147 172 160 210 247 112 147 172 112 147 172 160 210 247 105 140 168 160 210 247 105 140 168 105 140 168 105 140 168 105 140 168 150 201 240 150 201 240 105 140 168 105 140 168 105 140 168 98 134 163 98 134 163 140 192 234 98 134 163 98 134 163 98 134 163 98 134 163 92 128 158 92 128 158 92 128 158 92 128 158 92 128 158 92 128 158 132 184 227 132 184 227 92 128 158 92 128 158 84 124 155 92 128 158 84 124 155 84 124 155 84 124 155 84 124 155

231 224 182 161 156 127 231 224 182 231 224 182 161 156 127 161 156 127 161 156 127 161 156 127 161 156 127 161 156 127 161 156 127 166 164 133 166 164 133 166 164 133 166 164 133 166 164 133 166 164 133 166 164 133 166 164 133 166 164 133 166 164 133 166 164 133 166 164 133 166 164 133 156 159 126 224 228 180 224 228 180 156 159 126 156 159 126 156 159 126 146 150 119 209 215 171 209 215 171 209 215 171 209 215 171 209 215 171 146 150 119 132 142 105 189 204 150 132 142 105 132 142 105 116 137 99 116 137 99 116 137 99 116 137 99 116 137 99 116 137 99 116 137 99 116 137 99 116 137 99 102 133 97 102 133 97 102 133 97 102 133 97 102 133 97 102 133 97 102 133 97 102 133 97 120 145 115 120 145 115 120 145 115 120 145 115 120 145 115 172 208 165 120 145 115 120 145 115 120 145 115 147 191 139 147 191 139 147 191 139 167 197 142 116 137 99 167 197 142 167 197 142 167 197 142 167 197 142 189 204 150 189 204 150 189 204 150 189 204 150 209 215 171 209 215 171 209 215 171 209 215 171 209 215 171 209 215 171 209 215 171 224 228 180 224 228 180 224 228 180 224 228 180 224 228 180 238 235 191 224 228 180 238 235 191 238 235 191 238 235 191 238 235 191 238 235 191 238 235 191 238 235 191 238 235 191 238 235 191 166 164 133 166 164 133 166 164 133 166 164 133 166 164 133 166 164 133 238 235 191 238 235 191 238 235 191 166 164 133 238 235 191 238 235 191 238 235 191 166 164 133 238 235 191 238 235 191 238 235 191 238 235 191 231 224 182 231 224 182 231 224 182 231 224 182 231 224 182 231 224 182 161 156 127 231 224 182 231 224 182 231 224 182 238 235 191 238 235 191 166 164 133 166 164 133 166 164 133 156 159 126 156 159 126 156 159 126 146 150 119 209 215 171 146 150 119 132 142 105 132 142 105 132 142 105 132 142 105 116 137 99 116 137 99 116 137 99 102 133 97 102 133 97 102 133 97 147 191 139 172 208 165 172 208 165 120 145 115 151 169 177 151 169 177 216 242 254 151 169 177 137 164 178 137 164 178 137 164 178 197 235 255 216 242 254 197 235 255 197 235 255 197 235 255 137 164 178 137 164 178 137 164 178 137 164 178 184 227 255 128 158 178 128 158 178 184 227 255 128 158 178 184 227 255 128 158 178 184 227 255 184 227 255 120 152 175 120 152 175 120 152 175 120 152 175 120 152 175 120 152 175 112 147 172 112 147 172 112 147 172 112 147 172 160 210 247 160 210 247 160 210 247 160 210 247 160 210 247 172 218 250 172 218 250 172 218 250 172 218 250 172 218 250 172 218 250 172 218 250 172 218 250 172 218 250 172 218 250 172 218 250 120 152 175 172 218 250 172 218 250 172 218 250 112 147 172 112 147 172 160 210 247 112 147 172 112 147 172 112 147 172 112 147 172 112 147 172 112 147 172 112 147 172 160 210 247 160 210 247 105 140 168 105 140 168 105 140 168 105 140 168 105 140 168 105 140 168 150 201 240 150 201 240 105 140 168 105 140 168 105 140 168 98 134 163 98 134 163 98 134 163 98 134 163 98 134 163 98 134 163 98 134 163 92 128 158 132 184 227 132 184 227 92 128 158 92 128 158 92 128 158 92 128 158 92 128 158 92 128 158 84 124 155 84 124 155 84 124 155 84 124 155 84 124 155 84 124 155 84 124 155

231 224 182 161 156 127 231 224 182 231 224 182 161 156 127 161 156 127 161 156 127 161 156 127 161 156 127 161 156 127 161 156 127 166 164 133 238 235 191 238 235 191 166 164 133 166 164 133 166 164 133 238 235 191 238 235 191 238 235 191 238 235 191 238 235 191 238 235 191 238 235 191 156 159 126 156 159 126 156 159 126 156 159 126 224 228 180 156 159 126 224 228 180 209 215 171 209 215 171 146 150 119 209 215 171 146 150 119 132 142 105 132 142 105 132 142 105 132 142 105 116 137 99 116 137 99 167 197 142 167 197 142 167 197 142 116 137 99 116 137 99 102 133 97 102 133 97 102 133 97 102 133 97 102 133 97 102 133 97 102 133 97 102 133 97 147 191 139 147 191 139 102 133 97 120 145 115 120 145 115 120 145 115 172 208 165 120 145 115 120 145 115 120 145 115 120 145 115 172 208 165 147 191 139 147 191 139 147 191 139 147 191 139 102 133 97 167 197 142 167 197 142 167 197 142 167 197 142 189 204 150 189 204 150 189 204 150 189 204 150 209 215 171 209 215 171 209 215 171 209 215 171 209 215 171 209 215 171 224 228 180 224 228 180 224 228 180 224 228 180 224 228 180 238 235 191 238 235 191 238 235 191 238 235 191 238 235 191 238 235 191 238 235 191 238 235 191 238 235 191 238 235 191 238 235 191 238 235 191 166 164 133 166 164 133 166 164 133 238 235 191 238 235 191 238 235 191 238 235 191 238 235 191 238 235 191 238 235 191 238 235 191 238 235 191 166 164 133 238 235 191 238 235 191 238 235 191 238 235 191 238 235 191 231 224 182 231 224 182 231 224 182 231 224 182 231 224 182 231 224 182 231 224 182 231 224 182 231 224 182 231 224 182 166 164 133 238 235 191 166 164 133 166 164 133 166 164 133 238 235 191 156 159 126 156 159 126 146 150 119 146 150 119 146 150 119 146 150 119 132 142 105 189 204 150 189 204 150 116 137 99 116 137 99 116 137 99 116 137 99 147 191 139 147 191 139 147 191 139 120 145 115 120 145 115 120 145 115 120 145 115 151 169 177 151 169 177 151 169 177 216 242 254 197 235 255 197 235 255 197 235 255 216 242 254 216 242 254 137 164 178 197 235 255 197 235 255 197 235 255 197 235 255 137 164 178 197 235 255 128 158 178 128 158 178 128 158 178 128 158 178 184 227 255 184 227 255 184 227 255 184 227 255 120 152 175 120 152 175 120 152 175 120 152 175 120 152 175 112 147 172 112 147 172 112 147 172 160 210 247 160 210 247 160 210 247 160 210 247 112 147 172 160 210 247 160 210 247 172 218 250 172 218 250 112 147 172 120 152 175 172 218 250 172 218 250 172 218 250 172 218 250 172 218 250 172 218 250 172 218 250 120 152 175 172 218 250 120 152 175 112 147 172 112 147 172 160 210 247 112 147 172 112 147 172 160 210 247 172 218 250 160 210 247 160 210 247 160 210 247 160 210 247 112 147 172 112 147 172 105 140 168 105 140 168 105 140 168 105 140 168 105 140 168 150 201 240 150 201 240 105 140 168 105 140 168 150 201 240 105 140 168 98 134 163 98 134 163 98 134 163 98 134 163 98 134 163 92 128 158 98 134 163 92 128 158 92 128 158 92 128 158 92 128 158 92 128 158 92 128 158 92 128 158 132 184 227 92 128 158 84 124 155 84 124 155 84 124 155 84 124 155 84 124 155 84 124 155 84 124 155

231 224 182 231 224 182 231 224 182 231 224 182 161 156 127 161 156 127 161 156 127 231 224 182 231 224 182 161 156 127 161 156 127 166 164 133 166 164 133 166 164 133 166 164 133 238 235 191 166 164 133 238 235 191 166 164 133 166 164 133 166 164 133 166 164 133 166 164 133 166 164 133 156 159 126 224 228 180 156 159 126 156 159 126 224 228 180 156 159 126 146 150 119 146 150 119 146 150 119 146 150 119 146 150 119 146 150 119 146 150 119 132 142 105 132 142 105 132 142 105 116 137 99 116 137 99 116 137 99 116 137 99 116 137 99 116 137 99 116 137 99 102 133 97 102 133 97 102 133 97 102 133 97 102 133 97 102 133 97 102 133 97 102 133 97 102 133 97 102 133 97 120 145 115 120 145 115 120 145 115 120 145 115 120 145 115 120 145 115 120 145 115 172 208 165 172 208 165 172 208 165 147 191 139 147 191 139 102 133 97 147 191 139 147 191 139 147 191 139 167 197 142 167 197 142 189 204 150 189 204 150 189 204 150 189 204 150 189 204 150 189 204 150 209 215 171 209 215 171 209 215 171 209 215 171 224 228 180 224 228 180 224 228 180 224 228 180 224 228 180 224 228 180 238 235 191 238 235 191 166 164 133 238 235 191 238 235 191 238 235 191 238 235 191 238 235 191 238 235 191 166 164 133 166 164 133 238 235 191 166 164 133 238 235 191 238 235 191 238 235 191 238 235 191 166 164 133 166 164 133 166 164 133 238 235 191 166 164 133 238 235 191 238 235 191 238 235 191 238 235 191 238 235 191 238 235 191 231 224 182 231 224 182 231 224 182 231 224 182 231 224 182 231 224 182 231 224 182 231 224 182 231 224 182 231 224 182 231 224 182 231 224 182 231 224 182 231 224 182 166 164 133 166 164 133 166 164 133 156 159 126 156 159 126 156 159 126 156 159 126 146 150 119 146 150 119 146 150 119 132 142 105 132 142 105 132 142 105 116 137 99 116 137 99 116 137 99 116 137 99 102 133 97 102 133 97 102 133 97 102 133 97 120 145 115 120 145 115 120 145 115 151 169 177 151 169 177 151 169 177 216 242 254 137 164 178 137 164 178 197 235 255 197 235 255 137 164 178 137 164 178 197 235 255 137 164 178 137 164 178 137 164 178 137 164 178 197 235 255 128 158 178 128 158 178 128 158 178 184 227 255 184 227 255 184 227 255 128 158 178 120 152 175 120 152 175 120 152 175 120 152 175 120 152 175 112 147 172 112 147 172 160 210 247 160 210 247 160 210 247 160 210 247 160 210 247 112 147 172 112 147 172 112 147 172 112 147 172 112 147 172 120 152 175 120 152 175 172 218 250 172 218 250 172 218 250 120 152 175 120 152 175 120 152 175 120 152 175 120 152 175 120 152 175 172 218 250 112 147 172 112 147 172 112 147 172 160 210 247 112 147 172 160 210 247 112 147 172 160 210 247 112 147 172 112 147 172 112 147 172 112 147 172 112 147 172 112 147 172 160 210 247 105 140 168 105 140 168 105 140 168 105 140 168 105 140 168 105 140 168 105 140 168 105 140 168 98 134 163 98 134 163 98 134 163 98 134 163 98 134 163 98 134 163 92 128 158 140 192 234 92 128 158 92 128 158 92 128 158 92 128 158 92 128 158 92 128 158 92 128 158 84 124 155 84 124 155 84 124 155 84 124 155 84 124 155 84 124 155 84 124 155 79 119 151 79 119 151 79 119 151

231 224 182 161 156 127 161 156 127 231 224 182 161 156 127 161 156 127 231 224 182 231 224 182 161 156 127 161 156 127 231 224 182 231 224 182 238 235 191 166 164 133 166 164 133 238 235 191 238 235 191 238 235 191 238 235 191 238 235 191 238 235 191 166 164 133 166 164 133 166 164 133 156 159 126 156 159 126 156 159 126 224 228 180 156 159 126 156 159 126 156 159 126 209 215 171 209 215 171 209 215 171 209 215 171 146 150 119 209 215 171 132 142 105 132 142 105 132 142 105 116 137 99 116 137 99 116 137 99 167 197 142 116 137 99 116 137 99 116 137 99 102 133 97 102 133 97 102 133 97 102 133 97 102 133 97 102 133 97 102 133 97 120 145 115 102 133 97 120 145 115 120 145 115 172 208 165 172 208 165 120 145 115 172 208 165 172 208 165 172 208 165 172 208 165 172 208 165 147 191 139 147 191 139 147 191 139 147 191 139 147 191 139 147 191 139 147 191 139 167 197 142 167 197 142 189 204 150 189 204 150 189 204 150 189 204 150 189 204 150 209 215 171 209 215 171 209 215 171 209 215 171 209 215 171 224 228 180 224 228 180 224 228 180 224 228 180 224 228 180 224 228 180 238 235 191 238 235 191 238 235 191 238 235 191 238 235 191 238 235 191 238 235 191 238 235 191 238 235 191 238 235 191 238 235 191 238 235 191 166 164 133 238 235 191 238 235 191 238 235 191 238 235 191 238 235 191 238 235 191 166 164 133 238 235 191 238 235 191 238 235 191 238 235 191 238 235 191 238 235 191 238 235 191 231 224 182 231 224 182 231 224 182 231 224 182 231 224 182 231 224 182 231 224 182 231 224 182 231 224 182 231 224 182 231 224 182 231 224 182 231 224 182 231 224 182 161 156 127 166 164 133 166 164 133 166 164 133 166 164 133 156 159 126 224 228 180 156 159 126 146 150 119 146 150 119 146 150 119 132 142 105 132 142 105 132 142 105 116 137 99 116 137 99 116 137 99 116 137 99 102 133 97 102 133 97 102 133 97 120 145 115 120 145 115 120 145 115 120 145 115 151 169 177 151 169 177 151 169 177 137 164 178 137 164 178 197 235 255 197 235 255 197 235 255 137 164 178 137 164 178 137 164 178 137 164 178 137 164 178 137 164 178 137 164 178 197 235 255 128 158 178 184 227 255 128 158 178 128 158 178 128 158 178 184 227 255 128 158 178 120 152 175 120 152 175 120 152 175 120 152 175 172 218 250 172 218 250 172 218 250 160 210 247 112 147 172 112 147 172 160 210 247 160 210 247 112 147 172 160 210 247 160 210 247 160 210 247 160 210 247 160 210 247 112 147 172 172 218 250 172 218 250 172 218 250 172 218 250 120 152 175 120 152 175 120 152 175 172 218 250 172 218 250 112 147 172 112 147 172 112 147 172 112 147 172 160 210 247 160 210 247 160 210 247 160 210 247 160 210 247 112 147 172 112 147 172 112 147 172 112 147 172 105 140 168 112 147 172 160 210 247 105 140 168 105 140 168 150 201 240 150 201 240 105 140 168 105 140 168 105 140 168 98 134 163 98 134 163 98 134 163 98 134 163 98 134 163 98 134 163 98 134 163 92 128 158 132 184 227 92 128 158 92 128 158 92 128 158 92 128 158 92 128 158 84 124 155 84 124 155 84 124 155 84 124 155 84 124 155 84 124 155 84 124 155 79 119 151 79 119 151 79 119 151 79 119 151 79 119 151

231 224 182 161 156 127 161 156 127 231 224 182 231 224 182 161 156 127 231 224 182 231 224 182 231 224 182 231 224 182 231 224 182 161 156 127 166 164 133 166 164 133 166 164 133 166 164 133 166 164 133 238 235 191 238 235 191 238 235 191 166 164 133 166 164 133 166 164 133 156 159 126 156 159 126 156 159 126 156 159 126 224 228 180 156 159 126 156 159 126 156 159 126 224 228 180 209 215 171 209 215 171 146 150 119 146 150 119 146 150 119 132 142 105 132 142 105 132 142 105 189 204 150 167 197 142 167 197 142 167 197 142 116 137 99 116 137 99 102 133 97 102 133 97 102 133 97 102 133 97 102 133 97 102 133 97 102 133 97 102 133 97 120 145 115 120 145 115 120 145 115 172 208 165 120 145 115 120 145 115 120 145 115 172 208 165 172 208 165 172 208 165 172 208 165 172 208 165 147 191 139 147 191 139 147 191 139 147 191 139 147 191 139 147 191 139 167 197 142 167 197 142 167 197 142 189 204 150 189 204 150 189 204 150 189 204 150 209 215 171 209 215 171 209 215 171 209 215 171 209 215 171 209 215 171 224 228 180 224 228 180 224 228 180 224 228 180 224 228 180 238 235 191 238 235 191 238 235 191 166 164 133 238 235 191 238 235 191 238 235 191 231 224 182 166 164 133 166 164 133 166 164 133 166 164 133 238 235 191 238 235 191 238 235 191 238 235 191 238 235 191 238 235 191 238 235 191 166 164 133 166 164 133 238 235 191 238 235 191 238 235 191 238 235 191 238 235 191 238 235 191 238 235 191 238 235 191 166 164 133 231 224 182 161 156 127 231 224 182 231 224 182 231 224 182 231 224 182 222 214 163 222 214 163 222 214 163 222 214 163 231 224 182 161 156 127 161 156 127 161 156 127 166 164 133 166 164 133 238 235 191 238 235 191 156 159 126 156 159 126 146 150 119 146 150 119 146 150 119 132 142 105 132 142 105 132 142 105 116 137 99 116 137 99 116 137 99 116 137 99 102 133 97 102 133 97 102 133 97 120 145 115 120 145 115 120 145 115 151 169 177 151 169 177 151 169 177 137 164 178 137 164 178 197 235 255 197 235 255 137 164 178 197 235 255 197 235 255 137 164 178 137 164 178 137 164 178 137 164 178 137 164 178 137 164 178 197 235 255 137 164 178 128 158 178 128 158 178 128 158 178 184 227 255 184 227 255 128 158 178 128 158 178 120 152 175 120 152 175 172 218 250 120 152 175 172 218 250 120 152 175 120 152 175 112 147 172 112 147 172 160 210 247 112 147 172 112 147 172 160 210 247 112 147 172 112 147 172 160 210 247 112 147 172 172 218 250 172 218 250 172 218 250 172 218 250 120 152 175 112 147 172 112 147 172 112 147 172 112 147 172 120 152 175 120 152 175 160 210 247 112 147 172 112 147 172 112 147 172 112 147 172 112 147 172 160 210 247 160 210 247 112 147 172 112 147 172 112 147 172 112 147 172 105 140 168 160 210 247 112 147 172 105 140 168 105 140 168 150 201 240 150 201 240 105 140 168 105 140 168 98 134 163 98 134 163 98 134 163 98 134 163 92 128 158 92 128 158 92 128 158 92 128 158 92 128 158 92 128 158 92 128 158 92 128 158 92 128 158 92 128 158 92 128 158 84 124 155 84 124 155 121 178 222 121 178 222 84 124 155 84 124 155 79 119 151 79 119 151 79 119 151 79 119 151 79 119 151 79 119 151

231 224 182 161 156 127 231 224 182 231 224 182 231 224 182 161 156 127 231 224 182 231 224 182 231 224 182 161 156 127 231 224 182 161 156 127 231 224 182 166 164 133 166 164 133 166 164 133 166 164 133 238 235 191 238 235 191 166 164 133 166 164 133 166 164 133 166 164 133 156 159 126 156 159 126 224 228 180 156 159 126 224 228 180 224 228 180 156 159 126 224 228 180 224 228 180 224 228 180 146 150 119 146 150 119 146 150 119 146 150 119 132 142 105 132 142 105 132 142 105 132 142 105 132 142 105 116 137 99 116 137 99 116 137 99 116 137 99 102 133 97 102 133 97 102 133 97 102 133 97 102 133 97 102 133 97 102 133 97 120 145 115 120 145 115 120 145 115 120 145 115 172 208 165 172 208 165 147 191 139 147 191 139 172 208 165 172 208 165 172 208 165 172 208 165 172 208 165 147 191 139 147 191 139 147 191 139 147 191 139 167 197 142 147 191 139 167 197 142 167 197 142 167 197 142 189 204 150 189 204 150 189 204 150 209 215 171 209 215 171 209 215 171 209 215 171 209 215 171 209 215 171 224 228 180 224 228 180 224 228 180 224 228 180 238 235 191 224 228 180 224 228 180 238 235 191 238 235 191 166 164 133 238 235 191 238 235 191 231 224 182 231 224 182 231 224 182 238 235 191 166 164 133 238 235 191 238 235 191 238 235 191 238 235 191 238 235 191 238 235 191 166 164 133 238 235 191 166 164 133 166 164 133 238 235 191 238 235 191 238 235 191 238 235 191 238 235 191 238 235 191 238 235 191 238 235 191 231 224 182 231 224 182 231 224 182 231 224 182 231 224 182 231 224 182 231 224 182 222 214 163 222 214 163 210 202 157 222 214 163 222 214 163 161 156 127 161 156 127 231 224 182 231 224 182 166 164 133 238 235 191 156 159 126 156 159 126 156 159 126 146 150 119 146 150 119 146 150 119 132 142 105 132 142 105 132 142 105 116 137 99 116 137 99 116 137 99 116 137 99 102 133 97 102 133 97 102 133 97 120 145 115 120 145 115 172 208 165 151 169 177 151 169 177 151 169 177 137 164 178 137 164 178 137 164 178 137 164 178 197 235 255 216 242 254 216 242 254 137 164 178 137 164 178 197 235 255 197 235 255 197 235 255 137 164 178 197 235 255 197 235 255 128 158 178 128 158 178 128 158 178 184 227 255 184 227 255 184 227 255 184 227 255 120 152 175 120 152 175 120 152 175 120 152 175 120 152 175 120 152 175 112 147 172 112 147 172 160 210 247 160 210 247 112 147 172 112 147 172 160 210 247 160 210 247 160 210 247 160 210 247 160 210 247 160 210 247 172 218 250 172 218 250 172 218 250 120 152 175 112 147 172 112 147 172 112 147 172 112 147 172 112 147 172 112 147 172 112 147 172 112 147 172 112 147 172 160 210 247 160 210 247 160 210 247 160 210 247 160 210 247 112 147 172 112 147 172 112 147 172 112 147 172 112 147 172 160 210 247 105 140 168 105 140 168 150 201 240 150 201 240 150 201 240 150 201 240 105 140 168 98 134 163 98 134 163 98 134 163 98 134 163 92 128 158 92 128 158 92 128 158 132 184 227 92 128 158 132 184 227 132 184 227 92 128 158 132 184 227 92 128 158 92 128 158 92 128 158 132 184 227 121 178 222 84 124 155 84 124 155 84 124 155 79 119 151 79 119 151 79 119 151 79 119 151 79 119 151 79 119 151

231 224 182 161 156 127 231 224 182 231 224 182 161 156 127 231 224 182 231 224 182 161 156 127 231 224 182 161 156 127 231 224 182 231 224 182 166 164 133 166 164 133 166 164 133 166 164 133 238 235 191 238 235 191 238 235 191 166 164 133 166 164 133 166 164 133 156 159 126 156 159 126 156 159 126 156 159 126 156 159 126 156 159 126 156 159 126 156 159 126 224 228 180 224 228 180 156 159 126 146 150 119 209 215 171 146 150 119 146 150 119 209 215 171 189 204 150 189 204 150 189 204 150 189 204 150 189 204 150 116 137 99 116 137 99 116 137 99 167 197 142 147 191 139 147 191 139 147 191 139 102 133 97 147 191 139 102 133 97 147 191 139 147 191 139 172 208 165 147 191 139 147 191 139 147 191 139 147 191 139 147 191 139 147 191 139 172 208 165 172 208 165 172 208 165 147 191 139 147 191 139 147 191 139 147 191 139 147 191 139 147 191 139 167 197 142 167 197 142 167 197 142 167 197 142 167 197 142 189 204 150 189 204 150 189 204 150 209 215 171 209 215 171 146 150 119 146 150 119 209 215 171 224 228 180 224 228 180 224 228 180 156 159 126 224 228 180 156 159 126 224 228 180 224 228 180 156 159 126 238 235 191 238 235 191 238 235 191 231 224 182 161 156 127 166 164 133 166 164 133 166 164 133 238 235 191 238 235 191 166 164 133 166 164 133 166 164 133 166 164 133 166 164 133 166 164 133 166 164 133 166 164 133 238 235 191 166 164 133 238 235 191 238 235 191 238 235 191 238 235 191 166 164 133 166 164 133 238 235 191 231 224 182 231 224 182 231 224 182 231 224 182 231 224 182 231 224 182 222 214 163 222 214 163 155 149 114 155 149 114 161 156 127 161 156 127 161 156 127 161 156 127 166 164 133 166 164 133 166 164 133 166 164 133 156 159 126 156 159 126 146 150 119 146 150 119 146 150 119 132 142 105 132 142 105 132 142 105 116 137 99 116 137 99 116 137 99 116 137 99 102 133 97 102 133 97 102 133 97 102 133 97 120 145 115 120 145 115 151 169 177 151 169 177 151 169 177 151 169 177 197 235 255 197 235 255 197 235 255 197 235 255 197 235 255 137 164 178 137 164 178 137 164 178 197 235 255 137 164 178 137 164 178 197 235 255 197 235 255 137 164 178 197 235 255 128 158 178 184 227 255 128 158 178 184 227 255 128 158 178 128 158 178 120 152 175 172 218 250 120 152 175 120 152 175 120 152 175 120 152 175 112 147 172 112 147 172 112 147 172 112 147 172 112 147 172 112 147 172 160 210 247 160 210 247 160 210 247 160 210 247 160 210 247 172 218 250 172 218 250 172 218 250 120 152 175 120 152 175 172 218 250 160 210 247 112 147 172 160 210 247 160 210 247 160 210 247 112 147 172 160 210 247 160 210 247 112 147 172 112 147 172 112 147 172 112 147 172 112 147 172 112 147 172 112 147 172 112 147 172 160 210 247 105 140 168 105 140 168 105 140 168 105 140 168 105 140 168 105 140 168 105 140 168 105 140 168 105 140 168 98 134 163 98 134 163 98 134 163 98 134 163 92 128 158 92 128 158 92 128 158 132 184 227 92 128 158 132 184 227 92 128 158 92 128 158 92 128 158 92 128 158 84 124 155 84 124 155 84 124 155 84 124 155 84 124 155 84 124 155 84 124 155 79 119 151 79 119 151 79 119 151 79 119 151 79 119 151 113 171 216

231 224 182 161 156 127 231 224 182 231 224 182 231 224 182 231 224 182 231 224 182 231 224 182 231 224 182 161 156 127 231 224 182 231 224 182 161 156 127 166 164 133 166 164 133 238 235 191 238 235 191 166 164 133 166 164 133 166 164 133 166 164 133 238 235 191 156 159 126 156 159 126 156 159 126 156 159 126 224 228 180 156 159 126 156 159 126 224 228 180 224 228 180 156 159 126 156 159 126 156 159 126 146 150 119 146 150 119 146 150 119 209 215 171 209 215 171 189 204 150 189 204 150 132 142 105 132 142 105 116 137 99 116 137 99 116 137 99 167 197 142 167 197 142 147 191 139 102 133 97 147 191 139 147 191 139 102 133 97 147 191 139 147 191 139 147 191 139 147 191 139 147 191 139 147 191 139 147 191 139 147 191 139 147 191 139 147 191 139 172 208 165 147 191 139 147 191 139 147 191 139 147 191 139 147 191 139 147 191 139 167 197 142 167 197 142 167 197 142 167 197 142 167 197 142 167 197 142 189 204 150 132 142 105 189 204 150 209 215 171 209 215 171 209 215 171 209 215 171 209 215 171 146 150 119 146 150 119 156 159 126 156 159 126 156 159 126 156 159 126 224 228 180 156 159 126 156 159 126 224 228 180 238 235 191 238 235 191 231 224 182 161 156 127 166 164 133 238 235 191 166 164 133 238 235 191 166 164 133 238 235 191 238 235 191 238 235 191 238 235 191 238 235 191 166 164 133 166 164 133 166 164 133 156 159 126 166 164 133 238 235 191 238 235 191 166 164 133 238 235 191 238 235 191 166 164 133 238 235 191 231 224 182 231 224 182 231 224 182 231 224 182 231 224 182 231 224 182 222 214 163 155 149 114 155 149 114 155 149 114 161 156 127 161 156 127 161 156 127 161 156 127 166 164 133 166 164 133 166 164 133 156 159 126 156 159 126 146 150 119 146 150 119 146 150 119 146 150 119 132 142 105 132 142 105 132 142 105 116 137 99 116 137 99 116 137 99 116 137 99 102 133 97 102 133 97 102 133 97 120 145 115 120 145 115 120 145 115 120 145 115 151 169 177 151 169 177 216 242 254 151 169 177 197 235 255 197 235 255 197 235 255 197 235 255 197 235 255 137 164 178 137 164 178 197 235 255 197 235 255 197 235 255 197 235 255 197 235 255 197 235 255 197 235 255 128 158 178 184 227 255 128 158 178 184 227 255 128 158 178 184 227 255 128 158 178 120 152 175 120 152 175 120 152 175 172 218 250 120 152 175 112 147 172 160 210 247 160 210 247 160 210 247 112 147 172 112 147 172 160 210 247 160 210 247 160 210 247 160 210 247 160 210 247 172 218 250 172 218 250 172 218 250 120 152 175 172 218 250 172 218 250 120 152 175 160 210 247 160 210 247 112 147 172 160 210 247 160 210 247 160 210 247 112 147 172 160 210 247 112 147 172 112 147 172 112 147 172 112 147 172 112 147 172 112 147 172 105 140 168 112 147 172 105 140 168 105 140 168 105 140 168 105 140 168 105 140 168 150 201 240 105 140 168 105 140 168 98 134 163 98 134 163 98 134 163 98 134 163 98 134 163 92 128 158 92 128 158 132 184 227 132 184 227 132 184 227 132 184 227 132 184 227 92 128 158 92 128 158 92 128 158 84 124 155 84 124 155 121 178 222 84 124 155 84 124 155 84 124 155 121 178 222 79 119 151 79 119 151 79 119 151 79 119 151 79 119 151 113 171 216

231 224 182 231 224 182 231 224 182 161 156 127 231 224 182 231 224 182 231 224 182 161 156 127 161 156 127 161 156 127 161 156 127 161 156 127 166 164 133 166 164 133 166 164 133 238 235 191 166 164 133 238 235 191 166 164 133 166 164 133 166 164 133 166 164 133 156 159 126 156 159 126 156 159 126 224 228 180 224 228 180 156 159 126 156 159 126 224 228 180 224 228 180 156 159 126 146 150 119 156 159 126 146 150 119 209 215 171 146 150 119 209 215 171 209 215 171 146 150 119 209 215 171 132 142 105 189 204 150 132 142 105 116 137 99 167 197 142 167 197 142 116 137 99 116 137 99 167 197 142 147 191 139 102 133 97 147 191 139 147 191 139 147 191 139 147 191 139 147 191 139 147 191 139 102 133 97 147 191 139 147 191 139 147 191 139 147 191 139 147 191 139 147 191 139 147 191 139 147 191 139 147 191 139 147 191 139 147 191 139 167 197 142 167 197 142 167 197 142 167 197 142 189 204 150 189 204 150 189 204 150 189 204 150 189 204 150 189 204 150 132 142 105 146 150 119 209 215 171 146 150 119 146 150 119 209 215 171 146 150 119 224 228 180 224 228 180 224 228 180 156 159 126 224 228 180 224 228 180 224 228 180 238 235 191 238 235 191 238 235 191 166 164 133 166 164 133 166 164 133 166 164 133 166 164 133 238 235 191 238 235 191 166 164 133 166 164 133 238 235 191 166 164 133 166 164 133 166 164 133 156 159 126 156 159 126 224 228 180 238 235 191 238 235 191 166 164 133 238 235 191 166 164 133 238 235 191 238 235 191 231 224 182 161 156 127 231 224 182 231 224 182 231 224 182 231 224 182 222 214 163 161 156 127 161 156 127 161 156 127 161 156 127 161 156 127 161 156 127 161 156 127 166 164 133 166 164 133 166 164 133 156 159 126 156 159 126 156 159 126 146 150 119 146 150 119 146 150 119 132 142 105 132 142 105 132 142 105 116 137 99 116 137 99 116 137 99 102 133 97 102 133 97 102 133 97 102 133 97 147 191 139 172 208 165 120 145 115 120 145 115 151 169 177 151 169 177 216 242 254 216 242 254 216 242 254 216 242 254 197 235 255 197 235 255 137 164 178 137 164 178 137 164 178 137 164 178 137 164 178 137 164 178 197 235 255 137 164 178 137 164 178 197 235 255 137 164 178 184 227 255 184 227 255 184 227 255 184 227 255 128 158 178 128 158 178 120 152 175 120 152 175 172 218 250 172 218 250 120 152 175 112 147 172 160 210 247 172 218 250 112 147 172 112 147 172 160 210 247 160 210 247 160 210 247 160 210 247 160 210 247 172 218 250 160 210 247 120 152 175 120 152 175 120 152 175 112 147 172 112 147 172 112 147 172 112 147 172 112 147 172 160 210 247 160 210 247 160 210 247 112 147 172 112 147 172 160 210 247 112 147 172 112 147 172 112 147 172 112 147 172 112 147 172 105 140 168 105 140 168 105 140 168 105 140 168 150 201 240 150 201 240 105 140 168 105 140 168 150 201 240 105 140 168 105 140 168 105 140 168 98 134 163 98 134 163 98 134 163 140 192 234 98 134 163 92 128 158 132 184 227 132 184 227 92 128 158 92 128 158 92 128 158 92 128 158 132 184 227 92 128 158 84 124 155 121 178 222 84 124 155 84 124 155 121 178 222 84 124 155 84 124 155 84 124 155 79 119 151 79 119 151 79 119 151 79 119 151 113 171 216

231 224 182 161 156 127 161 156 127 231 224 182 231 224 182 231 224 182 231 224 182 161 156 127 161 156 127 161 156 127 161 156 127 166 164 133 231 224 182 238 235 191 238 235 191 238 235 191 166 164 133 238 235 191 238 235 191 166 164 133 166 164 133 238 235 191 166 164 133 156 159 126 156 159 126 156 159 126 224 228 180 156 159 126 156 159 126 156 159 126 224 228 180 224 228 180 146 150 119 146 150 119 146 150 119 146 150 119 209 215 171 209 215 171 209 215 171 209 215 171 209 215 171 132 142 105 132 142 105 132 142 105 189 204 150 189 204 150 189 204 150 167 197 142 167 197 142 167 197 142 167 197 142 147 191 139 147 191 139 147 191 139 147 191 139 147 191 139 147 191 139 147 191 139 147 191 139 147 191 139 147 191 139 147 191 139 147 191 139 147 191 139 147 191 139 147 191 139 147 191 139 147 191 139 147 191 139 167 197 142 167 197 142 167 197 142 167 197 142 167 197 142 189 204 150 189 204 150 189 204 150 189 204 150 189 204 150 132 142 105 189 204 150 209 215 171 209 215 171 209 215 171 209 215 171 209 215 171 209 215 171 209 215 171 224 228 180 156 159 126 156 159 126 224 228 180 224 228 180 224 228 180 238 235 191 238 235 191 238 235 191 238 235 191 238 235 191 166 164 133 238 235 191 166 164 133 238 235 191 166 164 133 238 235 191 238 235 191 238 235 191 166 164 133 166 164 133 166 164 133 156 159 126 224 228 180 224 228 180 238 235 191 238 235 191 238 235 191 238 235 191 238 235 191 238 235 191 238 235 191 238 235 191 231 224 182 231 224 182 231 224 182 231 224 182 231 224 182 231 224 182 161 156 127 161 156 127 161 156 127 161 156 127 161 156 127 161 156 127 166 164 133 166 164 133 166 164 133 166 164 133 156 159 126 156 159 126 156 159 126 224 228 180 146 150 119 146 150 119 146 150 119 132 142 105 132 142 105 116 137 99 116 137 99 116 137 99 167 197 142 102 133 97 102 133 97 102 133 97 102 133 97 147 191 139 120 145 115 120 145 115 172 208 165 172 208 165 216 242 254 216 242 254 151 169 177 216 242 254 216 242 254 197 235 255 197 235 255 137 164 178 197 235 255 137 164 178 197 235 255 197 235 255 197 235 255 197 235 255 197 235 255 197 235 255 137 164 178 137 164 178 128 158 178 128 158 178 184 227 255 128 158 178 120 152 175 184 227 255 172 218 250 172 218 250 120 152 175 120 152 175 172 218 250 172 218 250 160 210 247 112 147 172 112 147 172 160 210 247 160 210 247 160 210 247 112 147 172 160 210 247 160 210 247 112 147 172 160 210 247 172 218 250 112 147 172 172 218 250 112 147 172 112 147 172 112 147 172 160 210 247 160 210 247 160 210 247 112 147 172 112 147 172 112 147 172 112 147 172 112 147 172 112 147 172 112 147 172 112 147 172 112 147 172 105 140 168 105 140 168 105 140 168 105 140 168 150 201 240 105 140 168 105 140 168 105 140 168 105 140 168 105 140 168 105 140 168 105 140 168 98 134 163 98 134 163 98 134 163 98 134 163 140 192 234 92 128 158 92 128 158 92 128 158 92 128 158 132 184 227 132 184 227 92 128 158 132 184 227 92 128 158 92 128 158 132 184 227 84 124 155 121 178 222 84 124 155 84 124 155 121 178 222 84 124 155 84 124 155 79 119 151 113 171 216 113 171 216 79 119 151

238 235 191 166 164 133 166 164 133 166 164 133 231 224 182 161 156 127 231 224 182 161 156 127 231 224 182 231 224 182 166 164 133 166 164 133 238 235 191 231 224 182 238 235 191 166 164 133 238 235 191 238 235 191 238 235 191 166 164 133 238 235 191 238 235 191 166 164 133 156 159 126 156 159 126 156 159 126 156 159 126 156 159 126 224 228 180 156 159 126 156 159 126 156 159 126 146 150 119 146 150 119 209 215 171 146 150 119 146 150 119 146 150 119 146 150 119 146 150 119 146 150 119 132 142 105 132 142 105 189 204 150 189 204 150 189 204 150 132 142 105 132 142 105 116 137 99 116 137 99 167 197 142 167 197 142 167 197 142 147 191 139 147 191 139 147 191 139 167 197 142 167 197 142 167 197 142 147 191 139 147 191 139 147 191 139 147 191 139 147 191 139 147 191 139 147 191 139 147 191 139 167 197 142 167 197 142 167 197 142 167 197 142 167 197 142 167 197 142 167 197 142 189 204 150 189 204 150 189 204 150 189 204 150 132 142 105 189 204 150 189 204 150 209 215 171 209 215 171 209 215 171 146 150 119 146 150 119 209 215 171 209 215 171 209 215 171 224 228 180 224 228 180 224 228 180 224 228 180 238 235 191 238 235 191 238 235 191 238 235 191 238 235 191 166 164 133 166 164 133 238 235 191 166 164 133 238 235 191 166 164 133 166 164 133 166 164 133 166 164 133 166 164 133 166 164 133 156 159 126 156 159 126 224 228 180 224 228 180 238 235 191 238 235 191 238 235 191 238 235 191 238 235 191 238 235 191 238 235 191 238 235 191 231 224 182 231 224 182 231 224 182 231 224 182 161 156 127 231 224 182 161 156 127 161 156 127 161 156 127 161 156 127 161 156 127 161 156 127 166 164 133 166 164 133 166 164 133 166 164 133 156 159 126 156 159 126 156 159 126 146 150 119 146 150 119 146 150 119 146 150 119 132 142 105 132 142 105 116 137 99 116 137 99 116 137 99 116 137 99 102 133 97 147 191 139 147 191 139 102 133 97 147 191 139 120 145 115 120 145 115 120 145 115 172 208 165 151 169 177 216 242 254 151 169 177 216 242 254 216 242 254 216 242 254 216 242 254 216 242 254 197 235 255 197 235 255 197 235 255 137 164 178 137 164 178 197 235 255 137 164 178 137 164 178 137 164 178 197 235 255 128 158 178 184 227 255 128 158 178 128 158 178 128 158 178 120 152 175 120 152 175 120 152 175 120 152 175 172 218 250 172 218 250 172 218 250 120 152 175 172 218 250 112 147 172 160 210 247 160 210 247 160 210 247 112 147 172 160 210 247 160 210 247 160 210 247 172 218 250 112 147 172 112 147 172 112 147 172 112 147 172 112 147 172 112 147 172 160 210 247 112 147 172 112 147 172 112 147 172 112 147 172 160 210 247 112 147 172 112 147 172 112 147 172 160 210 247 105 140 168 105 140 168 105 140 168 105 140 168 105 140 168 150 201 240 150 201 240 105 140 168 105 140 168 105 140 168 105 140 168 150 201 240 150 201 240 98 134 163 98 134 163 98 134 163 98 134 163 140 192 234 140 192 234 92 128 158 92 128 158 92 128 158 92 128 158 132 184 227 92 128 158 92 128 158 92 128 158 92 128 158 92 128 158 132 184 227 84 124 155 121 178 222 84 124 155 84 124 155 84 124 155 84 124 155 121 178 222 79 119 151 79 119 151 79 119 151 79 119 151

238 235 191 166 164 133 166 164 133 238 235 191 238 235 191 166 164 133 231 224 182 161 156 127 231 224 182 231 224 182 161 156 127 238 235 191 231 224 182 238 235 191 161 156 127 166 164 133 238 235 191 238 235 191 238 235 191 238 235 191 238 235 191 238 235 191 238 235 191 156 159 126 156 159 126 224 228 180 224 228 180 224 228 180 156 159 126 224 228 180 224 228 180 146 150 119 146 150 119 146 150 119 209 215 171 146 150 119 146 150 119 146 150 119 146 150 119 146 150 119 146 150 119 132 142 105 132 142 105 189 204 150 189 204 150 189 204 150 132 142 105 189 204 150 189 204 150 116 137 99 167 197 142 116 137 99 167 197 142 167 197 142 167 197 142 167 197 142 167 197 142 116 137 99 167 197 142 167 197 142 167 197 142 167 197 142 167 197 142 167 197 142 167 197 142 167 197 142 167 197 142 167 197 142 167 197 142 167 197 142 167 197 142 167 197 142 167 197 142 189 204 150 189 204 150 189 204 150 189 204 150 189 204 150 189 204 150 189 204 150 189 204 150 209 215 171 209 215 171 209 215 171 146 150 119 209 215 171 209 215 171 209 215 171 224 228 180 224 228 180 224 228 180 224 228 180 224 228 180 238 235 191 238 235 191 238 235 191 238 235 191 238 235 191 238 235 191 238 235 191 238 235 191 238 235 191 166 164 133 166 164 133 166 164 133 166 164 133 166 164 133 166 164 133 156 159 126 156 159 126 224 228 180 156 159 126 224 228 180 238 235 191 238 235 191 238 235 191 238 235 191 238 235 191 166 164 133 238 235 191 238 235 191 231 224 182 231 224 182 231 224 182 161 156 127 161 156 127 161 156 127 161 156 127 231 224 182 161 156 127 161 156 127 161 156 127 161 156 127 166 164 133 166 164 133 166 164 133 156 159 126 156 159 126 156 159 126 156 159 126 156 159 126 146 150 119 146 150 119 132 142 105 132 142 105 132 142 105 116 137 99 116 137 99 116 137 99 116 137 99 116 137 99 102 133 97 147 191 139 102 133 97 120 145 115 120 145 115 120 145 115 120 145 115 172 208 165 120 145 115 216 242 254 151 169 177 216 242 254 216 242 254 216 242 254 216 242 254 216 242 254 137 164 178 197 235 255 197 235 255 197 235 255 197 235 255 137 164 178 137 164 178 137 164 178 137 164 178 137 164 178 137 164 178 197 235 255 184 227 255 184 227 255 184 227 255 184 227 255 184 227 255 184 227 255 172 218 250 172 218 250 120 152 175 120 152 175 120 152 175 172 218 250 112 147 172 160 210 247 160 210 247 160 210 247 112 147 172 160 210 247 160 210 247 172 218 250 160 210 247 112 147 172 112 147 172 112 147 172 160 210 247 112 147 172 160 210 247 160 210 247 112 147 172 112 147 172 112 147 172 112 147 172 112 147 172 112 147 172 112 147 172 112 147 172 112 147 172 112 147 172 150 201 240 150 201 240 105 140 168 105 140 168 150 201 240 150 201 240 105 140 168 105 140 168 105 140 168 105 140 168 150 201 240 105 140 168 150 201 240 150 201 240 140 192 234 98 134 163 98 134 163 140 192 234 92 128 158 92 128 158 92 128 158 92 128 158 132 184 227 132 184 227 92 128 158 92 128 158 132 184 227 132 184 227 132 184 227 84 124 155 121 178 222 84 124 155 84 124 155 84 124 155 84 124 155 121 178 222 79 119 151 113 171 216 113 171 216 113 171 216

238 235 191 166 164 133 166 164 133 238 235 191 238 235 191 166 164 133 238 235 191 161 156 127 231 224 182 231 224 182 231 224 182 231 224 182 238 235 191 161 156 127 166 164 133 231 224 182 238 235 191 238 235 191 238 235 191 166 164 133 166 164 133 166 164 133 166 164 133 166 164 133 156 159 126 156 159 126 156 159 126 156 159 126 224 228 180 224 228 180 156 159 126 156 159 126 146 150 119 209 215 171 209 215 171 146 150 119 209 215 171 146 150 119 146 150 119 209 215 171 209 215 171 132 142 105 189 204 150 189 204 150 132 142 105 189 204 150 189 204 150 189 204 150 132 142 105 116 137 99 167 197 142 116 137 99 167 197 142 116 137 99 167 197 142 116 137 99 167 197 142 167 197 142 167 197 142 167 197 142 167 197 142 167 197 142 167 197 142 167 197 142 167 197 142 167 197 142 167 197 142 167 197 142 167 197 142 167 197 142 167 197 142 189 204 150 189 204 150 189 204 150 189 204 150 189 204 150 189 204 150 132 142 105 189 204 150 132 142 105 132 142 105 189 204 150 209 215 171 209 215 171 146 150 119 209 215 171 209 215 171 209 215 171 146 150 119 224 228 180 224 228 180 156 159 126 224 228 180 224 228 180 238 235 191 238 235 191 238 235 191 238 235 191 238 235 191 238 235 191 166 164 133 166 164 133 166 164 133 166 164 133 238 235 191 166 164 133 238 235 191 238 235 191 156 159 126 156 159 126 224 228 180 224 228 180 238 235 191 238 235 191 238 235 191 238 235 191 238 235 191 238 235 191 238 235 191 238 235 191 238 235 191 231 224 182 231 224 182 231 224 182 231 224 182 231 224 182 161 156 127 161 156 127 161 156 127 161 156 127 161 156 127 161 156 127 166 164 133 166 164 133 166 164 133 166 164 133 166 164 133 156 159 126 224 228 180 156 159 126 156 159 126 146 150 119 146 150 119 132 142 105 132 142 105 132 142 105 116 137 99 116 137 99 116 137 99 116 137 99 102 133 97 102 133 97 102 133 97 102 133 97 102 133 97 120 145 115 120 145 115 172 208 165 120 145 115 120 145 115 172 208 165 216 242 254 216 242 254 216 242 254 216 242 254 216 242 254 151 169 177 216 242 254 216 242 254 216 242 254 216 242 254 197 235 255 197 235 255 197 235 255 197 235 255 197 235 255 197 235 255 197 235 255 197 235 255 197 235 255 128 158 178 128 158 178 184 227 255 184 227 255 120 152 175 120 152 175 120 152 175 172 218 250 172 218 250 172 218 250 120 152 175 172 218 250 172 218 250 160 210 247 160 210 247 112 147 172 160 210 247 160 210 247 112 147 172 112 147 172 112 147 172 112 147 172 112 147 172 160 210 247 160 210 247 160 210 247 112 147 172 160 210 247 160 210 247 160 210 247 160 210 247 160 210 247 160 210 247 160 210 247 160 210 247 105 140 168 105 140 168 112 147 172 150 201 240 105 140 168 105 140 168 105 140 168 105 140 168 105 140 168 105 140 168 105 140 168 150 201 240 150 201 240 105 140 168 150 201 240 105 140 168 105 140 168 98 134 163 98 134 163 98 134 163 92 128 158 132 184 227 132 184 227 132 184 227 132 184 227 132 184 227 92 128 158 92 128 158 132 184 227 132 184 227 132 184 227 84 124 155 84 124 155 84 124 155 84 124 155 84 124 155 121 178 222 79 119 151 79 119 151 79 119 151 79 119 151 79 119 151

224 228 180 156 159 126 166 164 133 238 235 191 238 235 191 238 235 191 231 224 182 231 224 182 231 224 182 231 224 182 231 224 182 161 156 127 166 164 133 166 164 133 166 164 133 238 235 191 231 224 182 238 235 191 166 164 133 166 164 133 238 235 191 166 164 133 166 164 133 238 235 191 238 235 191 224 228 180 224 228 180 224 228 180 224 228 180 224 228 180 156 159 126 146 150 119 146 150 119 209 215 171 146 150 119 146 150 119 146 150 119 146 150 119 209 215 171 146 150 119 146 150 119 132 142 105 189 204 150 189 204 150 209 215 171 189 204 150 132 142 105 132 142 105 132 142 105 116 137 99 116 137 99 116 137 99 167 197 142 167 197 142 167 197 142 167 197 142 167 197 142 167 197 142 116 137 99 167 197 142 167 197 142 167 197 142 167 197 142 167 197 142 189 204 150 167 197 142 189 204 150 167 197 142 167 197 142 189 204 150 189 204 150 189 204 150 189 204 150 132 142 105 132 142 105 189 204 150 189 204 150 189 204 150 189 204 150 189 204 150 189 204 150 189 204 150 209 215 171 209 215 171 209 215 171 209 215 171 209 215 171 209 215 171 209 215 171 209 215 171 146 150 119 224 228 180 224 228 180 224 228 180 238 235 191 238 235 191 238 235 191 238 235 191 238 235 191 238 235 191 238 235 191 238 235 191 238 235 191 238 235 191 238 235 191 238 235 191 238 235 191 166 164 133 166 164 133 224 228 180 238 235 191 238 235 191 238 235 191 238 235 191 238 235 191 238 235 191 238 235 191 238 235 191 238 235 191 231 224 182 231 224 182 231 224 182 231 224 182 231 224 182 231 224 182 161 156 127 161 156 127 161 156 127 161 156 127 161 156 127 231 224 182 166 164 133 166 164 133 166 164 133 238 235 191 166 164 133 238 235 191 156 159 126 156 159 126 156 159 126 156 159 126 146 150 119 146 150 119 132 142 105 132 142 105 132 142 105 116 137 99 116 137 99 116 137 99 116 137 99 116 137 99 147 191 139 167 197 142 102 133 97 102 133 97 147 191 139 172 208 165 172 208 165 172 208 165 172 208 165 172 208 165 120 145 115 172 208 165 172 208 165 172 208 165 216 242 254 216 242 254 216 242 254 216 242 254 216 242 254 216 242 254 216 242 254 197 235 255 197 235 255 197 235 255 197 235 255 197 235 255 137 164 178 197 235 255 197 235 255 197 235 255 184 227 255 184 227 255 128 158 178 128 158 178 172 218 250 172 218 250 120 152 175 120 152 175 172 218 250 172 218 250 172 218 250 172 218 250 120 152 175 112 147 172 112 147 172 160 210 247 160 210 247 112 147 172 160 210 247 112 147 172 112 147 172 112 147 172 160 210 247 160 210 247 112 147 172 112 147 172 172 218 250 172 218 250 172 218 250 160 210 247 112 147 172 112 147 172 112 147 172 112 147 172 112 147 172 150 201 240 160 210 247 160 210 247 105 140 168 150 201 240 105 140 168 105 140 168 98 134 163 98 134 163 98 134 163 98 134 163 98 134 163 150 201 240 150 201 240 150 201 240 150 201 240 150 201 240 98 134 163 98 134 163 92 128 158 132 184 227 92 128 158 132 184 227 132 184 227 132 184 227 92 128 158 92 128 158 132 184 227 132 184 227 92 128 158 84 124 155 121 178 222 84 124 155 84 124 155 84 124 155 121 178 222 79 119 151 79 119 151 79 119 151 79 119 151 79 119 151

224 228 180 224 228 180 238 235 191 238 235 191 238 235 191 238 235 191 166 164 133 231 224 182 231 224 182 161 156 127 161 156 127 161 156 127 166 164 133 238 235 191 238 235 191 238 235 191 238 235 191 166 164 133 166 164 133 166 164 133 238 235 191 166 164 133 238 235 191 238 235 191 156 159 126 156 159 126 156 159 126 156 159 126 224 228 180 224 228 180 224 228 180 224 228 180 224 228 180 209 215 171 146 150 119 146 150 119 146 150 119 209 215 171 146 150 119 146 150 119 146 150 119 146 150 119 132 142 105 189 204 150 209 215 171 132 142 105 189 204 150 132 142 105 132 142 105 116 137 99 116 137 99 167 197 142 116 137 99 116 137 99 167 197 142 116 137 99 167 197 142 167 197 142 116 137 99 167 197 142 167 197 142 167 197 142 167 197 142 167 197 142 167 197 142 132 142 105 167 197 142 189 204 150 189 204 150 189 204 150 189 204 150 189 204 150 132 142 105 132 142 105 189 204 150 132 142 105 189 204 150 132 142 105 189 204 150 189 204 150 189 204 150 189 204 150 189 204 150 209 215 171 209 215 171 146 150 119 209 215 171 209 215 171 209 215 171 209 215 171 209 215 171 224 228 180 224 228 180 224 228 180 224 228 180 238 235 191 238 235 191 166 164 133 238 235 191 166 164 133 238 235 191 166 164 133 166 164 133 166 164 133 166 164 133 238 235 191 166 164 133 166 164 133 238 235 191 238 235 191 238 235 191 238 235 191 238 235 191 238 235 191 238 235 191 238 235 191 238 235 191 238 235 191 238 235 191 231 224 182 231 224 182 161 156 127 161 156 127 231 224 182 161 156 127 161 156 127 231 224 182 161 156 127 161 156 127 161 156 127 231 224 182 161 156 127 166 164 133 166 164 133 166 164 133 166 164 133 166 164 133 156 159 126 156 159 126 156 159 126 156 159 126 146 150 119 146 150 119 146 150 119 132 142 105 132 142 105 116 137 99 116 137 99 116 137 99 116 137 99 116 137 99 167 197 142 147 191 139 102 133 97 102 133 97 102 133 97 147 191 139 172 208 165 172 208 165 120 145 115 172 208 165 120 145 115 172 208 165 172 208 165 172 208 165 120 145 115 216 242 254 216 242 254 216 242 254 216 242 254 151 169 177 151 169 177 137 164 178 216 242 254 197 235 255 197 235 255 197 235 255 137 164 178 197 235 255 137 164 178 128 158 178 128 158 178 128 158 178 128 158 178 184 227 255 120 152 175 120 152 175 120 152 175 172 218 250 172 218 250 120 152 175 172 218 250 120 152 175 120 152 175 112 147 172 160 210 247 160 210 247 160 210 247 112 147 172 160 210 247 112 147 172 160 210 247 160 210 247 160 210 247 160 210 247 112 147 172 160 210 247 160 210 247 112 147 172 120 152 175 112 147 172 112 147 172 160 210 247 112 147 172 112 147 172 112 147 172 105 140 168 160 210 247 160 210 247 105 140 168 150 201 240 105 140 168 105 140 168 105 140 168 150 201 240 98 134 163 140 192 234 140 192 234 150 201 240 105 140 168 98 134 163 98 134 163 98 134 163 98 134 163 92 128 158 92 128 158 92 128 158 92 128 158 92 128 158 92 128 158 92 128 158 92 128 158 92 128 158 92 128 158 92 128 158 84 124 155 84 124 155 84 124 155 84 124 155 84 124 155 121 178 222 121 178 222 121 178 222 121 178 222 113 171 216 113 171 216 113 171 216

224 228 180 156 159 126 238 235 191 166 164 133 238 235 191 166 164 133 166 164 133 238 235 191 161 156 127 231 224 182 231 224 182 161 156 127 166 164 133 238 235 191 231 224 182 238 235 191 238 235 191 166 164 133 166 164 133 166 164 133 238 235 191 166 164 133 166 164 133 166 164 133 166 164 133 224 228 180 224 228 180 224 228 180 224 228 180 156 159 126 156 159 126 156 159 126 156 159 126 146 150 119 146 150 119 209 215 171 146 150 119 146 150 119 146 150 119 146 150 119 146 150 119 209 215 171 209 215 171 209 215 171 209 215 171 209 215 171 209 215 171 132 142 105 189 204 150 189 204 150 167 197 142 167 197 142 167 197 142 167 197 142 116 137 99 167 197 142 167 197 142 116 137 99 167 197 142 167 197 142 167 197 142 167 197 142 167 197 142 167 197 142 189 204 150 189 204 150 189 204 150 189 204 150 189 204 150 189 204 150 189 204 150 189 204 150 132 142 105 189 204 150 189 204 150 189 204 150 189 204 150 132 142 105 189 204 150 189 204 150 189 204 150 189 204 150 209 215 171 209 215 171 209 215 171 146 150 119 209 215 171 209 215 171 209 215 171 224 228 180 224 228 180 224 228 180 224 228 180 224 228 180 224 228 180 224 228 180 166 164 133 238 235 191 238 235 191 238 235 191 238 235 191 238 235 191 238 235 191 166 164 133 166 164 133 166 164 133 166 164 133 166 164 133 238 235 191 238 235 191 238 235 191 238 235 191 238 235 191 238 235 191 238 235 191 238 235 191 231 224 182 238 235 191 238 235 191 238 235 191 231 224 182 166 164 133 161 156 127 231 224 182 231 224 182 231 224 182 231 224 182 231 224 182 231 224 182 231 224 182 231 224 182 166 164 133 166 164 133 166 164 133 166 164 133 166 164 133 156 159 126 156 159 126 156 159 126 224 228 180 156 159 126 146 150 119 146 150 119 132 142 105 132 142 105 132 142 105 116 137 99 167 197 142 167 197 142 116 137 99 116 137 99 167 197 142 102 133 97 102 133 97 147 191 139 102 133 97 102 133 97 120 145 115 120 145 115 172 208 165 172 208 165 120 145 115 172 208 165 120 145 115 120 145 115 172 208 165 172 208 165 216 242 254 216 242 254 216 242 254 151 169 177 151 169 177 216 242 254 216 242 254 216 242 254 137 164 178 197 235 255 137 164 178 197 235 255 137 164 178 197 235 255 128 158 178 128 158 178 128 158 178 128 158 178 120 152 175 120 152 175 120 152 175 120 152 175 120 152 175 172 218 250 172 218 250 172 218 250 120 152 175 172 218 250 160 210 247 160 210 247 160 210 247 160 210 247 112 147 172 112 147 172 160 210 247 160 210 247 160 210 247 112 147 172 112 147 172 160 210 247 112 147 172 160 210 247 112 147 172 112 147 172 112 147 172 160 210 247 112 147 172 112 147 172 112 147 172 112 147 172 160 210 247 160 210 247 112 147 172 105 140 168 105 140 168 105 140 168 105 140 168 105 140 168 98 134 163 140 192 234 150 201 240 140 192 234 98 134 163 98 134 163 98 134 163 98 134 163 98 134 163 98 134 163 92 128 158 92 128 158 132 184 227 132 184 227 92 128 158 132 184 227 132 184 227 92 128 158 132 184 227 84 124 155 84 124 155 84 124 155 84 124 155 121 178 222 121 178 222 121 178 222 121 178 222 121 178 222 121 178 222 121 178 222 121 178 222 121 178 222

224 228 180 224 228 180 224 228 180 156 159 126 238 235 191 166 164 133 238 235 191 166 164 133 238 235 191 231 224 182 161 156 127 231 224 182 231 224 182 231 224 182 231 224 182 166 164 133 166 164 133 166 164 133 238 235 191 238 235 191 166 164 133 166 164 133 166 164 133 166 164 133 166 164 133 238 235 191 238 235 191 156 159 126 224 228 180 156 159 126 156 159 126 156 159 126 156 159 126 146 150 119 146 150 119 146 150 119 146 150 119 146 150 119 209 215 171 209 215 171 209 215 171 209 215 171 209 215 171 209 215 171 209 215 171 146 150 119 132 142 105 132 142 105 189 204 150 189 204 150 132 142 105 189 204 150 167 197 142 167 197 142 116 137 99 167 197 142 167 197 142 116 137 99 167 197 142 167 197 142 167 197 142 167 197 142 167 197 142 189 204 150 189 204 150 189 204 150 189 204 150 189 204 150 189 204 150 189 204 150 189 204 150 189 204 150 189 204 150 189 204 150 189 204 150 189 204 150 189 204 150 189 204 150 189 204 150 189 204 150 189 204 150 189 204 150 209 215 171 209 215 171 209 215 171 209 215 171 209 215 171 209 215 171 209 215 171 224 228 180 224 228 180 224 228 180 224 228 180 224 228 180 224 228 180 224 228 180 224 228 180 238 235 191 166 164 133 166 164 133 166 164 133 166 164 133 166 164 133 166 164 133 238 235 191 238 235 191 238 235 191 238 235 191 238 235 191 238 235 191 238 235 191 238 235 191 238 235 191 238 235 191 231 224 182 231 224 182 231 224 182 231 224 182 238 235 191 166 164 133 231 224 182 161 156 127 238 235 191 231 224 182 231 224 182 161 156 127 161 156 127 161 156 127 231 224 182 161 156 127 161 156 127 166 164 133 166 164 133 166 164 133 166 164 133 166 164 133 156 159 126 156 159 126 156 159 126 156 159 126 146 150 119 146 150 119 146 150 119 132 142 105 132 142 105 132 142 105 116 137 99 116 137 99 116 137 99 116 137 99 116 137 99 116 137 99 102 133 97 147 191 139 102 133 97 102 133 97 120 145 115 120 145 115 120 145 115 120 145 115 172 208 165 172 208 165 172 208 165 172 208 165 172 208 165 172 208 165 172 208 165 172 208 165 216 242 254 151 169 177 216 242 254 216 242 254 216 242 254 216 242 254 216 242 254 151 169 177 197 235 255 137 164 178 137 164 178 137 164 178 137 164 178 128 158 178 128 158 178 128 158 178 120 152 175 120 152 175 172 218 250 120 152 175 172 218 250 120 152 175 120 152 175 120 152 175 120 152 175 120 152 175 120 152 175 112 147 172 112 147 172 160 210 247 160 210 247 112 147 172 112 147 172 160 210 247 160 210 247 112 147 172 160 210 247 112 147 172 112 147 172 160 210 247 112 147 172 112 147 172 160 210 247 112 147 172 112 147 172 112 147 172 160 210 247 160 210 247 160 210 247 160 210 247 160 210 247 160 210 247 105 140 168 105 140 168 105 140 168 150 201 240 98 134 163 150 201 240 140 192 234 150 201 240 98 134 163 98 134 163 140 192 234 98 134 163 140 192 234 98 134 163 98 134 163 140 192 234 92 128 158 132 184 227 132 184 227 92 128 158 132 184 227 92 128 158 92 128 158 92 128 158 84 124 155 84 124 155 121 178 222 84 124 155 121 178 222 121 178 222 84 124 155 121 178 222 121 178 222 84 124 155 121 178 222 121 178 222 121 178 222

224 228 180 156 159 126 224 228 180 224 228 180 238 235 191 166 164 133 166 164 133 166 164 133 166 164 133 238 235 191 231 224 182 231 224 182 231 224 182 166 164 133 166 164 133 166 164 133 238 235 191 238 235 191 238 235 191 166 164 133 166 164 133 166 164 133 238 235 191 238 235 191 238 235 191 238 235 191 238 235 191 156 159 126 224 228 180 156 159 126 156 159 126 224 228 180 156 159 126 146 150 119 146 150 119 146 150 119 146 150 119 146 150 119 209 215 171 209 215 171 209 215 171 209 215 171 209 215 171 209 215 171 146 150 119 209 215 171 146 150 119 132 142 105 132 142 105 132 142 105 132 142 105 189 204 150 189 204 150 116 137 99 116 137 99 167 197 142 167 197 142 167 197 142 167 197 142 167 197 142 167 197 142 167 197 142 167 197 142 189 204 150 189 204 150 189 204 150 189 204 150 189 204 150 189 204 150 189 204 150 189 204 150 132 142 105 189 204 150 189 204 150 189 204 150 189 204 150 189 204 150 189 204 150 189 204 150 189 204 150 209 215 171 209 215 171 209 215 171 209 215 171 209 215 171 209 215 171 209 215 171 209 215 171 209 215 171 209 215 171 146 150 119 146 150 119 224 228 180 224 228 180 224 228 180 224 228 180 224 228 180 238 235 191 166 164 133 238 235 191 238 235 191 238 235 191 238 235 191 238 235 191 238 235 191 238 235 191 238 235 191 238 235 191 238 235 191 238 235 191 238 235 191 238 235 191 238 235 191 238 235 191 231 224 182 231 224 182 231 224 182 231 224 182 231 224 182 238 235 191 166 164 133 166 164 133 231 224 182 238 235 191 231 224 182 166 164 133 166 164 133 166 164 133 231 224 182 161 156 127 231 224 182 166 164 133 238 235 191 166 164 133 166 164 133 156 159 126 156 159 126 156 159 126 156 159 126 146 150 119 146 150 119 146 150 119 146 150 119 132 142 105 132 142 105 132 142 105 116 137 99 116 137 99 116 137 99 116 137 99 116 137 99 102 133 97 116 137 99 147 191 139 102 133 97 102 133 97 147 191 139 172 208 165 120 145 115 120 145 115 172 208 165 172 208 165 172 208 165 172 208 165 172 208 165 172 208 165 172 208 165 172 208 165 120 145 115 172 208 165 172 208 165 216 242 254 216 242 254 151 169 177 216 242 254 137 164 178 137 164 178 137 164 178 197 235 255 197 235 255 137 164 178 128 158 178 128 158 178 128 158 178 120 152 175 120 152 175 120 152 175 120 152 175 120 152 175 120 152 175 112 147 172 112 147 172 112 147 172 172 218 250 120 152 175 112 147 172 112 147 172 160 210 247 160 210 247 112 147 172 112 147 172 112 147 172 112 147 172 112 147 172 160 210 247 112 147 172 112 147 172 112 147 172 112 147 172 160 210 247 160 210 247 112 147 172 112 147 172 112 147 172 160 210 247 112 147 172 160 210 247 160 210 247 160 210 247 112 147 172 112 147 172 150 201 240 150 201 240 105 140 168 105 140 168 140 192 234 150 201 240 150 201 240 98 134 163 98 134 163 98 134 163 98 134 163 140 192 234 98 134 163 98 134 163 98 134 163 92 128 158 132 184 227 132 184 227 92 128 158 132 184 227 92 128 158 92 128 158 84 124 155 84 124 155 84 124 155 84 124 155 121 178 222 132 184 227 121 178 222 84 124 155 121 178 222 132 184 227 121 178 222 121 178 222 121 178 222 121 178 222

224 228 180 156 159 126 224 228 180 224 228 180 156 159 126 156 159 126 238 235 191 166 164 133 238 235 191 238 235 191 238 235 191 231 224 182 161 156 127 161 156 127 238 235 191 231 224 182 231 224 182 238 235 191 238 235 191 238 235 191 238 235 191 238 235 191 238 235 191 238 235 191 238 235 191 238 235 191 238 235 191 166 164 133 156 159 126 156 159 126 156 159 126 156 159 126 156 159 126 146 150 119 146 150 119 146 150 119 146 150 119 209 215 171 209 215 171 209 215 171 209 215 171 209 215 171 209 215 171 209 215 171 146 150 119 146 150 119 132 142 105 132 142 105 189 204 150 132 142 105 132 142 105 132 142 105 132 142 105 116 137 99 167 197 142 167 197 142 167 197 142 116 137 99 167 197 142 116 137 99 167 197 142 167 197 142 167 197 142 189 204 150 189 204 150 189 204 150 189 204 150 189 204 150 189 204 150 189 204 150 189 204 150 189 204 150 189 204 150 132 142 105 132 142 105 132 142 105 189 204 150 189 204 150 189 204 150 189 204 150 209 215 171 209 215 171 209 215 171 209 215 171 209 215 171 209 215 171 209 215 171 209 215 171 209 215 171 146 150 119 224 228 180 224 228 180 224 228 180 224 228 180 224 228 180 224 228 180 238 235 191 224 228 180 238 235 191 238 235 191 166 164 133 166 164 133 238 235 191 238 235 191 238 235 191 238 235 191 238 235 191 238 235 191 238 235 191 166 164 133 238 235 191 238 235 191 238 235 191 238 235 191 238 235 191 166 164 133 166 164 133 161 156 127 166 164 133 166 164 133 166 164 133 238 235 191 238 235 191 166 164 133 166 164 133 166 164 133 238 235 191 238 235 191 166 164 133 166 164 133 166 164 133 166 164 133 166 164 133 166 164 133 166 164 133 166 164 133 156 159 126 156 159 126 156 159 126 146 150 119 146 150 119 146 150 119 132 142 105 132 142 105 132 142 105 116 137 99 116 137 99 116 137 99 116 137 99 116 137 99 116 137 99 102 133 97 102 133 97 102 133 97 102 133 97 102 133 97 102 133 97 102 133 97 172 208 165 172 208 165 172 208 165 172 208 165 172 208 165 120 145 115 172 208 165 172 208 165 172 208 165 120 145 115 172 208 165 172 208 165 151 169 177 151 169 177 151 169 177 151 169 177 151 169 177 137 164 178 137 164 178 137 164 178 137 164 178 137 164 178 137 164 178 128 158 178 128 158 178 120 152 175 120 152 175 120 152 175 120 152 175 120 152 175 120 152 175 120 152 175 172 218 250 172 218 250 112 147 172 160 210 247 112 147 172 112 147 172 160 210 247 160 210 247 160 210 247 112 147 172 160 210 247 112 147 172 160 210 247 112 147 172 112 147 172 112 147 172 160 210 247 160 210 247 160 210 247 160 210 247 160 210 247 112 147 172 112 147 172 112 147 172 160 210 247 112 147 172 160 210 247 112 147 172 112 147 172 112 147 172 112 147 172 105 140 168 105 140 168 105 140 168 150 201 240 150 201 240 140 192 234 150 201 240 150 201 240 98 134 163 140 192 234 140 192 234 140 192 234 98 134 163 98 134 163 92 128 158 92 128 158 92 128 158 132 184 227 92 128 158 92 128 158 92 128 158 92 128 158 84 124 155 84 124 155 121 178 222 121 178 222 121 178 222 121 178 222 84 124 155 121 178 222 132 184 227 121 178 222 84 124 155 121 178 222 121 178 222 121 178 222

224 228 180 224 228 180 224 228 180 156 159 126 156 159 126 224 228 180 224 228 180 156 159 126 238 235 191 238 235 191 238 235 191 238 235 191 231 224 182 231 224 182 231 224 182 231 224 182 231 224 182 231 224 182 231 224 182 166 164 133 238 235 191 166 164 133 238 235 191 238 235 191 166 164 133 238 235 191 238 235 191 166 164 133 156 159 126 156 159 126 156 159 126 156 159 126 146 150 119 146 150 119 146 150 119 209 215 171 209 215 171 209 215 171 209 215 171 146 150 119 209 215 171 209 215 171 209 215 171 209 215 171 146 150 119 132 142 105 132 142 105 132 142 105 132 142 105 132 142 105 132 142 105 189 204 150 189 204 150 189 204 150 189 204 150 116 137 99 116 137 99 116 137 99 116 137 99 167 197 142 167 197 142 167 197 142 167 197 142 189 204 150 189 204 150 189 204 150 189 204 150 189 204 150 209 215 171 189 204 150 132 142 105 132 142 105 189 204 150 189 204 150 132 142 105 189 204 150 189 204 150 189 204 150 209 215 171 189 204 150 209 215 171 209 215 171 209 215 171 209 215 171 209 215 171 209 215 171 209 215 171 209 215 171 209 215 171 146 150 119 224 228 180 224 228 180 224 228 180 224 228 180 224 228 180 224 228 180 238 235 191 238 235 191 238 235 191 238 235 191 238 235 191 238 235 191 238 235 191 238 235 191 238 235 191 238 235 191 238 235 191 238 235 191 238 235 191 238 235 191 231 224 182 238 235 191 238 235 191 238 235 191 238 235 191 166 164 133 166 164 133 238 235 191 166 164 133 166 164 133 238 235 191 238 235 191 238 235 191 166 164 133 166 164 133 166 164 133 238 235 191 166 164 133 166 164 133 166 164 133 166 164 133 166 164 133 166 164 133 166 164 133 166 164 133 156 159 126 156 159 126 156 159 126 156 159 126 146 150 119 146 150 119 146 150 119 132 142 105 132 142 105 132 142 105 116 137 99 116 137 99 116 137 99 116 137 99 102 133 97 116 137 99 102 133 97 102 133 97 102 133 97 102 133 97 147 191 139 102 133 97 102 133 97 147 191 139 147 191 139 172 208 165 172 208 165 172 208 165 120 145 115 120 145 115 172 208 165 172 208 165 120 145 115 172 208 165 120 145 115 151 169 177 151 169 177 151 169 177 151 169 177 151 169 177 216 242 254 137 164 178 197 235 255 137 164 178 137 164 178 137 164 178 128 158 178 128 158 178 128 158 178 172 218 250 172 218 250 120 152 175 172 218 250 172 218 250 120 152 175 172 218 250 172 218 250 172 218 250 160 210 247 172 218 250 172 218 250 160 210 247 160 210 247 160 210 247 112 147 172 112 147 172 112 147 172 112 147 172 112 147 172 112 147 172 160 210 247 160 210 247 112 147 172 160 210 247 160 210 247 160 210 247 112 147 172 112 147 172 112 147 172 160 210 247 160 210 247 112 147 172 112 147 172 160 210 247 112 147 172 105 140 168 105 140 168 150 201 240 105 140 168 150 201 240 150 201 240 150 201 240 150 201 240 150 201 240 98 134 163 140 192 234 140 192 234 140 192 234 140 192 234 98 134 163 92 128 158 140 192 234 92 128 158 92 128 158 92 128 158 92 128 158 92 128 158 92 128 158 84 124 155 84 124 155 121 178 222 84 124 155 121 178 222 121 178 222 132 184 227 121 178 222 132 184 227 132 184 227 132 184 227 132 184 227 132 184 227 132 184 227

224 228 180 156 159 126 156 159 126 156 159 126 224 228 180 224 228 180 224 228 180 238 235 191 238 235 191 238 235 191 238 235 191 238 235 191 231 224 182 161 156 127 231 224 182 231 224 182 231 224 182 161 156 127 231 224 182 166 164 133 238 235 191 238 235 191 238 235 191 238 235 191 238 235 191 238 235 191 238 235 191 166 164 133 156 159 126 156 159 126 156 159 126 156 159 126 146 150 119 146 150 119 209 215 171 209 215 171 209 215 171 146 150 119 146 150 119 209 215 171 209 215 171 209 215 171 146 150 119 146 150 119 132 142 105 132 142 105 132 142 105 189 204 150 132 142 105 132 142 105 132 142 105 189 204 150 132 142 105 132 142 105 116 137 99 116 137 99 116 137 99 167 197 142 167 197 142 167 197 142 167 197 142 167 197 142 167 197 142 189 204 150 189 204 150 189 204 150 189 204 150 189 204 150 189 204 150 132 142 105 209 215 171 189 204 150 209 215 171 189 204 150 132 142 105 189 204 150 189 204 150 209 215 171 209 215 171 209 215 171 209 215 171 209 215 171 209 215 171 209 215 171 209 215 171 209 215 171 209 215 171 224 228 180 209 215 171 224 228 180 224 228 180 224 228 180 224 228 180 224 228 180 224 228 180 238 235 191 238 235 191 238 235 191 238 235 191 238 235 191 238 235 191 238 235 191 238 235 191 166 164 133 238 235 191 238 235 191 166 164 133 238 235 191 238 235 191 231 224 182 238 235 191 231 224 182 238 235 191 238 235 191 238 235 191 166 164 133 238 235 191 238 235 191 166 164 133 166 164 133 238 235 191 238 235 191 166 164 133 166 164 133 166 164 133 166 164 133 238 235 191 166 164 133 166 164 133 166 164 133 166 164 133 166 164 133 166 164 133 166 164 133 166 164 133 156 159 126 156 159 126 156 159 126 146 150 119 146 150 119 146 150 119 146 150 119 132 142 105 132 142 105 116 137 99 116 137 99 116 137 99 116 137 99 167 197 142 102 133 97 102 133 97 102 133 97 102 133 97 102 133 97 102 133 97 102 133 97 102 133 97 102 133 97 147 191 139 147 191 139 120 145 115 120 145 115 120 145 115 172 208 165 172 208 165 172 208 165 172 208 165 172 208 165 172 208 165 120 145 115 151 169 177 216 242 254 151 169 177 151 169 177 151 169 177 151 169 177 137 164 178 137 164 178 137 164 178 137 164 178 137 164 178 128 158 178 128 158 178 128 158 178 120 152 175 120 152 175 120 152 175 172 218 250 172 218 250 172 218 250 172 218 250 172 218 250 172 218 250 172 218 250 160 210 247 172 218 250 172 218 250 160 210 247 112 147 172 112 147 172 112 147 172 112 147 172 112 147 172 112 147 172 112 147 172 160 210 247 160 210 247 160 210 247 160 210 247 160 210 247 160 210 247 112 147 172 160 210 247 160 210 247 160 210 247 112 147 172 112 147 172 160 210 247 112 147 172 105 140 168 105 140 168 150 201 240 160 210 247 105 140 168 150 201 240 150 201 240 105 140 168 150 201 240 150 201 240 150 201 240 150 201 240 140 192 234 140 192 234 98 134 163 98 134 163 92 128 158 92 128 158 92 128 158 92 128 158 92 128 158 92 128 158 92 128 158 92 128 158 84 124 155 84 124 155 84 124 155 121 178 222 121 178 222 121 178 222 121 178 222 132 184 227 132 184 227 132 184 227 132 184 227 132 184 227 132 184 227 132 184 227

224 228 180 156 159 126 156 159 126 156 159 126 224 228 180 156 159 126 156 159 126 156 159 126 238 235 191 238 235 191 238 235 191 231 224 182 231 224 182 231 224 182 161 156 127 231 224 182 231 224 182 231 224 182 166 164 133 231 224 182 231 224 182 166 164 133 231 224 182 231 224 182 231 224 182 166 164 133 166 164 133 166 164 133 166 164 133 156 159 126 156 159 126 156 159 126 146 150 119 146 150 119 209 215 171 209 215 171 209 215 171 209 215 171 209 215 171 209 215 171 209 215 171 209 215 171 146 150 119 146 150 119 132 142 105 189 204 150 132 142 105 132 142 105 132 142 105 189 204 150 132 142 105 189 204 150 189 204 150 189 204 150 116 137 99 167 197 142 116 137 99 167 197 142 167 197 142 167 197 142 167 197 142 167 197 142 189 204 150 189 204 150 189 204 150 189 204 150 189 204 150 189 204 150 209 215 171 209 215 171 209 215 171 132 142 105 189 204 150 209 215 171 189 204 150 209 215 171 209 215 171 209 215 171 209 215 171 209 215 171 209 215 171 209 215 171 209 215 171 209 215 171 209 215 171 209 215 171 224 228 180 224 228 180 224 228 180 224 228 180 224 228 180 224 228 180 224 228 180 224 228 180 156 159 126 224 228 180 238 235 191 238 235 191 238 235 191 238 235 191 238 235 191 238 235 191 238 235 191 238 235 191 231 224 182 238 235 191 166 164 133 238 235 191 231 224 182 231 224 182 166 164 133 231 224 182 231 224 182 166 164 133 166 164 133 238 235 191 166 164 133 166 164 133 166 164 133 238 235 191 238 235 191 166 164 133 166 164 133 166 164 133 166 164 133 166 164 133 238 235 191 238 235 191 238 235 191 166 164 133 166 164 133 166 164 133 166 164 133 156 159 126 156 159 126 156 159 126 156 159 126 156 159 126 146 150 119 146 150 119 146 150 119 132 142 105 132 142 105 116 137 99 116 137 99 116 137 99 116 137 99 167 197 142 102 133 97 102 133 97 147 191 139 102 133 97 102 133 97 102 133 97 102 133 97 102 133 97 120 145 115 120 145 115 120 145 115 120 145 115 147 191 139 172 208 165 172 208 165 172 208 165 147 191 139 172 208 165 172 208 165 172 208 165 172 208 165 172 208 165 120 145 115 151 169 177 151 169 177 216 242 254 216 242 254 216 242 254 151 169 177 137 164 178 137 164 178 197 235 255 137 164 178 128 158 178 128 158 178 128 158 178 120 152 175 172 218 250 172 218 250 172 218 250 172 218 250 172 218 250 172 218 250 120 152 175 172 218 250 172 218 250 172 218 250 172 218 250 172 218 250 112 147 172 112 147 172 112 147 172 112 147 172 112 147 172 112 147 172 160 210 247 160 210 247 160 210 247 160 210 247 112 147 172 160 210 247 112 147 172 112 147 172 112 147 172 160 210 247 112 147 172 112 147 172 112 147 172 160 210 247 112 147 172 105 140 168 105 140 168 150 201 240 150 201 240 160 210 247 105 140 168 160 210 247 150 201 240 150 201 240 150 201 240 150 201 240 150 201 240 150 201 240 105 140 168 150 201 240 98 134 163 98 134 163 92 128 158 92 128 158 92 128 158 92 128 158 84 124 155 92 128 158 92 128 158 92 128 158 84 124 155 84 124 155 84 124 155 121 178 222 121 178 222 121 178 222 132 184 227 132 184 227 132 184 227 132 184 227 132 184 227 132 184 227 132 184 227 132 184 227

224 228 180 224 228 180 224 228 180 224 228 180 224 228 180 156 159 126 224 228 180 224 228 180 238 235 191 238 235 191 238 235 191 238 235 191 166 164 133 231 224 182 161 156 127 231 224 182 161 156 127 161 156 127 166 164 133 238 235 191 166 164 133 166 164 133 238 235 191 166 164 133 166 164 133 166 164 133 166 164 133 166 164 133 156 159 126 156 159 126 156 159 126 156 159 126 146 150 119 209 215 171 209 215 171 146 150 119 146 150 119 209 215 171 209 215 171 209 215 171 209 215 171 146 150 119 146 150 119 146 150 119 132 142 105 132 142 105 132 142 105 132 142 105 189 204 150 132 142 105 132 142 105 132 142 105 116 137 99 116 137 99 116 137 99 167 197 142 167 197 142 167 197 142 167 197 142 167 197 142 167 197 142 189 204 150 189 204 150 189 204 150 189 204 150 189 204 150 189 204 150 209 215 171 209 215 171 209 215 171 209 215 171 209 215 171 209 215 171 209 215 171 209 215 171 209 215 171 209 215 171 146 150 119 146 150 119 209 215 171 209 215 171 209 215 171 209 215 171 209 215 171 209 215 171 224 228 180 224 228 180 224 228 180 224 228 180 224 228 180 224 228 180 224 228 180 224 228 180 224 228 180 224 228 180 224 228 180 224 228 180 156 159 126 166 164 133 238 235 191 238 235 191 238 235 191 238 235 191 166 164 133 238 235 191 166 164 133 238 235 191 238 235 191 231 224 182 231 224 182 231 224 182 231 224 182 161 156 127 166 164 133 238 235 191 238 235 191 238 235 191 238 235 191 166 164 133 238 235 191 166 164 133 166 164 133 166 164 133 166 164 133 166 164 133 238 235 191 238 235 191 166 164 133 166 164 133 166 164 133 156 159 126 166 164 133 156 159 126 156 159 126 156 159 126 156 159 126 156 159 126 146 150 119 146 150 119 146 150 119 146 150 119 132 142 105 132 142 105 116 137 99 116 137 99 116 137 99 116 137 99 102 133 97 102 133 97 102 133 97 102 133 97 102 133 97 102 133 97 102 133 97 120 145 115 120 145 115 120 145 115 120 145 115 172 208 165 147 191 139 147 191 139 102 133 97 120 145 115 172 208 165 147 191 139 120 145 115 120 145 115 172 208 165 120 145 115 120 145 115 120 145 115 151 169 177 216 242 254 151 169 177 151 169 177 151 169 177 151 169 177 137 164 178 137 164 178 197 235 255 137 164 178 197 235 255 184 227 255 128 158 178 184 227 255 184 227 255 184 227 255 184 227 255 172 218 250 120 152 175 172 218 250 172 218 250 172 218 250 172 218 250 120 152 175 172 218 250 112 147 172 112 147 172 112 147 172 112 147 172 160 210 247 160 210 247 160 210 247 160 210 247 112 147 172 160 210 247 160 210 247 160 210 247 160 210 247 112 147 172 112 147 172 112 147 172 112 147 172 112 147 172 112 147 172 112 147 172 112 147 172 105 140 168 105 140 168 150 201 240 150 201 240 160 210 247 150 201 240 105 140 168 150 201 240 105 140 168 105 140 168 150 201 240 105 140 168 105 140 168 105 140 168 105 140 168 98 134 163 98 134 163 92 128 158 92 128 158 92 128 158 92 128 158 92 128 158 84 124 155 84 124 155 84 124 155 84 124 155 84 124 155 121 178 222 121 178 222 121 178 222 121 178 222 132 184 227 132 184 227 132 184 227 132 184 227 132 184 227 132 184 227 132 184 227 132 184 227 132 184 227

224 228 180 224 228 180 224 228 180 156 159 126 224 228 180 156 159 126 224 228 180 224 228 180 224 228 180 238 235 191 238 235 191 166 164 133 238 235 191 231 224 182 231 224 182 231 224 182 161 156 127 166 164 133 166 164 133 166 164 133 166 164 133 166 164 133 166 164 133 166 164 133 166 164 133 166 164 133 166 164 133 156 159 126 156 159 126 156 159 126 156 159 126 146 150 119 146 150 119 209 215 171 224 228 180 209 215 171 209 215 171 209 215 171 224 228 180 209 215 171 209 215 171 146 150 119 146 150 119 146 150 119 132 142 105 189 204 150 132 142 105 189 204 150 189 204 150 189 204 150 132 142 105 132 142 105 132 142 105 116 137 99 116 137 99 116 137 99 167 197 142 167 197 142 189 204 150 167 197 142 167 197 142 189 204 150 189 204 150 189 204 150 189 204 150 189 204 150 209 215 171 209 215 171 209 215 171 209 215 171 209 215 171 209 215 171 209 215 171 209 215 171 209 215 171 209 215 171 209 215 171 209 215 171 209 215 171 209 215 171 209 215 171 209 215 171 209 215 171 209 215 171 209 215 171 224 228 180 224 228 180 224 228 180 224 228 180 224 228 180 224 228 180 224 228 180 224 228 180 224 228 180 224 228 180 224 228 180 224 228 180 156 159 126 238 235 191 238 235 191 238 235 191 238 235 191 166 164 133 238 235 191 238 235 191 238 235 191 238 235 191 231 224 182 231 224 182 231 224 182 231 224 182 231 224 182 166 164 133 166 164 133 166 164 133 238 235 191 166 164 133 166 164 133 166 164 133 238 235 191 166 164 133 166 164 133 238 235 191 166 164 133 166 164 133 166 164 133 166 164 133 166 164 133 166 164 133 166 164 133 156 159 126 156 159 126 156 159 126 156 159 126 156 159 126 156 159 126 156 159 126 146 150 119 146 150 119 146 150 119 146 150 119 132 142 105 116 137 99 116 137 99 116 137 99 116 137 99 116 137 99 102 133 97 102 133 97 102 133 97 102 133 97 102 133 97 102 133 97 102 133 97 102 133 97 120 145 115 120 145 115 172 208 165 172 208 165 120 145 115 120 145 115 147 191 139 120 145 115 120 145 115 172 208 165 120 145 115 172 208 165 172 208 165 120 145 115 120 145 115 120 145 115 172 208 165 216 242 254 151 169 177 216 242 254 151 169 177 151 169 177 137 164 178 216 242 254 197 235 255 197 235 255 137 164 178 137 164 178 128 158 178 184 227 255 184 227 255 184 227 255 184 227 255 184 227 255 184 227 255 172 218 250 172 218 250 172 218 250 172 218 250 172 218 250 172 218 250 172 218 250 172 218 250 160 210 247 112 147 172 160 210 247 160 210 247 160 210 247 160 210 247 112 147 172 160 210 247 160 210 247 160 210 247 112 147 172 112 147 172 112 147 172 112 147 172 112 147 172 112 147 172 112 147 172 112 147 172 112 147 172 105 140 168 105 140 168 150 201 240 150 201 240 150 201 240 105 140 168 105 140 168 160 210 247 150 201 240 105 140 168 150 201 240 105 140 168 105 140 168 150 201 240 105 140 168 98 134 163 98 134 163 98 134 163 92 128 158 92 128 158 92 128 158 92 128 158 84 124 155 84 124 155 121 178 222 121 178 222 132 184 227 132 184 227 132 184 227 132 184 227 121 178 222 132 184 227 132 184 227 132 184 227 132 184 227 132 184 227 132 184 227 132 184 227 132 184 227 92 128 158

224 228 180 156 159 126 156 159 126 224 228 180 224 228 180 224 228 180 224 228 180 224 228 180 224 228 180 238 235 191 238 235 191 238 235 191 238 235 191 231 224 182 231 224 182 161 156 127 166 164 133 166 164 133 166 164 133 166 164 133 166 164 133 238 235 191 166 164 133 166 164 133 166 164 133 166 164 133 166 164 133 156 159 126 156 159 126 156 159 126 156 159 126 156 159 126 224 228 180 224 228 180 209 215 171 146 150 119 209 215 171 209 215 171 209 215 171 146 150 119 209 215 171 146 150 119 146 150 119 146 150 119 146 150 119 189 204 150 132 142 105 189 204 150 189 204 150 132 142 105 132 142 105 132 142 105 189 204 150 116 137 99 167 197 142 189 204 150 189 204 150 189 204 150 189 204 150 189 204 150 189 204 150 189 204 150 189 204 150 209 215 171 209 215 171 209 215 171 209 215 171 209 215 171 209 215 171 209 215 171 209 215 171 209 215 171 209 215 171 209 215 171 209 215 171 209 215 171 209 215 171 209 215 171 209 215 171 209 215 171 209 215 171 209 215 171 209 215 171 209 215 171 224 228 180 224 228 180 224 228 180 224 228 180 224 228 180 224 228 180 224 228 180 156 159 126 156 159 126 156 159 126 156 159 126 224 228 180 224 228 180 224 228 180 224 228 180 238 235 191 238 235 191 238 235 191 238 235 191 238 235 191 231 224 182 231 224 182 231 224 182 231 224 182 231 224 182 231 224 182 231 224 182 161 156 127 161 156 127 166 164 133 166 164 133 238 235 191 238 235 191 238 235 191 166 164 133 238 235 191 166 164 133 166 164 133 166 164 133 166 164 133 166 164 133 156 159 126 156 159 126 156 159 126 156 159 126 156 159 126 156 159 126 156 159 126 156 159 126 156 159 126 156 159 126 156 159 126 146 150 119 146 150 119 146 150 119 132 142 105 132 142 105 132 142 105 116 137 99 116 137 99 116 137 99 116 137 99 102 133 97 102 133 97 102 133 97 102 133 97 102 133 97 102 133 97 102 133 97 102 133 97 120 145 115 120 145 115 120 145 115 172 208 165 172 208 165 147 191 139 147 191 139 147 191 139 147 191 139 120 145 115 172 208 165 172 208 165 172 208 165 120 145 115 120 145 115 120 145 115 172 208 165 172 208 165 120 145 115 151 169 177 216 242 254 151 169 177 216 242 254 151 169 177 197 235 255 137 164 178 137 164 178 137 164 178 137 164 178 128 158 178 184 227 255 184 227 255 184 227 255 128 158 178 128 158 178 184 227 255 120 152 175 120 152 175 172 218 250 172 218 250 120 152 175 120 152 175 172 218 250 120 152 175 120 152 175 112 147 172 160 210 247 160 210 247 112 147 172 160 210 247 160 210 247 160 210 247 160 210 247 160 210 247 112 147 172 112 147 172 112 147 172 112 147 172 112 147 172 112 147 172 112 147 172 105 140 168 105 140 168 105 140 168 150 201 240 150 201 240 150 201 240 150 201 240 105 140 168 150 201 240 105 140 168 105 140 168 105 140 168 105 140 168 105 140 168 150 201 240 105 140 168 105 140 168 98 134 163 98 134 163 98 134 163 92 128 158 92 128 158 92 128 158 92 128 158 92 128 158 121 178 222 121 178 222 121 178 222 121 178 222 132 184 227 132 184 227 132 184 227 132 184 227 132 184 227 132 184 227 132 184 227 132 184 227 132 184 227 132 184 227 132 184 227 140 192 234 132 184 227

209 215 171 156 159 126 224 228 180 224 228 180 224 228 180 224 228 180 224 228 180 224 228 180 156 159 126 238 235 191 238 235 191 238 235 191 238 235 191 238 235 191 166 164 133 161 156 127 166 164 133 166 164 133 238 235 191 166 164 133 238 235 191 166 164 133 166 164 133 166 164 133 166 164 133 166 164 133 156 159 126 156 159 126 156 159 126 156 159 126 156 159 126 156 159 126 156 159 126 146 150 119 146 150 119 146 150 119 224 228 180 146 150 119 209 215 171 209 215 171 146 150 119 146 150 119 146 150 119 146 150 119 146 150 119 146 150 119 132 142 105 189 204 150 209 215 171 189 204 150 132 142 105 132 142 105 189 204 150 116 137 99 189 204 150 189 204 150 189 204 150 189 204 150 189 204 150 189 204 150 189 204 150 189 204 150 209 215 171 209 215 171 209 215 171 209 215 171 209 215 171 209 215 171 209 215 171 209 215 171 209 215 171 209 215 171 209 215 171 209 215 171 209 215 171 209 215 171 209 215 171 209 215 171 209 215 171 209 215 171 209 215 171 209 215 171 224 228 180 224 228 180 224 228 180 224 228 180 224 228 180 224 228 180 224 228 180 156 159 126 224 228 180 224 228 180 224 228 180 224 228 180 224 228 180 224 228 180 224 228 180 224 228 180 224 228 180 224 228 180 238 235 191 238 235 191 238 235 191 238 235 191 231 224 182 231 224 182 231 224 182 161 156 127 231 224 182 231 224 182 161 156 127 161 156 127 161 156 127 166 164 133 166 164 133 166 164 133 166 164 133 166 164 133 166 164 133 238 235 191 238 235 191 166 164 133 166 164 133 166 164 133 238 235 191 238 235 191 156 159 126 156 159 126 156 159 126 156 159 126 156 159 126 156 159 126 156 159 126 156 159 126 146 150 119 146 150 119 146 150 119 146 150 119 132 142 105 132 142 105 132 142 105 132 142 105 116 137 99 116 137 99 116 137 99 102 133 97 102 133 97 102 133 97 102 133 97 102 133 97 102 133 97 102 133 97 120 145 115 102 133 97 147 191 139 120 145 115 172 208 165 172 208 165 147 191 139 147 191 139 120 145 115 147 191 139 120 145 115 147 191 139 147 191 139 120 145 115 172 208 165 120 145 115 120 145 115 120 145 115 172 208 165 172 208 165 172 208 165 151 169 177 151 169 177 151 169 177 216 242 254 151 169 177 216 242 254 137 164 178 137 164 178 197 235 255 137 164 178 197 235 255 197 235 255 128 158 178 184 227 255 184 227 255 184 227 255 120 152 175 184 227 255 184 227 255 184 227 255 184 227 255 120 152 175 120 152 175 172 218 250 120 152 175 120 152 175 112 147 172 160 210 247 160 210 247 160 210 247 112 147 172 112 147 172 112 147 172 160 210 247 112 147 172 112 147 172 112 147 172 112 147 172 105 140 168 105 140 168 105 140 168 105 140 168 105 140 168 150 201 240 150 201 240 105 140 168 105 140 168 150 201 240 105 140 168 105 140 168 150 201 240 105 140 168 150 201 240 150 201 240 150 201 240 150 201 240 150 201 240 105 140 168 105 140 168 98 134 163 98 134 163 98 134 163 92 128 158 92 128 158 132 184 227 92 128 158 132 184 227 84 124 155 121 178 222 132 184 227 132 184 227 132 184 227 132 184 227 92 128 158 132 184 227 132 184 227 132 184 227 132 184 227 132 184 227 132 184 227 132 184 227 140 192 234 140 192 234 140 192 234

209 215 171 224 228 180 224 228 180 156 159 126 224 228 180 224 228 180 224 228 180 224 228 180 224 228 180 238 235 191 238 235 191 238 235 191 238 235 191 231 224 182 166 164 133 166 164 133 166 164 133 166 164 133 238 235 191 166 164 133 166 164 133 166 164 133 166 164 133 166 164 133 166 164 133 166 164 133 156 159 126 156 159 126 156 159 126 156 159 126 224 228 180 156 159 126 146 150 119 146 150 119 146 150 119 209 215 171 209 215 171 156 159 126 209 215 171 146 150 119 146 150 119 146 150 119 146 150 119 146 150 119 209 215 171 209 215 171 132 142 105 209 215 171 189 204 150 132 142 105 132 142 105 189 204 150 189 204 150 189 204 150 189 204 150 189 204 150 189 204 150 189 204 150 189 204 150 189 204 150 189 204 150 189 204 150 209 215 171 209 215 171 209 215 171 209 215 171 209 215 171 209 215 171 209 215 171 209 215 171 146 150 119 146 150 119 146 150 119 209 215 171 209 215 171 209 215 171 209 215 171 209 215 171 224 228 180 224 228 180 224 228 180 224 228 180 224 228 180 224 228 180 224 228 180 224 228 180 224 228 180 224 228 180 224 228 180 156 159 126 224 228 180 224 228 180 224 228 180 224 228 180 224 228 180 224 228 180 224 228 180 238 235 191 224 228 180 238 235 191 238 235 191 238 235 191 238 235 191 238 235 191 231 224 182 161 156 127 161 156 127 161 156 127 231 224 182 161 156 127 166 164 133 166 164 133 166 164 133 166 164 133 166 164 133 166 164 133 166 164 133 166 164 133 166 164 133 166 164 133 166 164 133 166 164 133 166 164 133 156 159 126 156 159 126 156 159 126 156 159 126 156 159 126 156 159 126 156 159 126 156 159 126 146 150 119 146 150 119 146 150 119 146 150 119 146 150 119 146 150 119 132 142 105 132 142 105 132 142 105 132 142 105 116 137 99 116 137 99 116 137 99 167 197 142 102 133 97 102 133 97 102 133 97 102 133 97 102 133 97 147 191 139 102 133 97 147 191 139 147 191 139 120 145 115 120 145 115 172 208 165 172 208 165 172 208 165 120 145 115 120 145 115 120 145 115 120 145 115 172 208 165 120 145 115 102 133 97 120 145 115 120 145 115 172 208 165 120 145 115 172 208 165 120 145 115 120 145 115 120 145 115 216 242 254 216 242 254 216 242 254 151 169 177 151 169 177 216 242 254 197 235 255 137 164 178 137 164 178 137 164 178 128 158 178 128 158 178 128 158 178 128 158 178 128 158 178 184 227 255 184 227 255 184 227 255 184 227 255 128 158 178 120 152 175 172 218 250 172 218 250 120 152 175 120 152 175 172 218 250 160 210 247 112 147 172 112 147 172 112 147 172 112 147 172 112 147 172 112 147 172 160 210 247 112 147 172 112 147 172 105 140 168 160 210 247 105 140 168 150 201 240 150 201 240 150 201 240 150 201 240 105 140 168 150 201 240 150 201 240 105 140 168 105 140 168 105 140 168 105 140 168 105 140 168 105 140 168 105 140 168 105 140 168 105 140 168 105 140 168 105 140 168 98 134 163 98 134 163 98 134 163 98 134 163 92 128 158 92 128 158 92 128 158 92 128 158 92 128 158 132 184 227 132 184 227 132 184 227 132 184 227 132 184 227 92 128 158 92 128 158 132 184 227 132 184 227 92 128 158 132 184 227 132 184 227 132 184 227 132 184 227 140 192 234 140 192 234 140 192 234

224 228 180 224 228 180 224 228 180 156 159 126 224 228 180 224 228 180 224 228 180 224 228 180 238 235 191 238 235 191 238 235 191 238 235 191 238 235 191 238 235 191 166 164 133 166 164 133 166 164 133 166 164 133 238 235 191 166 164 133 166 164 133 238 235 191 238 235 191 238 235 191 238 235 191 238 235 191 156 159 126 156 159 126 224 228 180 224 228 180 224 228 180 156 159 126 146 150 119 146 150 119 209 215 171 209 215 171 209 215 171 209 215 171 146 150 119 146 150 119 146 150 119 146 150 119 146 150 119 146 150 119 209 215 171 209 215 171 209 215 171 209 215 171 209 215 171 189 204 150 132 142 105 189 204 150 189 204 150 189 204 150 189 204 150 189 204 150 189 204 150 189 204 150 189 204 150 189 204 150 209 215 171 189 204 150 209 215 171 209 215 171 209 215 171 209 215 171 209 215 171 209 215 171 209 215 171 209 215 171 209 215 171 209 215 171 209 215 171 209 215 171 209 215 171 209 215 171 209 215 171 224 228 180 224 228 180 224 228 180 224 228 180 224 228 180 224 228 180 224 228 180 224 228 180 224 228 180 156 159 126 224 228 180 156 159 126 224 228 180 224 228 180 224 228 180 156 159 126 224 228 180 156 159 126 156 159 126 224 228 180 238 235 191 238 235 191 238 235 191 238 235 191 238 235 191 238 235 191 166 164 133 238 235 191 161 156 127 231 224 182 166 164 133 166 164 133 161 156 127 161 156 127 238 235 191 238 235 191 166 164 133 166 164 133 166 164 133 166 164 133 166 164 133 166 164 133 166 164 133 156 159 126 156 159 126 156 159 126 156 159 126 156 159 126 156 159 126 156 159 126 156 159 126 156 159 126 146 150 119 146 150 119 146 150 119 146 150 119 146 150 119 146 150 119 146 150 119 146 150 119 132 142 105 132 142 105 132 142 105 189 204 150 116 137 99 116 137 99 116 137 99 116 137 99 102 133 97 102 133 97 102 133 97 147 191 139 102 133 97 102 133 97 120 145 115 120 145 115 120 145 115 120 145 115 120 145 115 120 145 115 172 208 165 172 208 165 120 145 115 120 145 115 120 145 115 120 145 115 172 208 165 172 208 165 172 208 165 120 145 115 172 208 165 172 208 165 120 145 115 120 145 115 172 208 165 120 145 115 120 145 115 120 145 115 216 242 254 151 169 177 216 242 254 216 242 254 137 164 178 137 164 178 137 164 178 197 235 255 137 164 178 128 158 178 184 227 255 128 158 178 128 158 178 128 158 178 184 227 255 184 227 255 184 227 255 184 227 255 184 227 255 184 227 255 120 152 175 172 218 250 120 152 175 120 152 175 112 147 172 112 147 172 112 147 172 112 147 172 112 147 172 112 147 172 105 140 168 160 210 247 160 210 247 112 147 172 160 210 247 160 210 247 105 140 168 105 140 168 150 201 240 150 201 240 150 201 240 160 210 247 150 201 240 150 201 240 150 201 240 105 140 168 150 201 240 150 201 240 150 201 240 150 201 240 150 201 240 150 201 240 105 140 168 105 140 168 105 140 168 105 140 168 98 134 163 98 134 163 98 134 163 98 134 163 92 128 158 92 128 158 132 184 227 92 128 158 92 128 158 92 128 158 92 128 158 132 184 227 132 184 227 132 184 227 92 128 158 92 128 158 132 184 227 132 184 227 132 184 227 132 184 227 132 184 227 132 184 227 132 184 227 140 192 234 140 192 234 140 192 234

224 228 180 224 228 180 224 228 180 224 228 180 224 228 180 224 228 180 224 228 180 238 235 191 238 235 191 238 235 191 238 235 191 238 235 191 166 164 133 166 164 133 166 164 133 166 164 133 238 235 191 238 235 191 166 164 133 166 164 133 238 235 191 238 235 191 238 235 191 166 164 133 238 235 191 238 235 191 166 164 133 156 159 126 156 159 126 224 228 180 156 159 126 156 159 126 156 159 126 224 228 180 146 150 119 146 150 119 146 150 119 209 215 171 146 150 119 146 150 119 209 215 171 209 215 171 146 150 119 209 215 171 209 215 171 209 215 171 209 215 171 209 215 171 209 215 171 132 142 105 132 142 105 189 204 150 189 204 150 189 204 150 189 204 150 189 204 150 189 204 150 189 204 150 189 204 150 189 204 150 209 215 171 209 215 171 209 215 171 209 215 171 209 215 171 146 150 119 209 215 171 209 215 171 209 215 171 209 215 171 209 215 171 146 150 119 209 215 171 209 215 171 209 215 171 209 215 171 209 215 171 224 228 180 224 228 180 224 228 180 224 228 180 224 228 180 224 228 180 224 228 180 224 228 180 224 228 180 224 228 180 224 228 180 224 228 180 224 228 180 156 159 126 224 228 180 156 159 126 224 228 180 224 228 180 224 228 180 224 228 180 238 235 191 238 235 191 238 235 191 238 235 191 166 164 133 238 235 191 166 164 133 238 235 191 238 235 191 166 164 133 166 164 133 166 164 133 166 164 133 166 164 133 166 164 133 166 164 133 166 164 133 166 164 133 166 164 133 166 164 133 156 159 126 156 159 126 156 159 126 156 159 126 156 159 126 156 159 126 156 159 126 156 159 126 146 150 119 146 150 119 146 150 119 146 150 119 146 150 119 146 150 119 146 150 119 146 150 119 146 150 119 146 150 119 132 142 105 132 142 105 132 142 105 132 142 105 132 142 105 132 142 105 116 137 99 116 137 99 116 137 99 116 137 99 102 133 97 102 133 97 147 191 139 147 191 139 102 133 97 102 133 97 120 145 115 172 208 165 172 208 165 120 145 115 172 208 165 172 208 165 172 208 165 120 145 115 120 145 115 120 145 115 120 145 115 120 145 115 172 208 165 120 145 115 172 208 165 120 145 115 172 208 165 172 208 165 120 145 115 120 145 115 172 208 165 172 208 165 172 208 165 172 208 165 151 169 177 216 242 254 216 242 254 151 169 177 151 169 177 137 164 178 137 164 178 137 164 178 137 164 178 137 164 178 128 158 178 128 158 178 128 158 178 184 227 255 184 227 255 184 227 255 184 227 255 128 158 178 128 158 178 120 152 175 120 152 175 120 152 175 120 152 175 120 152 175 112 147 172 160 210 247 112 147 172 112 147 172 112 147 172 105 140 168 160 210 247 160 210 247 160 210 247 112 147 172 160 210 247 112 147 172 105 140 168 105 140 168 150 201 240 150 201 240 105 140 168 105 140 168 105 140 168 150 201 240 150 201 240 105 140 168 150 201 240 105 140 168 150 201 240 105 140 168 105 140 168 105 140 168 105 140 168 98 134 163 105 140 168 98 134 163 98 134 163 98 134 163 98 134 163 98 134 163 92 128 158 92 128 158 132 184 227 92 128 158 132 184 227 132 184 227 132 184 227 132 184 227 132 184 227 132 184 227 92 128 158 92 128 158 132 184 227 132 184 227 132 184 227 132 184 227 132 184 227 132 184 227 140 192 234 140 192 234 140 192 234 140 192 234

224 228 180 224 228 180 224 228 180 224 228 180 224 228 180 224 228 180 156 159 126 238 235 191 238 235 191 238 235 191 238 235 191 238 235 191 238 235 191 166 164 133 166 164 133 238 235 191 231 224 182 238 235 191 238 235 191 238 235 191 238 235 191 238 235 191 238 235 191 166 164 133 238 235 191 238 235 191 238 235 191 156 159 126 238 235 191 224 228 180 156 159 126 224 228 180 224 228 180 224 228 180 146 150 119 209 215 171 209 215 171 209 215 171 146 150 119 146 150 119 146 150 119 146 150 119 146 150 119 209 215 171 209 215 171 209 215 171 209 215 171 209 215 171 132 142 105 132 142 105 132 142 105 132 142 105 132 142 105 189 204 150 189 204 150 189 204 150 189 204 150 189 204 150 189 204 150 209 215 171 209 215 171 209 215 171 209 215 171 209 215 171 209 215 171 209 215 171 209 215 171 209 215 171 209 215 171 209 215 171 209 215 171 209 215 171 209 215 171 146 150 119 209 215 171 209 215 171 224 228 180 224 228 180 224 228 180 224 228 180 224 228 180 224 228 180 224 228 180 224 228 180 238 235 191 224 228 180 224 228 180 224 228 180 238 235 191 224 228 180 224 228 180 224 228 180 156 159 126 224 228 180 224 228 180 224 228 180 224 228 180 238 235 191 238 235 191 238 235 191 238 235 191 238 235 191 166 164 133 166 164 133 238 235 191 238 235 191 166 164 133 166 164 133 238 235 191 166 164 133 166 164 133 166 164 133 238 235 191 166 164 133 166 164 133 166 164 133 166 164 133 156 159 126 156 159 126 224 228 180 224 228 180 156 159 126 156 159 126 156 159 126 146 150 119 146 150 119 146 150 119 146 150 119 146 150 119 146 150 119 146 150 119 146 150 119 146 150 119 132 142 105 146 150 119 132 142 105 132 142 105 132 142 105 132 142 105 132 142 105 132 142 105 116 137 99 116 137 99 116 137 99 167 197 142 102 133 97 102 133 97 102 133 97 102 133 97 102 133 97 102 133 97 147 191 139 147 191 139 120 145 115 172 208 165 172 208 165 147 191 139 147 191 139 120 145 115 172 208 165 120 145 115 120 145 115 172 208 165 172 208 165 147 191 139 172 208 165 120 145 115 120 145 115 147 191 139 120 145 115 120 145 115 120 145 115 120 145 115 151 169 177 151 169 177 172 208 165 172 208 165 151 169 177 151 169 177 151 169 177 137 164 178 137 164 178 137 164 178 137 164 178 137 164 178 128 158 178 128 158 178 128 158 178 184 227 255 184 227 255 184 227 255 184 227 255 184 227 255 128 158 178 120 152 175 120 152 175 120 152 175 120 152 175 120 152 175 120 152 175 160 210 247 112 147 172 112 147 172 112 147 172 112 147 172 160 210 247 160 210 247 112 147 172 112 147 172 160 210 247 112 147 172 105 140 168 105 140 168 150 201 240 150 201 240 150 201 240 150 201 240 105 140 168 150 201 240 150 201 240 105 140 168 105 140 168 105 140 168 105 140 168 105 140 168 150 201 240 150 201 240 105 140 168 105 140 168 140 192 234 98 134 163 140 192 234 150 201 240 98 134 163 140 192 234 98 134 163 132 184 227 132 184 227 132 184 227 132 184 227 92 128 158 132 184 227 132 184 227 92 128 158 92 128 158 92 128 158 92 128 158 132 184 227 132 184 227 132 184 227 132 184 227 132 184 227 140 192 234 140 192 234 140 192 234 140 192 234 140 192 234

224 228 180 224 228 180 224 228 180 224 228 180 224 228 180 224 228 180 224 228 180 224 228 180 238 235 191 166 164 133 238 235 191 166 164 133 166 164 133 166 164 133 166 164 133 238 235 191 166 164 133 166 164 133 166 164 133 166 164 133 166 164 133 166 164 133 166 164 133 166 164 133 166 164 133 166 164 133 166 164 133 166 164 133 224 228 180 156 159 126 156 159 126 156 159 126 156 159 126 156 159 126 146 150 119 209 215 171 146 150 119 146 150 119 146 150 119 146 150 119 209 215 171 146 150 119 146 150 119 209 215 171 146 150 119 146 150 119 209 215 171 146 150 119 132 142 105 189 204 150 189 204 150 189 204 150 132 142 105 189 204 150 189 204 150 189 204 150 209 215 171 209 215 171 209 215 171 209 215 171 209 215 171 146 150 119 209 215 171 209 215 171 209 215 171 209 215 171 146 150 119 209 215 171 209 215 171 146 150 119 146 150 119 209 215 171 209 215 171 146 150 119 209 215 171 209 215 171 224 228 180 224 228 180 224 228 180 156 159 126 224 228 180 156 159 126 224 228 180 224 228 180 224 228 180 156 159 126 224 228 180 238 235 191 224 228 180 156 159 126 238 235 191 156 159 126 156 159 126 156 159 126 156 159 126 156 159 126 224 228 180 238 235 191 238 235 191 238 235 191 166 164 133 166 164 133 166 164 133 238 235 191 238 235 191 166 164 133 166 164 133 238 235 191 166 164 133 166 164 133 166 164 133 166 164 133 166 164 133 166 164 133 166 164 133 166 164 133 156 159 126 156 159 126 156 159 126 156 159 126 156 159 126 156 159 126 156 159 126 146 150 119 146 150 119 146 150 119 146 150 119 146 150 119 146 150 119 146 150 119 146 150 119 146 150 119 132 142 105 132 142 105 132 142 105 132 142 105 132 142 105 132 142 105 132 142 105 132 142 105 132 142 105 116 137 99 116 137 99 116 137 99 167 197 142 116 137 99 102 133 97 147 191 139 102 133 97 102 133 97 102 133 97 102 133 97 147 191 139 102 133 97 172 208 165 147 191 139 172 208 165 120 145 115 120 145 115 120 145 115 120 145 115 172 208 165 172 208 165 172 208 165 172 208 165 120 145 115 120 145 115 172 208 165 172 208 165 120 145 115 120 145 115 120 145 115 172 208 165 151 169 177 216 242 254 172 208 165 120 145 115 151 169 177 151 169 177 151 169 177 137 164 178 197 235 255 137 164 178 137 164 178 137 164 178 128 158 178 128 158 178 128 158 178 184 227 255 128 158 178 184 227 255 184 227 255 128 158 178 128 158 178 120 152 175 120 152 175 120 152 175 120 152 175 120 152 175 120 152 175 112 147 172 112 147 172 112 147 172 112 147 172 112 147 172 160 210 247 160 210 247 160 210 247 160 210 247 105 140 168 105 140 168 105 140 168 150 201 240 150 201 240 150 201 240 105 140 168 150 201 240 150 201 240 150 201 240 150 201 240 105 140 168 105 140 168 105 140 168 105 140 168 150 201 240 150 201 240 150 201 240 105 140 168 105 140 168 98 134 163 98 134 163 98 134 163 98 134 163 98 134 163 98 134 163 98 134 163 92 128 158 132 184 227 132 184 227 92 128 158 92 128 158 132 184 227 132 184 227 92 128 158 92 128 158 132 184 227 132 184 227 132 184 227 132 184 227 132 184 227 132 184 227 132 184 227 132 184 227 98 134 163 140 192 234 140 192 234 140 192 234

224 228 180 224 228 180 224 228 180 224 228 180 224 228 180 224 228 180 224 228 180 156 159 126 224 228 180 166 164 133 166 164 133 166 164 133 166 164 133 166 164 133 238 235 191 238 235 191 166 164 133 166 164 133 166 164 133 166 164 133 166 164 133 166 164 133 166 164 133 166 164 133 166 164 133 238 235 191 238 235 191 166 164 133 156 159 126 156 159 126 156 159 126 224 228 180 224 228 180 156 159 126 224 228 180 224 228 180 209 215 171 209 215 171 146 150 119 146 150 119 209 215 171 209 215 171 209 215 171 209 215 171 209 215 171 209 215 171 209 215 171 146 150 119 146 150 119 189 204 150 132 142 105 132 142 105 189 204 150 189 204 150 189 204 150 209 215 171 209 215 171 209 215 171 209 215 171 209 215 171 209 215 171 209 215 171 209 215 171 146 150 119 209 215 171 209 215 171 146 150 119 209 215 171 209 215 171 209 215 171 209 215 171 209 215 171 146 150 119 209 215 171 209 215 171 224 228 180 224 228 180 224 228 180 224 228 180 156 159 126 224 228 180 156 159 126 224 228 180 224 228 180 224 228 180 224 228 180 238 235 191 238 235 191 166 164 133 238 235 191 238 235 191 156 159 126 156 159 126 224 228 180 224 228 180 224 228 180 238 235 191 238 235 191 238 235 191 166 164 133 166 164 133 166 164 133 156 159 126 166 164 133 166 164 133 166 164 133 238 235 191 166 164 133 166 164 133 166 164 133 166 164 133 166 164 133 166 164 133 166 164 133 166 164 133 156 159 126 156 159 126 156 159 126 156 159 126 156 159 126 156 159 126 156 159 126 156 159 126 146 150 119 146 150 119 146 150 119 209 215 171 146 150 119 146 150 119 146 150 119 146 150 119 146 150 119 132 142 105 189 204 150 132 142 105 189 204 150 132 142 105 132 142 105 132 142 105 189 204 150 189 204 150 116 137 99 167 197 142 167 197 142 116 137 99 116 137 99 102 133 97 147 191 139 102 133 97 147 191 139 102 133 97 147 191 139 147 191 139 120 145 115 120 145 115 120 145 115 120 145 115 120 145 115 120 145 115 172 208 165 172 208 165 172 208 165 172 208 165 172 208 165 120 145 115 120 145 115 172 208 165 120 145 115 120 145 115 120 145 115 120 145 115 120 145 115 120 145 115 120 145 115 172 208 165 172 208 165 172 208 165 151 169 177 151 169 177 151 169 177 137 164 178 137 164 178 137 164 178 137 164 178 197 235 255 128 158 178 184 227 255 184 227 255 184 227 255 184 227 255 184 227 255 128 158 178 128 158 178 120 152 175 120 152 175 120 152 175 120 152 175 120 152 175 120 152 175 120 152 175 112 147 172 112 147 172 112 147 172 112 147 172 112 147 172 112 147 172 160 210 247 160 210 247 112 147 172 105 140 168 105 140 168 105 140 168 105 140 168 150 201 240 150 201 240 150 201 240 150 201 240 150 201 240 150 201 240 105 140 168 105 140 168 150 201 240 150 201 240 105 140 168 150 201 240 150 201 240 105 140 168 105 140 168 105 140 168 105 140 168 98 134 163 98 134 163 140 192 234 98 134 163 98 134 163 140 192 234 140 192 234 132 184 227 92 128 158 132 184 227 132 184 227 132 184 227 132 184 227 92 128 158 132 184 227 132 184 227 132 184 227 132 184 227 132 184 227 132 184 227 132 184 227 132 184 227 132 184 227 132 184 227 140 192 234 140 192 234 140 192 234

224 228 180 224 228 180 224 228 180 156 159 126 224 228 180 224 228 180 224 228 180 224 228 180 156 159 126 156 159 126 156 159 126 156 159 126 166 164 133 156 159 126 156 159 126 156 159 126 156 159 126 156 159 126 156 159 126 156 159 126 156 159 126 156 159 126 156 159 126 156 159 126 238 235 191 238 235 191 238 235 191 166 164 133 156 159 126 156 159 126 156 159 126 156 159 126 156 159 126 224 228 180 146 150 119 146 150 119 224 228 180 209 215 171 146 150 119 209 215 171 209 215 171 209 215 171 209 215 171 146 150 119 146 150 119 146 150 119 146 150 119 146 150 119 146 150 119 209 215 171 209 215 171 209 215 171 209 215 171 209 215 171 209 215 171 209 215 171 209 215 171 209 215 171 209 215 171 209 215 171 209 215 171 209 215 171 209 215 171 209 215 171 209 215 171 209 215 171 146 150 119 209 215 171 209 215 171 209 215 171 209 215 171 146 150 119 146 150 119 146 150 119 224 228 180 224 228 180 224 228 180 224 228 180 224 228 180 156 159 126 224 228 180 224 228 180 224 228 180 224 228 180 224 228 180 224 228 180 238 235 191 156 159 126 238 235 191 238 235 191 156 159 126 156 159 126 156 159 126 156 159 126 156 159 126 224 228 180 224 228 180 156 159 126 156 159 126 156 159 126 156 159 126 156 159 126 156 159 126 156 159 126 156 159 126 156 159 126 156 159 126 156 159 126 156 159 126 156 159 126 156 159 126 156 159 126 156 159 126 156 159 126 156 159 126 156 159 126 156 159 126 156 159 126 156 159 126 156 159 126 156 159 126 156 159 126 146 150 119 146 150 119 146 150 119 146 150 119 146 150 119 146 150 119 132 142 105 146 150 119 132 142 105 146 150 119 132 142 105 132 142 105 132 142 105 132 142 105 132 142 105 132 142 105 132 142 105 132 142 105 132 142 105 116 137 99 167 197 142 116 137 99 116 137 99 116 137 99 167 197 142 102 133 97 102 133 97 102 133 97 102 133 97 102 133 97 102 133 97 120 145 115 172 208 165 172 208 165 172 208 165 120 145 115 172 208 165 172 208 165 172 208 165 172 208 165 172 208 165 172 208 165 120 145 115 172 208 165 172 208 165 120 145 115 172 208 165 172 208 165 172 208 165 172 208 165 120 145 115 172 208 165 151 169 177 172 208 165 172 208 165 151 169 177 151 169 177 151 169 177 137 164 178 137 164 178 137 164 178 197 235 255 137 164 178 137 164 178 128 158 178 128 158 178 184 227 255 184 227 255 184 227 255 128 158 178 128 158 178 128 158 178 120 152 175 120 152 175 120 152 175 120 152 175 112 147 172 112 147 172 112 147 172 160 210 247 112 147 172 112 147 172 160 210 247 160 210 247 160 210 247 112 147 172 105 140 168 105 140 168 150 201 240 105 140 168 150 201 240 150 201 240 150 201 240 150 201 240 105 140 168 150 201 240 150 201 240 105 140 168 105 140 168 105 140 168 105 140 168 105 140 168 105 140 168 105 140 168 105 140 168 105 140 168 150 201 240 98 134 163 98 134 163 98 134 163 98 134 163 98 134 163 98 134 163 140 192 234 98 134 163 140 192 234 92 128 158 92 128 158 92 128 158 92 128 158 132 184 227 132 184 227 132 184 227 132 184 227 132 184 227 92 128 158 132 184 227 132 184 227 132 184 227 132 184 227 132 184 227 140 192 234 140 192 234 140 192 234 140 192 234

224 228 180 224 228 180 224 228 180 156 159 126 224 228 180 156 159 126 224 228 180 156 159 126 156 159 126 156 159 126 156 159 126 224 228 180 156 159 126 156 159 126 156 159 126 156 159 126 156 159 126 156 159 126 156 159 126 156 159 126 156 159 126 156 159 126 224 228 180 224 228 180 238 235 191 238 235 191 238 235 191 166 164 133 238 235 191 156 159 126 224 228 180 156 159 126 224 228 180 224 228 180 156 159 126 224 228 180 224 228 180 224 228 180 209 215 171 209 215 171 209 215 171 146 150 119 146 150 119 146 150 119 209 215 171 146 150 119 209 215 171 209 215 171 209 215 171 209 215 171 209 215 171 209 215 171 209 215 171 209 215 171 209 215 171 209 215 171 209 215 171 209 215 171 146 150 119 209 215 171 209 215 171 209 215 171 209 215 171 209 215 171 224 228 180 209 215 171 209 215 171 146 150 119 146 150 119 146 150 119 146 150 119 146 150 119 209 215 171 209 215 171 224 228 180 224 228 180 224 228 180 224 228 180 224 228 180 224 228 180 224 228 180 224 228 180 224 228 180 224 228 180 238 235 191 238 235 191 238 235 191 238 235 191 238 235 191 156 159 126 166 164 133 224 228 180 156 159 126 156 159 126 224 228 180 156 159 126 156 159 126 156 159 126 156 159 126 156 159 126 224 228 180 156 159 126 156 159 126 224 228 180 156 159 126 156 159 126 156 159 126 156 159 126 156 159 126 156 159 126 156 159 126 156 159 126 156 159 126 156 159 126 156 159 126 156 159 126 224 228 180 156 159 126 156 159 126 146 150 119 146 150 119 146 150 119 146 150 119 146 150 119 146 150 119 146 150 119 146 150 119 132 142 105 132 142 105 132 142 105 132 142 105 132 142 105 209 215 171 132 142 105 132 142 105 132 142 105 132 142 105 189 204 150 132 142 105 132 142 105 116 137 99 116 137 99 116 137 99 116 137 99 116 137 99 116 137 99 116 137 99 102 133 97 147 191 139 102 133 97 102 133 97 102 133 97 102 133 97 147 191 139 147 191 139 172 208 165 172 208 165 172 208 165 147 191 139 147 191 139 147 191 139 172 208 165 172 208 165 172 208 165 172 208 165 172 208 165 172 208 165 120 145 115 172 208 165 120 145 115 172 208 165 172 208 165 172 208 165 172 208 165 172 208 165 172 208 165 172 208 165 151 169 177 151 169 177 151 169 177 216 242 254 137 164 178 137 164 178 137 164 178 197 235 255 137 164 178 128 158 178 184 227 255 184 227 255 128 158 178 128 158 178 128 158 178 184 227 255 120 152 175 120 152 175 120 152 175 172 218 250 120 152 175 112 147 172 112 147 172 112 147 172 112 147 172 160 210 247 160 210 247 160 210 247 160 210 247 160 210 247 160 210 247 105 140 168 150 201 240 105 140 168 150 201 240 150 201 240 150 201 240 150 201 240 150 201 240 160 210 247 150 201 240 150 201 240 105 140 168 105 140 168 105 140 168 105 140 168 105 140 168 150 201 240 105 140 168 105 140 168 150 201 240 150 201 240 105 140 168 98 134 163 98 134 163 140 192 234 140 192 234 98 134 163 140 192 234 140 192 234 140 192 234 140 192 234 92 128 158 92 128 158 92 128 158 132 184 227 132 184 227 132 184 227 92 128 158 92 128 158 92 128 158 132 184 227 132 184 227 132 184 227 132 184 227 132 184 227 132 184 227 140 192 234 140 192 234 140 192 234

224 228 180 156 159 126 156 159 126 156 159 126 156 159 126 156 159 126 156 159 126 156 159 126 156 159 126 156 159 126 224 228 180 156 159 126 156 159 126 156 159 126 156 159 126 156 159 126 156 159 126 224 228 180 224 228 180 156 159 126 224 228 180 224 228 180 224 228 180 224 228 180 238 235 191 156 159 126 166 164 133 156 159 126 166 164 133 156 159 126 156 159 126 156 159 126 224 228 180 224 228 180 224 228 180 224 228 180 224 228 180 156 159 126 146 150 119 209 215 171 146 150 119 146 150 119 209 215 171 209 215 171 209 215 171 146 150 119 209 215 171 209 215 171 209 215 171 209 215 171 209 215 171 209 215 171 209 215 171 209 215 171 209 215 171 209 215 171 209 215 171 146 150 119 146 150 119 209 215 171 209 215 171 209 215 171 209 215 171 209 215 171 146 150 119 146 150 119 146 150 119 146 150 119 146 150 119 146 150 119 146 150 119 146 150 119 209 215 171 209 215 171 209 215 171 224 228 180 224 228 180 156 159 126 224 228 180 156 159 126 156 159 126 224 228 180 224 228 180 224 228 180 238 235 191 238 235 191 238 235 191 156 159 126 238 235 191 156 159 126 156 159 126 156 159 126 156 159 126 156 159 126 224 228 180 156 159 126 224 228 180 224 228 180 224 228 180 156 159 126 156 159 126 156 159 126 156 159 126 224 228 180 156 159 126 156 159 126 156 159 126 156 159 126 156 159 126 156 159 126 156 159 126 156 159 126 156 159 126 224 228 180 156 159 126 156 159 126 156 159 126 156 159 126 156 159 126 146 150 119 146 150 119 146 150 119 146 150 119 146 150 119 146 150 119 146 150 119 132 142 105 132 142 105 132 142 105 132 142 105 132 142 105 132 142 105 132 142 105 132 142 105 132 142 105 189 204 150 189 204 150 132 142 105 116 137 99 116 137 99 116 137 99 116 137 99 116 137 99 116 137 99 102 133 97 102 133 97 102 133 97 102 133 97 102 133 97 102 133 97 147 191 139 147 191 139 147 191 139 147 191 139 147 191 139 147 191 139 147 191 139 147 191 139 147 191 139 147 191 139 147 191 139 147 191 139 147 191 139 120 145 115 172 208 165 172 208 165 147 191 139 172 208 165 172 208 165 172 208 165 172 208 165 172 208 165 172 208 165 120 145 115 172 208 165 172 208 165 172 208 165 151 169 177 151 169 177 151 169 177 216 242 254 216 242 254 197 235 255 197 235 255 197 235 255 137 164 178 197 235 255 197 235 255 184 227 255 128 158 178 128 158 178 128 158 178 128 158 178 120 152 175 120 152 175 120 152 175 120 152 175 112 147 172 112 147 172 112 147 172 112 147 172 160 210 247 160 210 247 112 147 172 160 210 247 112 147 172 112 147 172 105 140 168 105 140 168 150 201 240 150 201 240 160 210 247 160 210 247 160 210 247 160 210 247 150 201 240 160 210 247 105 140 168 105 140 168 105 140 168 105 140 168 105 140 168 105 140 168 150 201 240 150 201 240 105 140 168 150 201 240 150 201 240 105 140 168 105 140 168 150 201 240 98 134 163 140 192 234 140 192 234 98 134 163 140 192 234 140 192 234 98 134 163 98 134 163 92 128 158 132 184 227 132 184 227 132 184 227 132 184 227 132 184 227 92 128 158 92 128 158 92 128 158 132 184 227 92 128 158 132 184 227 132 184 227 132 184 227 140 192 234 140 192 234 140 192 234 140 192 234

224 228 180 224 228 180 224 228 180 156 159 126 156 159 126 156 159 126 156 159 126 146 150 119 146 150 119 224 228 180 224 228 180 156 159 126 156 159 126 156 159 126 156 159 126 156 159 126 156 159 126 224 228 180 224 228 180 156 159 126 224 228 180 224 228 180 224 228 180 156 159 126 224 228 180 156 159 126 224 228 180 156 159 126 156 159 126 156 159 126 156 159 126 156 159 126 156 159 126 224 228 180 224 228 180 224 228 180 156 159 126 156 159 126 224 228 180 224 228 180 209 215 171 209 215 171 209 215 171 209 215 171 209 215 171 209 215 171 209 215 171 209 215 171 209 215 171 209 215 171 209 215 171 209 215 171 209 215 171 209 215 171 209 215 171 209 215 171 224 228 180 209 215 171 209 215 171 209 215 171 209 215 171 209 215 171 224 228 180 209 215 171 146 150 119 209 215 171 209 215 171 146 150 119 209 215 171 209 215 171 209 215 171 209 215 171 209 215 171 146 150 119 209 215 171 146 150 119 146 150 119 146 150 119 224 228 180 156 159 126 224 228 180 224 228 180 224 228 180 224 228 180 224 228 180 238 235 191 238 235 191 156 159 126 156 159 126 156 159 126 156 159 126 156 159 126 156 159 126 224 228 180 224 228 180 156 159 126 224 228 180 156 159 126 156 159 126 156 159 126 156 159 126 156 159 126 156 159 126 224 228 180 156 159 126 156 159 126 156 159 126 156 159 126 156 159 126 156 159 126 224 228 180 146 150 119 156 159 126 156 159 126 156 159 126 156 159 126 156 159 126 146 150 119 146 150 119 146 150 119 146 150 119 146 150 119 209 215 171 146 150 119 146 150 119 132 142 105 132 142 105 132 142 105 132 142 105 132 142 105 132 142 105 132 142 105 132 142 105 132 142 105 132 142 105 132 142 105 132 142 105 116 137 99 116 137 99 116 137 99 116 137 99 116 137 99 116 137 99 102 133 97 102 133 97 102 133 97 102 133 97 102 133 97 102 133 97 147 191 139 147 191 139 147 191 139 147 191 139 147 191 139 147 191 139 147 191 139 147 191 139 147 191 139 147 191 139 147 191 139 147 191 139 147 191 139 147 191 139 120 145 115 172 208 165 172 208 165 147 191 139 120 145 115 172 208 165 172 208 165 172 208 165 120 145 115 120 145 115 172 208 165 172 208 165 120 145 115 172 208 165 120 145 115 151 169 177 216 242 254 216 242 254 216 242 254 216 242 254 197 235 255 197 235 255 137 164 178 137 164 178 197 235 255 197 235 255 128 158 178 184 227 255 184 227 255 184 227 255 120 152 175 120 152 175 172 218 250 120 152 175 120 152 175 112 147 172 112 147 172 112 147 172 160 210 247 112 147 172 112 147 172 112 147 172 112 147 172 105 140 168 105 140 168 160 210 247 150 201 240 150 201 240 160 210 247 160 210 247 160 210 247 160 210 247 160 210 247 160 210 247 105 140 168 105 140 168 105 140 168 105 140 168 105 140 168 105 140 168 98 134 163 98 134 163 150 201 240 150 201 240 105 140 168 150 201 240 105 140 168 105 140 168 98 134 163 140 192 234 140 192 234 98 134 163 140 192 234 140 192 234 140 192 234 98 134 163 92 128 158 132 184 227 92 128 158 92 128 158 92 128 158 92 128 158 92 128 158 92 128 158 92 128 158 132 184 227 132 184 227 132 184 227 92 128 158 140 192 234 140 192 234 140 192 234 140 192 234 140 192 234

209 215 171 156 159 126 156 159 126 156 159 126 156 159 126 224 228 180 224 228 180 156 159 126 224 228 180 224 228 180 146 150 119 146 150 119 224 228 180 156 159 126 224 228 180 146 150 119 146 150 119 146 150 119 224 228 180 156 159 126 224 228 180 224 228 180 224 228 180 156 159 126 224 228 180 156 159 126 156 159 126 156 159 126 156 159 126 156 159 126 156 159 126 224 228 180 224 228 180 224 228 180 224 228 180 224 228 180 156 159 126 224 228 180 146 150 119 146 150 119 146 150 119 209 215 171 146 150 119 146 150 119 146 150 119 209 215 171 224 228 180 224 228 180 224 228 180 224 228 180 224 228 180 209 215 171 209 215 171 146 150 119 209 215 171 209 215 171 146 150 119 146 150 119 209 215 171 209 215 171 224 228 180 224 228 180 209 215 171 146 150 119 146 150 119 146 150 119 146 150 119 146 150 119 209 215 171 146 150 119 146 150 119 209 215 171 209 215 171 209 215 171 209 215 171 146 150 119 209 215 171 146 150 119 146 150 119 156 159 126 156 159 126 156 159 126 224 228 180 156 159 126 156 159 126 156 159 126 156 159 126 156 159 126 224 228 180 156 159 126 156 159 126 156 159 126 156 159 126 156 159 126 224 228 180 224 228 180 224 228 180 156 159 126 156 159 126 156 159 126 224 228 180 224 228 180 156 159 126 224 228 180 156 159 126 146 150 119 146 150 119 156 159 126 146 150 119 224 228 180 146 150 119 146 150 119 224 228 180 156 159 126 146 150 119 224 228 180 156 159 126 146 150 119 146 150 119 146 150 119 146 150 119 146 150 119 146 150 119 146 150 119 132 142 105 132 142 105 132 142 105 132 142 105 132 142 105 132 142 105 132 142 105 132 142 105 132 142 105 132 142 105 132 142 105 132 142 105 116 137 99 116 137 99 116 137 99 116 137 99 116 137 99 116 137 99 102 133 97 102 133 97 102 133 97 102 133 97 102 133 97 102 133 97 102 133 97 147 191 139 147 191 139 147 191 139 167 197 142 147 191 139 147 191 139 147 191 139 102 133 97 147 191 139 147 191 139 102 133 97 147 191 139 102 133 97 147 191 139 102 133 97 172 208 165 172 208 165 172 208 165 147 191 139 172 208 165 120 145 115 172 208 165 120 145 115 120 145 115 120 145 115 120 145 115 172 208 165 172 208 165 172 208 165 151 169 177 216 242 254 216 242 254 151 169 177 151 169 177 216 242 254 137 164 178 137 164 178 197 235 255 197 235 255 128 158 178 128 158 178 128 158 178 128 158 178 128 158 178 120 152 175 172 218 250 120 152 175 120 152 175 120 152 175 112 147 172 112 147 172 112 147 172 112 147 172 112 147 172 112 147 172 112 147 172 112 147 172 105 140 168 105 140 168 150 201 240 105 140 168 105 140 168 150 201 240 105 140 168 112 147 172 112 147 172 112 147 172 105 140 168 105 140 168 105 140 168 105 140 168 105 140 168 150 201 240 98 134 163 98 134 163 140 192 234 150 201 240 150 201 240 105 140 168 150 201 240 150 201 240 150 201 240 98 134 163 140 192 234 140 192 234 98 134 163 98 134 163 98 134 163 98 134 163 92 128 158 92 128 158 132 184 227 92 128 158 92 128 158 92 128 158 92 128 158 132 184 227 132 184 227 132 184 227 132 184 227 132 184 227 132 184 227 92 128 158 132 184 227 140 192 234 140 192 234 140 192 234 140 192 234

209 215 171 224 228 180 224 228 180 224 228 180 224 228 180 224 228 180 224 228 180 156 159 126 224 228 180 224 228 180 224 228 180 146 150 119 146 150 119 146 150 119 146 150 119 146 150 119 146 150 119 209 215 171 224 228 180 224 228 180 224 228 180 224 228 180 156 159 126 156 159 126 224 228 180 156 159 126 156 159 126 224 228 180 224 228 180 156 159 126 224 228 180 156 159 126 238 235 191 224 228 180 224 228 180 224 228 180 224 228 180 224 228 180 156 159 126 146 150 119 224 228 180 209 215 171 146 150 119 209 215 171 209 215 171 209 215 171 224 228 180 224 228 180 224 228 180 224 228 180 224 228 180 224 228 180 209 215 171 146 150 119 209 215 171 224 228 180 224 228 180 209 215 171 224 228 180 224 228 180 224 228 180 224 228 180 224 228 180 146 150 119 209 215 171 146 150 119 146 150 119 209 215 171 209 215 171 146 150 119 146 150 119 209 215 171 209 215 171 209 215 171 209 215 171 146 150 119 146 150 119 209 215 171 224 228 180 209 215 171 224 228 180 224 228 180 224 228 180 156 159 126 224 228 180 224 228 180 224 228 180 156 159 126 156 159 126 156 159 126 156 159 126 156 159 126 156 159 126 156 159 126 224 228 180 156 159 126 224 228 180 156 159 126 156 159 126 156 159 126 224 228 180 156 159 126 156 159 126 224 228 180 146 150 119 146 150 119 146 150 119 146 150 119 224 228 180 209 215 171 156 159 126 209 215 171 209 215 171 146 150 119 224 228 180 224 228 180 224 228 180 146 150 119 209 215 171 146 150 119 146 150 119 146 150 119 146 150 119 146 150 119 132 142 105 132 142 105 132 142 105 189 204 150 132 142 105 189 204 150 189 204 150 116 137 99 116 137 99 189 204 150 189 204 150 116 137 99 189 204 150 116 137 99 116 137 99 116 137 99 116 137 99 102 133 97 102 133 97 102 133 97 102 133 97 102 133 97 102 133 97 147 191 139 147 191 139 147 191 139 147 191 139 147 191 139 167 197 142 102 133 97 147 191 139 147 191 139 147 191 139 147 191 139 147 191 139 147 191 139 147 191 139 102 133 97 102 133 97 102 133 97 120 145 115 147 191 139 147 191 139 147 191 139 102 133 97 147 191 139 147 191 139 120 145 115 172 208 165 172 208 165 172 208 165 172 208 165 172 208 165 172 208 165 120 145 115 172 208 165 216 242 254 151 169 177 151 169 177 216 242 254 151 169 177 197 235 255 197 235 255 137 164 178 137 164 178 128 158 178 128 158 178 128 158 178 128 158 178 184 227 255 120 152 175 120 152 175 172 218 250 172 218 250 112 147 172 160 210 247 112 147 172 160 210 247 160 210 247 160 210 247 160 210 247 112 147 172 112 147 172 150 201 240 105 140 168 150 201 240 105 140 168 160 210 247 160 210 247 160 210 247 160 210 247 160 210 247 160 210 247 150 201 240 105 140 168 105 140 168 105 140 168 105 140 168 150 201 240 150 201 240 140 192 234 98 134 163 98 134 163 98 134 163 105 140 168 98 134 163 105 140 168 98 134 163 150 201 240 98 134 163 98 134 163 98 134 163 98 134 163 92 128 158 92 128 158 132 184 227 132 184 227 92 128 158 92 128 158 92 128 158 92 128 158 132 184 227 132 184 227 132 184 227 132 184 227 132 184 227 132 184 227 132 184 227 140 192 234 140 192 234 140 192 234 140 192 234 150 201 240

209 215 171 224 228 180 146 150 119 224 228 180 224 228 180 146 150 119 146 150 119 146 150 119 146 150 119 146 150 119 146 150 119 146 150 119 146 150 119 146 150 119 146 150 119 146 150 119 209 215 171 146 150 119 146 150 119 146 150 119 146 150 119 156 159 126 156 159 126 156 159 126 156 159 126 156 159 126 224 228 180 224 228 180 156 159 126 156 159 126 224 228 180 224 228 180 224 228 180 156 159 126 156 159 126 156 159 126 156 159 126 156 159 126 146 150 119 146 150 119 209 215 171 146 150 119 146 150 119 209 215 171 146 150 119 209 215 171 209 215 171 224 228 180 224 228 180 156 159 126 156 159 126 156 159 126 146 150 119 224 228 180 209 215 171 224 228 180 224 228 180 224 228 180 224 228 180 146 150 119 146 150 119 146 150 119 146 150 119 146 150 119 146 150 119 146 150 119 209 215 171 209 215 171 209 215 171 209 215 171 209 215 171 209 215 171 209 215 171 146 150 119 146 150 119 146 150 119 209 215 171 209 215 171 209 215 171 224 228 180 224 228 180 156 159 126 156 159 126 224 228 180 156 159 126 156 159 126 156 159 126 156 159 126 156 159 126 156 159 126 156 159 126 156 159 126 156 159 126 156 159 126 156 159 126 156 159 126 156 159 126 146 150 119 146 150 119 156 159 126 146 150 119 146 150 119 146 150 119 146 150 119 156 159 126 209 215 171 146 150 119 209 215 171 209 215 171 146 150 119 146 150 119 146 150 119 146 150 119 146 150 119 146 150 119 146 150 119 146 150 119 146 150 119 146 150 119 146 150 119 146 150 119 146 150 119 132 142 105 132 142 105 132 142 105 132 142 105 132 142 105 116 137 99 132 142 105 116 137 99 116 137 99 116 137 99 167 197 142 116 137 99 116 137 99 116 137 99 116 137 99 116 137 99 116 137 99 102 133 97 102 133 97 102 133 97 102 133 97 102 133 97 102 133 97 147 191 139 147 191 139 147 191 139 147 191 139 147 191 139 147 191 139 147 191 139 147 191 139 116 137 99 147 191 139 147 191 139 147 191 139 102 133 97 102 133 97 147 191 139 147 191 139 147 191 139 147 191 139 102 133 97 147 191 139 147 191 139 147 191 139 147 191 139 147 191 139 147 191 139 147 191 139 102 133 97 172 208 165 147 191 139 147 191 139 172 208 165 172 208 165 120 145 115 120 145 115 120 145 115 172 208 165 216 242 254 216 242 254 216 242 254 151 169 177 216 242 254 137 164 178 137 164 178 137 164 178 128 158 178 184 227 255 128 158 178 184 227 255 128 158 178 184 227 255 172 218 250 172 218 250 120 152 175 120 152 175 160 210 247 160 210 247 160 210 247 160 210 247 112 147 172 112 147 172 112 147 172 112 147 172 105 140 168 105 140 168 150 201 240 160 210 247 160 210 247 160 210 247 160 210 247 160 210 247 160 210 247 160 210 247 112 147 172 105 140 168 105 140 168 150 201 240 150 201 240 150 201 240 98 134 163 98 134 163 140 192 234 140 192 234 140 192 234 140 192 234 98 134 163 98 134 163 150 201 240 140 192 234 98 134 163 98 134 163 98 134 163 98 134 163 98 134 163 92 128 158 132 184 227 132 184 227 92 128 158 92 128 158 92 128 158 132 184 227 132 184 227 132 184 227 92 128 158 132 184 227 132 184 227 132 184 227 132 184 227 92 128 158 140 192 234 140 192 234 140 192 234 140 192 234

209 215 171 209 215 171 146 150 119 146 150 119 146 150 119 146 150 119 146 150 119 146 150 119 146 150 119 146 150 119 209 215 171 146 150 119 146 150 119 209 215 171 209 215 171 209 215 171 146 150 119 146 150 119 209 215 171 209 215 171 146 150 119 209 215 171 224 228 180 156 159 126 156 159 126 156 159 126 224 228 180 224 228 180 156 159 126 224 228 180 224 228 180 224 228 180 224 228 180 156 159 126 156 159 126 156 159 126 156 159 126 156 159 126 224 228 180 209 215 171 209 215 171 209 215 171 209 215 171 209 215 171 209 215 171 209 215 171 224 228 180 224 228 180 156 159 126 156 159 126 156 159 126 156 159 126 224 228 180 224 228 180 146 150 119 209 215 171 224 228 180 156 159 126 146 150 119 146 150 119 209 215 171 146 150 119 146 150 119 146 150 119 146 150 119 209 215 171 209 215 171 146 150 119 146 150 119 146 150 119 209 215 171 146 150 119 146 150 119 146 150 119 146 150 119 146 150 119 146 150 119 146 150 119 209 215 171 146 150 119 146 150 119 146 150 119 146 150 119 224 228 180 146 150 119 224 228 180 156 159 126 156 159 126 156 159 126 156 159 126 146 150 119 146 150 119 146 150 119 146 150 119 146 150 119 146 150 119 146 150 119 146 150 119 146 150 119 146 150 119 146 150 119 146 150 119 146 150 119 146 150 119 209 215 171 146 150 119 146 150 119 146 150 119 146 150 119 146 150 119 146 150 119 146 150 119 146 150 119 146 150 119 146 150 119 146 150 119 146 150 119 146 150 119 146 150 119 146 150 119 146 150 119 132 142 105 132 142 105 132 142 105 132 142 105 132 142 105 116 137 99 116 137 99 167 197 142 116 137 99 116 137 99 116 137 99 167 197 142 167 197 142 167 197 142 167 197 142 116 137 99 116 137 99 116 137 99 116 137 99 102 133 97 102 133 97 102 133 97 102 133 97 147 191 139 147 191 139 147 191 139 147 191 139 167 197 142 167 197 142 167 197 142 147 191 139 167 197 142 167 197 142 167 197 142 147 191 139 147 191 139 147 191 139 102 133 97 147 191 139 147 191 139 102 133 97 102 133 97 147 191 139 147 191 139 147 191 139 147 191 139 147 191 139 147 191 139 147 191 139 147 191 139 147 191 139 147 191 139 147 191 139 147 191 139 147 191 139 120 145 115 120 145 115 172 208 165 172 208 165 172 208 165 151 169 177 151 169 177 216 242 254 216 242 254 216 242 254 137 164 178 137 164 178 137 164 178 137 164 178 197 235 255 128 158 178 184 227 255 128 158 178 184 227 255 184 227 255 184 227 255 172 218 250 172 218 250 172 218 250 172 218 250 160 210 247 172 218 250 112 147 172 160 210 247 160 210 247 112 147 172 160 210 247 160 210 247 160 210 247 160 210 247 160 210 247 160 210 247 160 210 247 160 210 247 160 210 247 112 147 172 105 140 168 105 140 168 105 140 168 150 201 240 150 201 240 150 201 240 105 140 168 140 192 234 98 134 163 140 192 234 140 192 234 140 192 234 98 134 163 98 134 163 140 192 234 98 134 163 98 134 163 98 134 163 98 134 163 98 134 163 92 128 158 92 128 158 132 184 227 140 192 234 132 184 227 132 184 227 132 184 227 92 128 158 132 184 227 132 184 227 132 184 227 132 184 227 132 184 227 132 184 227 132 184 227 132 184 227 140 192 234 140 192 234 140 192 234 140 192 234

209 215 171 146 150 119 146 150 119 146 150 119 146 150 119 146 150 119 146 150 119 146 150 119 146 150 119 146 150 119 209 215 171 146 150 119 146 150 119 209 215 171 146 150 119 146 150 119 146 150 119 209 215 171 209 215 171 146 150 119 146 150 119 209 215 171 209 215 171 224 228 180 224 228 180 224 228 180 224 228 180 156 159 126 156 159 126 224 228 180 156 159 126 156 159 126 156 159 126 156 159 126 156 159 126 156 159 126 224 228 180 224 228 180 146 150 119 224 228 180 209 215 171 146 150 119 209 215 171 146 150 119 209 215 171 209 215 171 209 215 171 224 228 180 224 228 180 146 150 119 224 228 180 224 228 180 156 159 126 156 159 126 146 150 119 209 215 171 224 228 180 146 150 119 146 150 119 146 150 119 209 215 171 146 150 119 146 150 119 209 215 171 146 150 119 146 150 119 146 150 119 146 150 119 146 150 119 209 215 171 146 150 119 209 215 171 209 215 171 209 215 171 146 150 119 146 150 119 209 215 171 209 215 171 209 215 171 146 150 119 209 215 171 209 215 171 209 215 171 146 150 119 146 150 119 146 150 119 156 159 126 156 159 126 146 150 119 146 150 119 146 150 119 146 150 119 209 215 171 146 150 119 146 150 119 146 150 119 209 215 171 209 215 171 146 150 119 146 150 119 146 150 119 209 215 171 209 215 171 146 150 119 146 150 119 146 150 119 146 150 119 146 150 119 146 150 119 146 150 119 146 150 119 146 150 119 146 150 119 146 150 119 132 142 105 146 150 119 146 150 119 146 150 119 146 150 119 132 142 105 132 142 105 132 142 105 132 142 105 132 142 105 132 142 105 132 142 105 116 137 99 116 137 99 167 197 142 116 137 99 167 197 142 167 197 142 116 137 99 116 137 99 116 137 99 116 137 99 116 137 99 116 137 99 116 137 99 102 133 97 102 133 97 147 191 139 147 191 139 147 191 139 147 191 139 147 191 139 147 191 139 167 197 142 167 197 142 167 197 142 167 197 142 167 197 142 167 197 142 167 197 142 167 197 142 167 197 142 167 197 142 167 197 142 167 197 142 147 191 139 102 133 97 102 133 97 147 191 139 147 191 139 147 191 139 147 191 139 147 191 139 147 191 139 147 191 139 102 133 97 102 133 97 102 133 97 147 191 139 147 191 139 147 191 139 120 145 115 120 145 115 172 208 165 172 208 165 172 208 165 172 208 165 172 208 165 172 208 165 216 242 254 151 169 177 151 169 177 137 164 178 137 164 178 137 164 178 137 164 178 197 235 255 128 158 178 184 227 255 184 227 255 184 227 255 184 227 255 184 227 255 120 152 175 172 218 250 172 218 250 120 152 175 172 218 250 172 218 250 172 218 250 160 210 247 112 147 172 160 210 247 160 210 247 160 210 247 160 210 247 160 210 247 160 210 247 160 210 247 112 147 172 112 147 172 112 147 172 112 147 172 160 210 247 150 201 240 150 201 240 105 140 168 105 140 168 105 140 168 105 140 168 150 201 240 140 192 234 150 201 240 140 192 234 98 134 163 98 134 163 98 134 163 140 192 234 140 192 234 98 134 163 98 134 163 98 134 163 98 134 163 98 134 163 140 192 234 140 192 234 140 192 234 140 192 234 92 128 158 92 128 158 92 128 158 132 184 227 132 184 227 132 184 227 132 184 227 132 184 227 132 184 227 132 184 227 132 184 227 140 192 234 140 192 234 140 192 234 140 192 234

209 215 171 209 215 171 209 215 171 146 150 119 146 150 119 146 150 119 146 150 119 146 150 119 146 150 119 209 215 171 209 215 171 209 215 171 209 215 171 146 150 119 146 150 119 146 150 119 209 215 171 209 215 171 209 215 171 146 150 119 209 215 171 209 215 171 146 150 119 224 228 180 156 159 126 156 159 126 156 159 126 156 159 126 224 228 180 224 228 180 156 159 126 224 228 180 224 228 180 156 159 126 156 159 126 156 159 126 224 228 180 146 150 119 146 150 119 224 228 180 224 228 180 209 215 171 224 228 180 146 150 119 209 215 171 209 215 171 209 215 171 209 215 171 224 228 180 156 159 126 224 228 180 224 228 180 224 228 180 224 228 180 146 150 119 224 228 180 224 228 180 146 150 119 146 150 119 146 150 119 146 150 119 146 150 119 146 150 119 146 150 119 209 215 171 146 150 119 146 150 119 146 150 119 146 150 119 209 215 171 209 215 171 209 215 171 209 215 171 146 150 119 209 215 171 209 215 171 209 215 171 146 150 119 146 150 119 146 150 119 146 150 119 209 215 171 209 215 171 146 150 119 146 150 119 209 215 171 224 228 180 224 228 180 156 159 126 209 215 171 209 215 171 146 150 119 146 150 119 146 150 119 209 215 171 146 150 119 209 215 171 146 150 119 209 215 171 146 150 119 146 150 119 209 215 171 146 150 119 146 150 119 209 215 171 146 150 119 146 150 119 146 150 119 146 150 119 132 142 105 146 150 119 132 142 105 132 142 105 132 142 105 132 142 105 209 215 171 209 215 171 146 150 119 146 150 119 132 142 105 132 142 105 132 142 105 132 142 105 132 142 105 116 137 99 116 137 99 116 137 99 167 197 142 167 197 142 116 137 99 116 137 99 116 137 99 167 197 142 167 197 142 116 137 99 116 137 99 116 137 99 167 197 142 116 137 99 167 197 142 167 197 142 147 191 139 147 191 139 147 191 139 147 191 139 147 191 139 147 191 139 167 197 142 167 197 142 167 197 142 167 197 142 167 197 142 167 197 142 167 197 142 167 197 142 167 197 142 167 197 142 167 197 142 167 197 142 167 197 142 102 133 97 147 191 139 147 191 139 147 191 139 147 191 139 147 191 139 147 191 139 147 191 139 147 191 139 147 191 139 147 191 139 147 191 139 147 191 139 147 191 139 147 191 139 102 133 97 147 191 139 147 191 139 147 191 139 172 208 165 147 191 139 172 208 165 172 208 165 172 208 165 216 242 254 216 242 254 216 242 254 197 235 255 137 164 178 197 235 255 197 235 255 197 235 255 128 158 178 184 227 255 184 227 255 184 227 255 128 158 178 184 227 255 184 227 255 172 218 250 120 152 175 172 218 250 172 218 250 172 218 250 112 147 172 160 210 247 160 210 247 160 210 247 160 210 247 160 210 247 160 210 247 160 210 247 160 210 247 112 147 172 160 210 247 160 210 247 160 210 247 160 210 247 160 210 247 150 201 240 105 140 168 150 201 240 150 201 240 105 140 168 150 201 240 98 134 163 140 192 234 98 134 163 98 134 163 98 134 163 140 192 234 140 192 234 150 201 240 98 134 163 98 134 163 98 134 163 140 192 234 140 192 234 140 192 234 140 192 234 140 192 234 92 128 158 92 128 158 132 184 227 132 184 227 132 184 227 132 184 227 132 184 227 140 192 234 132 184 227 140 192 234 92 128 158 140 192 234 140 192 234 140 192 234 140 192 234 140 192 234

209 215 171 146 150 119 146 150 119 146 150 119 146 150 119 146 150 119 146 150 119 132 142 105 209 215 171 132 142 105 146 150 119 146 150 119 146 150 119 146 150 119 209 215 171 146 150 119 146 150 119 146 150 119 209 215 171 146 150 119 209 215 171 209 215 171 209 215 171 209 215 171 224 228 180 146 150 119 146 150 119 224 228 180 156 159 126 156 159 126 156 159 126 224 228 180 224 228 180 156 159 126 156 159 126 156 159 126 146 150 119 146 150 119 209 215 171 209 215 171 224 228 180 224 228 180 146 150 119 146 150 119 209 215 171 209 215 171 224 228 180 209 215 171 146 150 119 146 150 119 224 228 180 224 228 180 156 159 126 156 159 126 146 150 119 209 215 171 146 150 119 146 150 119 146 150 119 146 150 119 146 150 119 146 150 119 146 150 119 209 215 171 209 215 171 146 150 119 146 150 119 146 150 119 146 150 119 146 150 119 146 150 119 209 215 171 146 150 119 146 150 119 146 150 119 146 150 119 209 215 171 146 150 119 146 150 119 209 215 171 209 215 171 209 215 171 209 215 171 146 150 119 146 150 119 209 215 171 209 215 171 146 150 119 146 150 119 146 150 119 146 150 119 146 150 119 146 150 119 209 215 171 209 215 171 209 215 171 209 215 171 146 150 119 146 150 119 146 150 119 146 150 119 146 150 119 146 150 119 146 150 119 146 150 119 146 150 119 146 150 119 146 150 119 146 150 119 209 215 171 209 215 171 132 142 105 189 204 150 132 142 105 132 142 105 189 204 150 132 142 105 132 142 105 132 142 105 132 142 105 132 142 105 132 142 105 132 142 105 132 142 105 132 142 105 116 137 99 116 137 99 116 137 99 116 137 99 116 137 99 167 197 142 167 197 142 167 197 142 116 137 99 167 197 142 116 137 99 167 197 142 116 137 99 116 137 99 167 197 142 102 133 97 102 133 97 102 133 97 102 133 97 147 191 139 147 191 139 167 197 142 167 197 142 167 197 142 167 197 142 167 197 142 167 197 142 167 197 142 167 197 142 167 197 142 167 197 142 167 197 142 167 197 142 167 197 142 167 197 142 167 197 142 167 197 142 147 191 139 167 197 142 167 197 142 147 191 139 147 191 139 147 191 139 102 133 97 147 191 139 147 191 139 147 191 139 147 191 139 147 191 139 147 191 139 147 191 139 147 191 139 147 191 139 147 191 139 147 191 139 147 191 139 120 145 115 172 208 165 120 145 115 151 169 177 151 169 177 151 169 177 216 242 254 197 235 255 197 235 255 197 235 255 137 164 178 128 158 178 184 227 255 184 227 255 184 227 255 128 158 178 184 227 255 128 158 178 120 152 175 120 152 175 120 152 175 172 218 250 172 218 250 120 152 175 172 218 250 160 210 247 160 210 247 160 210 247 160 210 247 160 210 247 112 147 172 160 210 247 112 147 172 160 210 247 160 210 247 160 210 247 112 147 172 112 147 172 112 147 172 105 140 168 150 201 240 150 201 240 105 140 168 150 201 240 98 134 163 98 134 163 98 134 163 98 134 163 98 134 163 98 134 163 98 134 163 140 192 234 98 134 163 98 134 163 98 134 163 140 192 234 140 192 234 98 134 163 98 134 163 98 134 163 98 134 163 140 192 234 132 184 227 132 184 227 132 184 227 132 184 227 132 184 227 132 184 227 140 192 234 140 192 234 92 128 158 140 192 234 140 192 234 140 192 234 140 192 234 140 192 234

209 215 171 209 215 171 146 150 119 209 215 171 146 150 119 146 150 119 146 150 119 132 142 105 209 215 171 132 142 105 189 204 150 209 215 171 209 215 171 209 215 171 209 215 171 146 150 119 146 150 119 209 215 171 209 215 171 146 150 119 146 150 119 209 215 171 209 215 171 146 150 119 209 215 171 146 150 119 146 150 119 209 215 171 156 159 126 156 159 126 224 228 180 224 228 180 224 228 180 156 159 126 156 159 126 156 159 126 146 150 119 224 228 180 224 228 180 224 228 180 224 228 180 146 150 119 146 150 119 209 215 171 209 215 171 209 215 171 209 215 171 146 150 119 146 150 119 146 150 119 146 150 119 146 150 119 146 150 119 146 150 119 146 150 119 146 150 119 146 150 119 146 150 119 146 150 119 146 150 119 209 215 171 209 215 171 209 215 171 146 150 119 209 215 171 146 150 119 146 150 119 146 150 119 146 150 119 132 142 105 209 215 171 146 150 119 146 150 119 132 142 105 132 142 105 209 215 171 146 150 119 146 150 119 209 215 171 209 215 171 209 215 171 146 150 119 209 215 171 146 150 119 146 150 119 209 215 171 209 215 171 146 150 119 146 150 119 146 150 119 146 150 119 146 150 119 146 150 119 209 215 171 209 215 171 209 215 171 146 150 119 146 150 119 146 150 119 146 150 119 209 215 171 209 215 171 209 215 171 146 150 119 146 150 119 209 215 171 146 150 119 146 150 119 209 215 171 209 215 171 132 142 105 132 142 105 132 142 105 132 142 105 132 142 105 189 204 150 189 204 150 132 142 105 132 142 105 132 142 105 132 142 105 132 142 105 132 142 105 132 142 105 189 204 150 116 137 99 167 197 142 167 197 142 167 197 142 167 197 142 167 197 142 116 137 99 167 197 142 116 137 99 116 137 99 116 137 99 167 197 142 167 197 142 167 197 142 116 137 99 102 133 97 102 133 97 147 191 139 147 191 139 147 191 139 147 191 139 167 197 142 167 197 142 167 197 142 116 137 99 167 197 142 167 197 142 167 197 142 167 197 142 189 204 150 167 197 142 167 197 142 167 197 142 167 197 142 167 197 142 167 197 142 167 197 142 167 197 142 167 197 142 167 197 142 102 133 97 102 133 97 147 191 139 102 133 97 147 191 139 102 133 97 102 133 97 147 191 139 147 191 139 147 191 139 147 191 139 147 191 139 147 191 139 147 191 139 147 191 139 147 191 139 102 133 97 120 145 115 120 145 115 120 145 115 172 208 165 216 242 254 151 169 177 137 164 178 137 164 178 137 164 178 137 164 178 197 235 255 197 235 255 197 235 255 128 158 178 128 158 178 184 227 255 128 158 178 184 227 255 120 152 175 172 218 250 172 218 250 120 152 175 172 218 250 172 218 250 172 218 250 172 218 250 112 147 172 160 210 247 160 210 247 160 210 247 160 210 247 160 210 247 172 218 250 160 210 247 112 147 172 112 147 172 112 147 172 160 210 247 160 210 247 105 140 168 105 140 168 105 140 168 105 140 168 98 134 163 98 134 163 98 134 163 98 134 163 98 134 163 140 192 234 98 134 163 98 134 163 98 134 163 98 134 163 98 134 163 140 192 234 140 192 234 98 134 163 140 192 234 92 128 158 92 128 158 140 192 234 140 192 234 132 184 227 92 128 158 132 184 227 140 192 234 140 192 234 140 192 234 98 134 163 98 134 163 140 192 234 140 192 234 140 192 234 98 134 163 140 192 234

209 215 171 146 150 119 146 150 119 209 215 171 146 150 119 146 150 119 209 215 171 132 142 105 189 204 150 132 142 105 189 204 150 209 215 171 209 215 171 209 215 171 146 150 119 146 150 119 209 215 171 146 150 119 209 215 171 209 215 171 209 215 171 209 215 171 146 150 119 146 150 119 146 150 119 146 150 119 146 150 119 146 150 119 209 215 171 224 228 180 224 228 180 224 228 180 224 228 180 156 159 126 146 150 119 156 159 126 146 150 119 209 215 171 146 150 119 224 228 180 224 228 180 156 159 126 209 215 171 146 150 119 209 215 171 209 215 171 146 150 119 209 215 171 146 150 119 146 150 119 146 150 119 146 150 119 146 150 119 146 150 119 146 150 119 146 150 119 209 215 171 146 150 119 146 150 119 146 150 119 146 150 119 146 150 119 146 150 119 146 150 119 132 142 105 132 142 105 132 142 105 132 142 105 132 142 105 132 142 105 132 142 105 132 142 105 132 142 105 132 142 105 189 204 150 189 204 150 132 142 105 146 150 119 146 150 119 209 215 171 209 215 171 209 215 171 209 215 171 209 215 171 146 150 119 146 150 119 146 150 119 146 150 119 146 150 119 146 150 119 146 150 119 146 150 119 209 215 171 209 215 171 209 215 171 146 150 119 209 215 171 146 150 119 146 150 119 146 150 119 209 215 171 209 215 171 146 150 119 146 150 119 209 215 171 209 215 171 146 150 119 146 150 119 209 215 171 209 215 171 132 142 105 132 142 105 132 142 105 132 142 105 132 142 105 189 204 150 132 142 105 132 142 105 132 142 105 132 142 105 132 142 105 132 142 105 189 204 150 189 204 150 116 137 99 116 137 99 116 137 99 116 137 99 116 137 99 116 137 99 116 137 99 116 137 99 167 197 142 116 137 99 116 137 99 167 197 142 167 197 142 167 197 142 116 137 99 116 137 99 102 133 97 147 191 139 147 191 139 147 191 139 147 191 139 167 197 142 167 197 142 167 197 142 167 197 142 116 137 99 167 197 142 167 197 142 167 197 142 167 197 142 189 204 150 189 204 150 189 204 150 189 204 150 167 197 142 189 204 150 189 204 150 167 197 142 116 137 99 167 197 142 116 137 99 116 137 99 147 191 139 147 191 139 102 133 97 102 133 97 147 191 139 147 191 139 147 191 139 102 133 97 147 191 139 147 191 139 147 191 139 147 191 139 102 133 97 147 191 139 147 191 139 120 145 115 120 145 115 120 145 115 172 208 165 172 208 165 172 208 165 151 169 177 216 242 254 216 242 254 137 164 178 197 235 255 197 235 255 197 235 255 197 235 255 137 164 178 184 227 255 184 227 255 128 158 178 184 227 255 184 227 255 172 218 250 120 152 175 120 152 175 172 218 250 120 152 175 172 218 250 172 218 250 172 218 250 160 210 247 160 210 247 160 210 247 160 210 247 172 218 250 160 210 247 112 147 172 160 210 247 160 210 247 160 210 247 112 147 172 105 140 168 105 140 168 105 140 168 105 140 168 98 134 163 98 134 163 140 192 234 140 192 234 98 134 163 140 192 234 140 192 234 98 134 163 140 192 234 140 192 234 140 192 234 140 192 234 140 192 234 98 134 163 98 134 163 98 134 163 92 128 158 92 128 158 92 128 158 92 128 158 140 192 234 140 192 234 140 192 234 140 192 234 140 192 234 140 192 234 140 192 234 140 192 234 140 192 234 140 192 234 98 134 163 140 192 234 140 192 234

209 215 171 146 150 119 209 215 171 209 215 171 209 215 171 146 150 119 209 215 171 132 142 105 132 142 105 132 142 105 189 204 150 209 215 171 209 215 171 209 215 171 146 150 119 209 215 171 146 150 119 146 150 119 209 215 171 209 215 171 209 215 171 146 150 119 146 150 119 209 215 171 146 150 119 209 215 171 209 215 171 209 215 171 209 215 171 209 215 171 146 150 119 156 159 126 156 159 126 146 150 119 146 150 119 209 215 171 224 228 180 146 150 119 209 215 171 224 228 180 156 159 126 156 159 126 146 150 119 146 150 119 146 150 119 146 150 119 209 215 171 146 150 119 146 150 119 146 150 119 146 150 119 146 150 119 146 150 119 209 215 171 209 215 171 209 215 171 209 215 171 146 150 119 146 150 119 146 150 119 132 142 105 132 142 105 132 142 105 132 142 105 132 142 105 132 142 105 132 142 105 132 142 105 132 142 105 132 142 105 132 142 105 132 142 105 132 142 105 132 142 105 132 142 105 189 204 150 132 142 105 132 142 105 132 142 105 209 215 171 209 215 171 146 150 119 209 215 171 146 150 119 146 150 119 146 150 119 146 150 119 146 150 119 146 150 119 146 150 119 209 215 171 209 215 171 209 215 171 209 215 171 146 150 119 209 215 171 209 215 171 146 150 119 209 215 171 209 215 171 209 215 171 209 215 171 146 150 119 209 215 171 209 215 171 209 215 171 146 150 119 209 215 171 209 215 171 146 150 119 132 142 105 132 142 105 132 142 105 132 142 105 132 142 105 132 142 105 189 204 150 132 142 105 132 142 105 189 204 150 132 142 105 132 142 105 189 204 150 132 142 105 189 204 150 116 137 99 116 137 99 116 137 99 116 137 99 116 137 99 116 137 99 167 197 142 167 197 142 116 137 99 116 137 99 167 197 142 167 197 142 167 197 142 167 197 142 116 137 99 167 197 142 167 197 142 102 133 97 147 191 139 102 133 97 167 197 142 167 197 142 167 197 142 167 197 142 167 197 142 167 197 142 167 197 142 189 204 150 189 204 150 189 204 150 189 204 150 189 204 150 189 204 150 189 204 150 189 204 150 189 204 150 189 204 150 116 137 99 167 197 142 116 137 99 116 137 99 102 133 97 147 191 139 147 191 139 147 191 139 147 191 139 102 133 97 147 191 139 102 133 97 147 191 139 147 191 139 167 197 142 147 191 139 147 191 139 102 133 97 102 133 97 120 145 115 120 145 115 120 145 115 172 208 165 172 208 165 172 208 165 172 208 165 216 242 254 216 242 254 216 242 254 197 235 255 197 235 255 197 235 255 197 235 255 137 164 178 197 235 255 197 235 255 184 227 255 184 227 255 184 227 255 184 227 255 172 218 250 172 218 250 172 218 250 172 218 250 172 218 250 172 218 250 172 218 250 172 218 250 172 218 250 172 218 250 172 218 250 172 218 250 172 218 250 172 218 250 172 218 250 160 210 247 112 147 172 112 147 172 160 210 247 105 140 168 105 140 168 98 134 163 98 134 163 98 134 163 140 192 234 140 192 234 140 192 234 140 192 234 140 192 234 140 192 234 140 192 234 140 192 234 140 192 234 140 192 234 140 192 234 98 134 163 140 192 234 92 128 158 92 128 158 92 128 158 140 192 234 132 184 227 140 192 234 92 128 158 92 128 158 140 192 234 140 192 234 140 192 234 140 192 234 140 192 234 140 192 234 140 192 234 140 192 234 140 192 234 140 192 234

209 215 171 146 150 119 146 150 119 146 150 119 146 150 119 146 150 119 209 215 171 132 142 105 189 204 150 189 204 150 189 204 150 209 215 171 209 215 171 209 215 171 209 215 171 209 215 171 209 215 171 209 215 171 209 215 171 209 215 171 209 215 171 146 150 119 146 150 119 146 150 119 146 150 119 209 215 171 209 215 171 146 150 119 209 215 171 209 215 171 209 215 171 146 150 119 146 150 119 146 150 119 146 150 119 209 215 171 146 150 119 146 150 119 209 215 171 224 228 180 156 159 126 146 150 119 146 150 119 146 150 119 209 215 171 209 215 171 146 150 119 146 150 119 146 150 119 146 150 119 146 150 119 146 150 119 209 215 171 209 215 171 146 150 119 146 150 119 146 150 119 146 150 119 146 150 119 132 142 105 132 142 105 132 142 105 132 142 105 132 142 105 132 142 105 132 142 105 132 142 105 132 142 105 189 204 150 132 142 105 132 142 105 132 142 105 189 204 150 132 142 105 132 142 105 189 204 150 132 142 105 189 204 150 189 204 150 189 204 150 146 150 119 146 150 119 146 150 119 146 150 119 146 150 119 146 150 119 146 150 119 146 150 119 146 150 119 209 215 171 209 215 171 209 215 171 146 150 119 146 150 119 146 150 119 209 215 171 146 150 119 146 150 119 146 150 119 209 215 171 146 150 119 146 150 119 146 150 119 146 150 119 209 215 171 209 215 171 209 215 171 209 215 171 146 150 119 146 150 119 132 142 105 132 142 105 132 142 105 189 204 150 189 204 150 189 204 150 189 204 150 132 142 105 189 204 150 132 142 105 132 142 105 132 142 105 189 204 150 116 137 99 116 137 99 116 137 99 116 137 99 116 137 99 167 197 142 167 197 142 167 197 142 167 197 142 167 197 142 116 137 99 167 197 142 167 197 142 167 197 142 167 197 142 116 137 99 116 137 99 167 197 142 167 197 142 167 197 142 167 197 142 167 197 142 167 197 142 167 197 142 167 197 142 167 197 142 167 197 142 167 197 142 167 197 142 167 197 142 132 142 105 189 204 150 189 204 150 189 204 150 132 142 105 189 204 150 189 204 150 189 204 150 132 142 105 116 137 99 116 137 99 116 137 99 116 137 99 167 197 142 147 191 139 102 133 97 102 133 97 147 191 139 102 133 97 147 191 139 102 133 97 147 191 139 147 191 139 147 191 139 102 133 97 102 133 97 102 133 97 147 191 139 102 133 97 172 208 165 172 208 165 172 208 165 120 145 115 120 145 115 120 145 115 151 169 177 151 169 177 151 169 177 151 169 177 137 164 178 137 164 178 137 164 178 137 164 178 197 235 255 197 235 255 197 235 255 184 227 255 184 227 255 128 158 178 184 227 255 172 218 250 172 218 250 172 218 250 120 152 175 120 152 175 172 218 250 172 218 250 120 152 175 120 152 175 120 152 175 172 218 250 120 152 175 172 218 250 112 147 172 112 147 172 112 147 172 112 147 172 105 140 168 105 140 168 105 140 168 105 140 168 150 201 240 140 192 234 140 192 234 98 134 163 140 192 234 98 134 163 140 192 234 98 134 163 98 134 163 98 134 163 98 134 163 98 134 163 98 134 163 98 134 163 92 128 158 92 128 158 92 128 158 92 128 158 132 184 227 92 128 158 132 184 227 140 192 234 140 192 234 140 192 234 140 192 234 98 134 163 98 134 163 140 192 234 140 192 234 140 192 234 140 192 234 98 134 163 140 192 234

189 204 150 146 150 119 146 150 119 132 142 105 209 215 171 209 215 171 209 215 171 209 215 171 189 204 150 189 204 150 209 215 171 209 215 171 209 215 171 209 215 171 209 215 171 209 215 171 209 215 171 209 215 171 209 215 171 209 215 171 209 215 171 146 150 119 209 215 171 146 150 119 209 215 171 209 215 171 209 215 171 146 150 119 209 215 171 146 150 119 146 150 119 146 150 119 146 150 119 146 150 119 146 150 119 146 150 119 146 150 119 209 215 171 209 215 171 146 150 119 146 150 119 146 150 119 146 150 119 146 150 119 146 150 119 146 150 119 146 150 119 209 215 171 146 150 119 209 215 171 209 215 171 146 150 119 209 215 171 146 150 119 146 150 119 146 150 119 146 150 119 146 150 119 146 150 119 132 142 105 132 142 105 132 142 105 132 142 105 132 142 105 132 142 105 116 137 99 116 137 99 132 142 105 189 204 150 132 142 105 132 142 105 132 142 105 189 204 150 189 204 150 189 204 150 189 204 150 189 204 150 189 204 150 132 142 105 189 204 150 189 204 150 132 142 105 132 142 105 132 142 105 132 142 105 146 150 119 146 150 119 209 215 171 146 150 119 209 215 171 209 215 171 209 215 171 209 215 171 209 215 171 209 215 171 146 150 119 146 150 119 146 150 119 209 215 171 209 215 171 146 150 119 209 215 171 209 215 171 209 215 171 209 215 171 209 215 171 209 215 171 146 150 119 146 150 119 209 215 171 132 142 105 132 142 105 189 204 150 132 142 105 132 142 105 132 142 105 189 204 150 132 142 105 132 142 105 132 142 105 132 142 105 132 142 105 189 204 150 116 137 99 116 137 99 116 137 99 116 137 99 116 137 99 167 197 142 116 137 99 167 197 142 167 197 142 167 197 142 167 197 142 167 197 142 167 197 142 189 204 150 167 197 142 167 197 142 167 197 142 167 197 142 167 197 142 116 137 99 167 197 142 167 197 142 167 197 142 167 197 142 167 197 142 167 197 142 167 197 142 167 197 142 167 197 142 189 204 150 189 204 150 189 204 150 189 204 150 132 142 105 189 204 150 189 204 150 189 204 150 189 204 150 132 142 105 132 142 105 167 197 142 167 197 142 167 197 142 167 197 142 167 197 142 167 197 142 147 191 139 102 133 97 102 133 97 102 133 97 102 133 97 147 191 139 147 191 139 147 191 139 102 133 97 147 191 139 102 133 97 102 133 97 102 133 97 120 145 115 147 191 139 172 208 165 120 145 115 172 208 165 120 145 115 120 145 115 151 169 177 151 169 177 151 169 177 137 164 178 197 235 255 197 235 255 137 164 178 197 235 255 197 235 255 197 235 255 128 158 178 197 235 255 184 227 255 184 227 255 128 158 178 184 227 255 172 218 250 184 227 255 172 218 250 172 218 250 120 152 175 172 218 250 172 218 250 120 152 175 172 218 250 112 147 172 112 147 172 172 218 250 112 147 172 112 147 172 112 147 172 105 140 168 105 140 168 105 140 168 105 140 168 150 201 240 98 134 163 140 192 234 140 192 234 140 192 234 98 134 163 98 134 163 98 134 163 98 134 163 98 134 163 98 134 163 98 134 163 92 128 158 92 128 158 92 128 158 92 128 158 92 128 158 92 128 158 132 184 227 132 184 227 132 184 227 140 192 234 140 192 234 140 192 234 140 192 234 140 192 234 98 134 163 98 134 163 98 134 163 98 134 163 98 134 163 98 134 163 140 192 234

209 215 171 189 204 150 132 142 105 132 142 105 132 142 105 209 215 171 209 215 171 146 150 119 209 215 171 209 215 171 209 215 171 209 215 171 209 215 171 209 215 171 209 215 171 209 215 171 209 215 171 209 215 171 146 150 119 146 150 119 209 215 171 146 150 119 209 215 171 146 150 119 209 215 171 209 215 171 146 150 119 146 150 119 146 150 119 146 150 119 146 150 119 146 150 119 146 150 119 146 150 119 146 150 119 146 150 119 146 150 119 146 150 119 146 150 119 146 150 119 209 215 171 146 150 119 146 150 119 146 150 119 209 215 171 209 215 171 209 215 171 209 215 171 209 215 171 209 215 171 146 150 119 146 150 119 209 215 171 146 150 119 146 150 119 146 150 119 132 142 105 146 150 119 132 142 105 132 142 105 132 142 105 132 142 105 132 142 105 116 137 99 116 137 99 116 137 99 116 137 99 116 137 99 116 137 99 132 142 105 189 204 150 189 204 150 189 204 150 189 204 150 189 204 150 132 142 105 132 142 105 189 204 150 132 142 105 132 142 105 132 142 105 132 142 105 132 142 105 132 142 105 132 142 105 132 142 105 132 142 105 132 142 105 132 142 105 146 150 119 146 150 119 209 215 171 209 215 171 209 215 171 146 150 119 146 150 119 146 150 119 209 215 171 209 215 171 146 150 119 146 150 119 146 150 119 146 150 119 146 150 119 209 215 171 209 215 171 146 150 119 146 150 119 146 150 119 209 215 171 146 150 119 132 142 105 189 204 150 189 204 150 189 204 150 189 204 150 132 142 105 132 142 105 132 142 105 132 142 105 189 204 150 189 204 150 189 204 150 116 137 99 116 137 99 116 137 99 116 137 99 116 137 99 167 197 142 167 197 142 167 197 142 167 197 142 167 197 142 116 137 99 167 197 142 167 197 142 167 197 142 116 137 99 116 137 99 167 197 142 167 197 142 116 137 99 116 137 99 167 197 142 167 197 142 167 197 142 116 137 99 116 137 99 167 197 142 167 197 142 167 197 142 167 197 142 189 204 150 189 204 150 189 204 150 189 204 150 189 204 150 189 204 150 189 204 150 189 204 150 189 204 150 132 142 105 132 142 105 116 137 99 167 197 142 116 137 99 167 197 142 167 197 142 116 137 99 102 133 97 147 191 139 147 191 139 147 191 139 102 133 97 147 191 139 147 191 139 147 191 139 102 133 97 102 133 97 102 133 97 102 133 97 102 133 97 147 191 139 147 191 139 120 145 115 120 145 115 120 145 115 120 145 115 120 145 115 151 169 177 151 169 177 151 169 177 137 164 178 197 235 255 197 235 255 137 164 178 197 235 255 197 235 255 197 235 255 197 235 255 197 235 255 197 235 255 128 158 178 184 227 255 184 227 255 184 227 255 184 227 255 184 227 255 184 227 255 172 218 250 172 218 250 172 218 250 172 218 250 172 218 250 120 152 175 112 147 172 160 210 247 112 147 172 112 147 172 112 147 172 105 140 168 105 140 168 105 140 168 105 140 168 150 201 240 98 134 163 140 192 234 140 192 234 140 192 234 140 192 234 140 192 234 98 134 163 98 134 163 140 192 234 92 128 158 98 134 163 92 128 158 92 128 158 92 128 158 92 128 158 92 128 158 132 184 227 132 184 227 132 184 227 132 184 227 140 192 234 140 192 234 98 134 163 140 192 234 98 134 163 98 134 163 140 192 234 140 192 234 140 192 234 140 192 234 98 134 163 98 134 163

209 215 171 132 142 105 132 142 105 132 142 105 189 204 150 209 215 171 132 142 105 132 142 105 209 215 171 209 215 171 209 215 171 209 215 171 209 215 171 209 215 171 209 215 171 146 150 119 209 215 171 146 150 119 146 150 119 146 150 119 209 215 171 209 215 171 209 215 171 146 150 119 209 215 171 146 150 119 146 150 119 146 150 119 209 215 171 146 150 119 146 150 119 146 150 119 146 150 119 146 150 119 146 150 119 146 150 119 146 150 119 209 215 171 209 215 171 209 215 171 209 215 171 146 150 119 146 150 119 209 215 171 209 215 171 209 215 171 209 215 171 146 150 119 209 215 171 146 150 119 146 150 119 146 150 119 209 215 171 146 150 119 146 150 119 146 150 119 132 142 105 132 142 105 132 142 105 132 142 105 132 142 105 132 142 105 116 137 99 116 137 99 116 137 99 116 137 99 167 197 142 116 137 99 167 197 142 189 204 150 189 204 150 189 204 150 189 204 150 189 204 150 189 204 150 132 142 105 189 204 150 189 204 150 132 142 105 132 142 105 189 204 150 189 204 150 132 142 105 132 142 105 189 204 150 189 204 150 132 142 105 189 204 150 132 142 105 209 215 171 209 215 171 209 215 171 209 215 171 146 150 119 146 150 119 209 215 171 209 215 171 146 150 119 146 150 119 209 215 171 209 215 171 146 150 119 146 150 119 209 215 171 209 215 171 146 150 119 146 150 119 209 215 171 209 215 171 209 215 171 209 215 171 132 142 105 189 204 150 132 142 105 132 142 105 132 142 105 132 142 105 189 204 150 132 142 105 189 204 150 189 204 150 132 142 105 132 142 105 116 137 99 167 197 142 116 137 99 116 137 99 116 137 99 167 197 142 116 137 99 167 197 142 167 197 142 189 204 150 167 197 142 167 197 142 167 197 142 189 204 150 167 197 142 167 197 142 167 197 142 167 197 142 116 137 99 167 197 142 167 197 142 167 197 142 116 137 99 167 197 142 167 197 142 167 197 142 167 197 142 167 197 142 189 204 150 189 204 150 189 204 150 189 204 150 189 204 150 209 215 171 189 204 150 209 215 171 189 204 150 189 204 150 132 142 105 132 142 105 189 204 150 189 204 150 167 197 142 167 197 142 167 197 142 167 197 142 167 197 142 167 197 142 102 133 97 102 133 97 102 133 97 147 191 139 102 133 97 102 133 97 102 133 97 147 191 139 102 133 97 102 133 97 147 191 139 147 191 139 120 145 115 120 145 115 120 145 115 120 145 115 172 208 165 120 145 115 120 145 115 151 169 177 151 169 177 151 169 177 216 242 254 197 235 255 137 164 178 197 235 255 197 235 255 197 235 255 197 235 255 197 235 255 197 235 255 128 158 178 184 227 255 184 227 255 128 158 178 184 227 255 184 227 255 184 227 255 184 227 255 184 227 255 184 227 255 172 218 250 120 152 175 172 218 250 112 147 172 160 210 247 112 147 172 112 147 172 112 147 172 112 147 172 150 201 240 105 140 168 105 140 168 98 134 163 150 201 240 150 201 240 150 201 240 150 201 240 140 192 234 140 192 234 98 134 163 98 134 163 92 128 158 92 128 158 92 128 158 92 128 158 92 128 158 92 128 158 92 128 158 132 184 227 132 184 227 92 128 158 132 184 227 140 192 234 140 192 234 140 192 234 140 192 234 98 134 163 98 134 163 98 134 163 140 192 234 140 192 234 140 192 234 98 134 163 140 192 234 140 192 234

189 204 150 132 142 105 132 142 105 189 204 150 189 204 150 209 215 171 209 215 171 209 215 171 209 215 171 209 215 171 209 215 171 209 215 171 209 215 171 209 215 171 209 215 171 146 150 119 146 150 119 146 150 119 209 215 171 209 215 171 209 215 171 146 150 119 146 150 119 146 150 119 209 215 171 146 150 119 209 215 171 146 150 119 146 150 119 146 150 119 146 150 119 146 150 119 146 150 119 132 142 105 146 150 119 146 150 119 146 150 119 209 215 171 146 150 119 209 215 171 209 215 171 146 150 119 146 150 119 209 215 171 209 215 171 209 215 171 209 215 171 146 150 119 209 215 171 209 215 171 146 150 119 209 215 171 146 150 119 146 150 119 209 215 171 146 150 119 132 142 105 132 142 105 132 142 105 132 142 105 116 137 99 116 137 99 116 137 99 116 137 99 116 137 99 116 137 99 167 197 142 116 137 99 167 197 142 189 204 150 189 204 150 189 204 150 189 204 150 132 142 105 132 142 105 132 142 105 132 142 105 132 142 105 132 142 105 132 142 105 132 142 105 132 142 105 132 142 105 189 204 150 189 204 150 189 204 150 189 204 150 132 142 105 132 142 105 189 204 150 132 142 105 146 150 119 146 150 119 146 150 119 146 150 119 146 150 119 209 215 171 209 215 171 209 215 171 146 150 119 146 150 119 146 150 119 146 150 119 209 215 171 209 215 171 209 215 171 209 215 171 209 215 171 146 150 119 146 150 119 146 150 119 146 150 119 132 142 105 132 142 105 132 142 105 132 142 105 132 142 105 189 204 150 189 204 150 189 204 150 189 204 150 132 142 105 116 137 99 116 137 99 167 197 142 116 137 99 167 197 142 167 197 142 167 197 142 167 197 142 167 197 142 167 197 142 189 204 150 116 137 99 189 204 150 189 204 150 189 204 150 189 204 150 189 204 150 189 204 150 116 137 99 167 197 142 167 197 142 167 197 142 167 197 142 116 137 99 167 197 142 167 197 142 167 197 142 189 204 150 189 204 150 189 204 150 189 204 150 189 204 150 189 204 150 189 204 150 189 204 150 132 142 105 132 142 105 209 215 171 189 204 150 132 142 105 189 204 150 189 204 150 132 142 105 116 137 99 116 137 99 116 137 99 116 137 99 116 137 99 116 137 99 102 133 97 102 133 97 147 191 139 147 191 139 102 133 97 102 133 97 147 191 139 147 191 139 147 191 139 147 191 139 147 191 139 102 133 97 102 133 97 172 208 165 120 145 115 120 145 115 120 145 115 120 145 115 120 145 115 151 169 177 151 169 177 216 242 254 216 242 254 216 242 254 197 235 255 197 235 255 197 235 255 197 235 255 137 164 178 137 164 178 137 164 178 128 158 178 128 158 178 184 227 255 184 227 255 184 227 255 184 227 255 184 227 255 184 227 255 184 227 255 128 158 178 120 152 175 120 152 175 172 218 250 120 152 175 160 210 247 112 147 172 112 147 172 112 147 172 160 210 247 105 140 168 105 140 168 105 140 168 105 140 168 150 201 240 150 201 240 150 201 240 150 201 240 105 140 168 140 192 234 98 134 163 98 134 163 92 128 158 92 128 158 132 184 227 132 184 227 132 184 227 132 184 227 92 128 158 92 128 158 92 128 158 132 184 227 132 184 227 132 184 227 140 192 234 98 134 163 98 134 163 92 128 158 140 192 234 140 192 234 140 192 234 140 192 234 140 192 234 92 128 158 98 134 163 92 128 158

189 204 150 189 204 150 189 204 150 189 204 150 189 204 150 209 215 171 209 215 171 209 215 171 209 215 171 209 215 171 209 215 171 209 215 171 209 215 171 146 150 119 146 150 119 146 150 119 146 150 119 209 215 171 209 215 171 146 150 119 209 215 171 146 150 119 209 215 171 209 215 171 209 215 171 146 150 119 146 150 119 132 142 105 132 142 105 146 150 119 132 142 105 132 142 105 132 142 105 132 142 105 132 142 105 132 142 105 209 215 171 209 215 171 209 215 171 209 215 171 146 150 119 146 150 119 209 215 171 209 215 171 209 215 171 209 215 171 224 228 180 209 215 171 224 228 180 209 215 171 209 215 171 146 150 119 146 150 119 146 150 119 146 150 119 132 142 105 132 142 105 132 142 105 189 204 150 132 142 105 132 142 105 116 137 99 116 137 99 116 137 99 116 137 99 116 137 99 167 197 142 116 137 99 167 197 142 167 197 142 189 204 150 132 142 105 189 204 150 132 142 105 132 142 105 116 137 99 116 137 99 116 137 99 116 137 99 132 142 105 132 142 105 132 142 105 132 142 105 132 142 105 132 142 105 132 142 105 189 204 150 132 142 105 189 204 150 189 204 150 132 142 105 209 215 171 209 215 171 209 215 171 209 215 171 209 215 171 209 215 171 209 215 171 209 215 171 209 215 171 146 150 119 146 150 119 209 215 171 209 215 171 209 215 171 146 150 119 209 215 171 146 150 119 146 150 119 146 150 119 146 150 119 132 142 105 132 142 105 132 142 105 189 204 150 189 204 150 189 204 150 189 204 150 189 204 150 189 204 150 189 204 150 132 142 105 189 204 150 189 204 150 189 204 150 116 137 99 116 137 99 167 197 142 167 197 142 167 197 142 167 197 142 167 197 142 167 197 142 116 137 99 189 204 150 189 204 150 189 204 150 189 204 150 189 204 150 189 204 150 189 204 150 189 204 150 189 204 150 167 197 142 167 197 142 116 137 99 167 197 142 167 197 142 189 204 150 189 204 150 189 204 150 189 204 150 189 204 150 189 204 150 189 204 150 189 204 150 189 204 150 209 215 171 209 215 171 209 215 171 209 215 171 189 204 150 189 204 150 189 204 150 189 204 150 116 137 99 116 137 99 116 137 99 116 137 99 116 137 99 167 197 142 102 133 97 167 197 142 147 191 139 147 191 139 102 133 97 147 191 139 147 191 139 147 191 139 102 133 97 102 133 97 147 191 139 147 191 139 147 191 139 147 191 139 147 191 139 120 145 115 172 208 165 172 208 165 120 145 115 172 208 165 151 169 177 216 242 254 216 242 254 216 242 254 137 164 178 137 164 178 197 235 255 197 235 255 197 235 255 137 164 178 137 164 178 197 235 255 184 227 255 184 227 255 184 227 255 184 227 255 184 227 255 184 227 255 184 227 255 184 227 255 128 158 178 120 152 175 120 152 175 172 218 250 172 218 250 172 218 250 112 147 172 112 147 172 160 210 247 160 210 247 112 147 172 160 210 247 150 201 240 150 201 240 150 201 240 105 140 168 150 201 240 105 140 168 105 140 168 98 134 163 98 134 163 98 134 163 92 128 158 132 184 227 132 184 227 132 184 227 132 184 227 132 184 227 92 128 158 132 184 227 132 184 227 132 184 227 132 184 227 140 192 234 140 192 234 140 192 234 140 192 234 140 192 234 140 192 234 140 192 234 140 192 234 140 192 234 98 134 163 92 128 158 132 184 227 140 192 234

189 204 150 132 142 105 189 204 150 189 204 150 209 215 171 209 215 171 209 215 171 209 215 171 209 215 171 209 215 171 146 150 119 146 150 119 146 150 119 146 150 119 209 215 171 146 150 119 209 215 171 209 215 171 209 215 171 146 150 119 146 150 119 146 150 119 146 150 119 209 215 171 209 215 171 146 150 119 132 142 105 132 142 105 132 142 105 132 142 105 132 142 105 132 142 105 132 142 105 132 142 105 132 142 105 132 142 105 189 204 150 209 215 171 209 215 171 146 150 119 209 215 171 209 215 171 146 150 119 209 215 171 209 215 171 209 215 171 209 215 171 224 228 180 224 228 180 146 150 119 146 150 119 146 150 119 146 150 119 132 142 105 132 142 105 132 142 105 132 142 105 132 142 105 189 204 150 132 142 105 116 137 99 116 137 99 116 137 99 116 137 99 116 137 99 102 133 97 167 197 142 167 197 142 167 197 142 116 137 99 167 197 142 189 204 150 189 204 150 132 142 105 116 137 99 189 204 150 189 204 150 167 197 142 167 197 142 116 137 99 116 137 99 116 137 99 116 137 99 189 204 150 189 204 150 189 204 150 189 204 150 189 204 150 189 204 150 189 204 150 132 142 105 189 204 150 132 142 105 146 150 119 146 150 119 146 150 119 146 150 119 209 215 171 209 215 171 209 215 171 209 215 171 209 215 171 209 215 171 209 215 171 209 215 171 146 150 119 209 215 171 146 150 119 209 215 171 146 150 119 146 150 119 132 142 105 132 142 105 132 142 105 189 204 150 189 204 150 189 204 150 132 142 105 189 204 150 132 142 105 189 204 150 189 204 150 189 204 150 132 142 105 132 142 105 132 142 105 167 197 142 167 197 142 167 197 142 167 197 142 167 197 142 167 197 142 167 197 142 167 197 142 189 204 150 189 204 150 189 204 150 189 204 150 189 204 150 189 204 150 189 204 150 132 142 105 132 142 105 116 137 99 116 137 99 116 137 99 167 197 142 167 197 142 189 204 150 189 204 150 189 204 150 132 142 105 189 204 150 189 204 150 189 204 150 189 204 150 189 204 150 209 215 171 209 215 171 209 215 171 209 215 171 209 215 171 209 215 171 132 142 105 132 142 105 116 137 99 167 197 142 116 137 99 167 197 142 167 197 142 167 197 142 167 197 142 167 197 142 102 133 97 102 133 97 102 133 97 102 133 97 147 191 139 102 133 97 102 133 97 147 191 139 147 191 139 147 191 139 147 191 139 147 191 139 147 191 139 120 145 115 120 145 115 120 145 115 120 145 115 172 208 165 172 208 165 172 208 165 216 242 254 216 242 254 151 169 177 137 164 178 197 235 255 137 164 178 137 164 178 137 164 178 197 235 255 197 235 255 137 164 178 197 235 255 197 235 255 197 235 255 197 235 255 197 235 255 184 227 255 128 158 178 128 158 178 120 152 175 120 152 175 120 152 175 120 152 175 120 152 175 112 147 172 112 147 172 160 210 247 160 210 247 160 210 247 105 140 168 105 140 168 105 140 168 105 140 168 150 201 240 150 201 240 150 201 240 105 140 168 98 134 163 98 134 163 98 134 163 98 134 163 140 192 234 140 192 234 132 184 227 132 184 227 92 128 158 92 128 158 132 184 227 132 184 227 132 184 227 132 184 227 140 192 234 140 192 234 98 134 163 98 134 163 140 192 234 140 192 234 140 192 234 98 134 163 98 134 163 98 134 163 140 192 234 140 192 234 140 192 234

189 204 150 132 142 105 189 204 150 189 204 150 209 215 171 209 215 171 209 215 171 209 215 171 209 215 171 146 150 119 209 215 171 146 150 119 146 150 119 146 150 119 146 150 119 146 150 119 209 215 171 209 215 171 209 215 171 209 215 171 209 215 171 146 150 119 209 215 171 209 215 171 146 150 119 132 142 105 132 142 105 132 142 105 132 142 105 189 204 150 132 142 105 132 142 105 132 142 105 189 204 150 189 204 150 132 142 105 189 204 150 132 142 105 209 215 171 146 150 119 209 215 171 209 215 171 209 215 171 209 215 171 209 215 171 146 150 119 146 150 119 224 228 180 224 228 180 146 150 119 146 150 119 146 150 119 146 150 119 132 142 105 189 204 150 132 142 105 132 142 105 132 142 105 132 142 105 132 142 105 116 137 99 116 137 99 116 137 99 102 133 97 102 133 97 102 133 97 147 191 139 102 133 97 116 137 99 116 137 99 167 197 142 167 197 142 189 204 150 116 137 99 132 142 105 189 204 150 189 204 150 116 137 99 116 137 99 116 137 99 167 197 142 167 197 142 189 204 150 189 204 150 189 204 150 189 204 150 189 204 150 189 204 150 189 204 150 189 204 150 189 204 150 189 204 150 132 142 105 209 215 171 209 215 171 146 150 119 209 215 171 209 215 171 209 215 171 146 150 119 146 150 119 209 215 171 209 215 171 209 215 171 209 215 171 209 215 171 209 215 171 146 150 119 146 150 119 209 215 171 209 215 171 132 142 105 132 142 105 189 204 150 132 142 105 132 142 105 189 204 150 189 204 150 189 204 150 189 204 150 209 215 171 132 142 105 132 142 105 132 142 105 189 204 150 189 204 150 189 204 150 167 197 142 116 137 99 167 197 142 167 197 142 167 197 142 167 197 142 167 197 142 189 204 150 189 204 150 189 204 150 189 204 150 189 204 150 189 204 150 189 204 150 132 142 105 116 137 99 116 137 99 116 137 99 167 197 142 167 197 142 167 197 142 189 204 150 189 204 150 189 204 150 189 204 150 189 204 150 189 204 150 189 204 150 132 142 105 209 215 171 209 215 171 209 215 171 209 215 171 209 215 171 146 150 119 209 215 171 132 142 105 132 142 105 132 142 105 167 197 142 116 137 99 116 137 99 116 137 99 167 197 142 116 137 99 167 197 142 102 133 97 147 191 139 147 191 139 147 191 139 147 191 139 102 133 97 147 191 139 147 191 139 147 191 139 147 191 139 147 191 139 147 191 139 147 191 139 102 133 97 172 208 165 172 208 165 172 208 165 172 208 165 172 208 165 172 208 165 172 208 165 216 242 254 151 169 177 216 242 254 197 235 255 197 235 255 197 235 255 197 235 255 197 235 255 197 235 255 197 235 255 197 235 255 197 235 255 197 235 255 197 235 255 197 235 255 197 235 255 128 158 178 184 227 255 184 227 255 120 152 175 172 218 250 172 218 250 120 152 175 112 147 172 112 147 172 160 210 247 160 210 247 160 210 247 112 147 172 105 140 168 105 140 168 150 201 240 150 201 240 150 201 240 150 201 240 105 140 168 150 201 240 140 192 234 98 134 163 98 134 163 140 192 234 140 192 234 92 128 158 92 128 158 132 184 227 132 184 227 132 184 227 132 184 227 132 184 227 132 184 227 140 192 234 140 192 234 98 134 163 140 192 234 140 192 234 98 134 163 98 134 163 98 134 163 98 134 163 140 192 234 98 134 163 92 128 158 92 128 158

189 204 150 189 204 150 189 204 150 189 204 150 209 215 171 209 215 171 209 215 171 209 215 171 209 215 171 146 150 119 209 215 171 146 150 119 146 150 119 146 150 119 146 150 119 146 150 119 209 215 171 146 150 119 209 215 171 146 150 119 146 150 119 146 150 119 209 215 171 209 215 171 146 150 119 146 150 119 189 204 150 132 142 105 189 204 150 132 142 105 189 204 150 132 142 105 189 204 150 189 204 150 189 204 150 132 142 105 189 204 150 189 204 150 209 215 171 209 215 171 209 215 171 146 150 119 209 215 171 146 150 119 146 150 119 146 150 119 146 150 119 209 215 171 146 150 119 146 150 119 146 150 119 132 142 105 132 142 105 132 142 105 189 204 150 132 142 105 132 142 105 132 142 105 116 137 99 116 137 99 116 137 99 116 137 99 116 137 99 116 137 99 147 191 139 147 191 139 167 197 142 167 197 142 167 197 142 167 197 142 167 197 142 167 197 142 167 197 142 189 204 150 167 197 142 189 204 150 116 137 99 116 137 99 116 137 99 116 137 99 116 137 99 167 197 142 167 197 142 189 204 150 189 204 150 189 204 150 189 204 150 189 204 150 189 204 150 189 204 150 189 204 150 189 204 150 189 204 150 209 215 171 209 215 171 209 215 171 209 215 171 209 215 171 209 215 171 146 150 119 146 150 119 146 150 119 209 215 171 209 215 171 209 215 171 209 215 171 209 215 171 146 150 119 209 215 171 209 215 171 146 150 119 132 142 105 132 142 105 189 204 150 189 204 150 189 204 150 189 204 150 189 204 150 189 204 150 189 204 150 189 204 150 132 142 105 189 204 150 189 204 150 189 204 150 189 204 150 116 137 99 116 137 99 167 197 142 167 197 142 167 197 142 167 197 142 167 197 142 189 204 150 189 204 150 189 204 150 189 204 150 189 204 150 189 204 150 189 204 150 189 204 150 132 142 105 116 137 99 167 197 142 167 197 142 167 197 142 167 197 142 189 204 150 189 204 150 189 204 150 189 204 150 189 204 150 189 204 150 189 204 150 189 204 150 209 215 171 209 215 171 209 215 171 209 215 171 209 215 171 209 215 171 146 150 119 146 150 119 132 142 105 189 204 150 132 142 105 132 142 105 167 197 142 167 197 142 167 197 142 167 197 142 167 197 142 167 197 142 116 137 99 147 191 139 147 191 139 147 191 139 147 191 139 147 191 139 102 133 97 147 191 139 147 191 139 147 191 139 147 191 139 147 191 139 102 133 97 102 133 97 147 191 139 172 208 165 172 208 165 172 208 165 120 145 115 172 208 165 120 145 115 151 169 177 151 169 177 151 169 177 151 169 177 197 235 255 197 235 255 197 235 255 197 235 255 197 235 255 197 235 255 197 235 255 197 235 255 197 235 255 197 235 255 197 235 255 137 164 178 137 164 178 128 158 178 128 158 178 120 152 175 120 152 175 120 152 175 172 218 250 120 152 175 160 210 247 160 210 247 160 210 247 112 147 172 112 147 172 112 147 172 105 140 168 105 140 168 105 140 168 105 140 168 105 140 168 105 140 168 98 134 163 98 134 163 98 134 163 98 134 163 98 134 163 98 134 163 92 128 158 132 184 227 92 128 158 92 128 158 132 184 227 92 128 158 132 184 227 132 184 227 140 192 234 140 192 234 92 128 158 92 128 158 98 134 163 98 134 163 92 128 158 92 128 158 92 128 158 92 128 158 92 128 158 92 128 158 92 128 158

189 204 150 189 204 150 189 204 150 189 204 150 209 215 171 209 215 171 209 215 171 146 150 119 146 150 119 146 150 119 146 150 119 146 150 119 209 215 171 209 215 171 209 215 171 209 215 171 132 142 105 146 150 119 209 215 171 132 142 105 132 142 105 132 142 105 209 215 171 209 215 171 132 142 105 132 142 105 132 142 105 132 142 105 189 204 150 132 142 105 189 204 150 189 204 150 189 204 150 189 204 150 189 204 150 132 142 105 189 204 150 189 204 150 209 215 171 146 150 119 146 150 119 209 215 171 209 215 171 209 215 171 209 215 171 146 150 119 209 215 171 209 215 171 146 150 119 146 150 119 146 150 119 132 142 105 132 142 105 132 142 105 132 142 105 132 142 105 132 142 105 132 142 105 116 137 99 116 137 99 116 137 99 116 137 99 116 137 99 102 133 97 102 133 97 102 133 97 167 197 142 167 197 142 102 133 97 167 197 142 167 197 142 167 197 142 167 197 142 116 137 99 116 137 99 167 197 142 116 137 99 116 137 99 116 137 99 116 137 99 167 197 142 167 197 142 167 197 142 189 204 150 189 204 150 189 204 150 189 204 150 189 204 150 209 215 171 209 215 171 209 215 171 189 204 150 209 215 171 209 215 171 209 215 171 209 215 171 209 215 171 209 215 171 209 215 171 146 150 119 209 215 171 209 215 171 209 215 171 209 215 171 209 215 171 146 150 119 209 215 171 146 150 119 209 215 171 146 150 119 146 150 119 132 142 105 132 142 105 189 204 150 189 204 150 189 204 150 189 204 150 189 204 150 209 215 171 189 204 150 209 215 171 189 204 150 189 204 150 189 204 150 189 204 150 189 204 150 189 204 150 189 204 150 189 204 150 167 197 142 189 204 150 167 197 142 189 204 150 189 204 150 189 204 150 189 204 150 189 204 150 189 204 150 189 204 150 189 204 150 189 204 150 189 204 150 132 142 105 167 197 142 167 197 142 167 197 142 189 204 150 189 204 150 189 204 150 189 204 150 189 204 150 189 204 150 189 204 150 189 204 150 189 204 150 189 204 150 209 215 171 209 215 171 209 215 171 209 215 171 209 215 171 146 150 119 146 150 119 209 215 171 132 142 105 132 142 105 132 142 105 132 142 105 116 137 99 116 137 99 167 197 142 167 197 142 116 137 99 167 197 142 167 197 142 102 133 97 147 191 139 102 133 97 102 133 97 147 191 139 147 191 139 147 191 139 147 191 139 147 191 139 147 191 139 102 133 97 102 133 97 102 133 97 120 145 115 120 145 115 172 208 165 120 145 115 172 208 165 120 145 115 120 145 115 216 242 254 151 169 177 151 169 177 216 242 254 197 235 255 197 235 255 197 235 255 197 235 255 197 235 255 197 235 255 197 235 255 197 235 255 197 235 255 137 164 178 137 164 178 197 235 255 128 158 178 128 158 178 128 158 178 172 218 250 172 218 250 172 218 250 120 152 175 172 218 250 172 218 250 160 210 247 112 147 172 112 147 172 160 210 247 105 140 168 150 201 240 105 140 168 150 201 240 150 201 240 150 201 240 105 140 168 98 134 163 98 134 163 98 134 163 140 192 234 140 192 234 92 128 158 92 128 158 132 184 227 132 184 227 92 128 158 132 184 227 140 192 234 132 184 227 140 192 234 92 128 158 92 128 158 132 184 227 132 184 227 92 128 158 92 128 158 92 128 158 92 128 158 92 128 158 92 128 158 92 128 158 132 184 227

189 204 150 209 215 171 209 215 171 209 215 171 209 215 171 209 215 171 146 150 119 146 150 119 209 215 171 209 215 171 209 215 171 146 150 119 146 150 119 146 150 119 132 142 105 209 215 171 209 215 171 209 215 171 132 142 105 132 142 105 189 204 150 209 215 171 189 204 150 209 215 171 209 215 171 189 204 150 189 204 150 132 142 105 189 204 150 132 142 105 132 142 105 132 142 105 132 142 105 189 204 150 189 204 150 189 204 150 132 142 105 189 204 150 209 215 171 209 215 171 132 142 105 146 150 119 209 215 171 209 215 171 146 150 119 209 215 171 146 150 119 146 150 119 132 142 105 132 142 105 132 142 105 132 142 105 132 142 105 132 142 105 132 142 105 132 142 105 132 142 105 116 137 99 116 137 99 116 137 99 116 137 99 116 137 99 102 133 97 102 133 97 147 191 139 147 191 139 167 197 142 102 133 97 102 133 97 167 197 142 167 197 142 116 137 99 116 137 99 116 137 99 167 197 142 116 137 99 116 137 99 167 197 142 167 197 142 167 197 142 167 197 142 167 197 142 167 197 142 189 204 150 189 204 150 189 204 150 189 204 150 132 142 105 132 142 105 209 215 171 209 215 171 209 215 171 209 215 171 209 215 171 209 215 171 209 215 171 209 215 171 146 150 119 146 150 119 146 150 119 209 215 171 209 215 171 209 215 171 209 215 171 146 150 119 209 215 171 209 215 171 146 150 119 209 215 171 146 150 119 146 150 119 209 215 171 189 204 150 189 204 150 189 204 150 132 142 105 189 204 150 209 215 171 189 204 150 132 142 105 209 215 171 209 215 171 189 204 150 209 215 171 209 215 171 189 204 150 132 142 105 189 204 150 189 204 150 189 204 150 189 204 150 189 204 150 189 204 150 189 204 150 189 204 150 189 204 150 189 204 150 189 204 150 189 204 150 132 142 105 189 204 150 132 142 105 189 204 150 189 204 150 189 204 150 189 204 150 189 204 150 189 204 150 189 204 150 189 204 150 189 204 150 189 204 150 189 204 150 132 142 105 189 204 150 209 215 171 209 215 171 209 215 171 209 215 171 146 150 119 209 215 171 146 150 119 146 150 119 146 150 119 132 142 105 189 204 150 189 204 150 189 204 150 189 204 150 167 197 142 167 197 142 167 197 142 116 137 99 167 197 142 167 197 142 116 137 99 147 191 139 147 191 139 147 191 139 147 191 139 147 191 139 147 191 139 102 133 97 102 133 97 102 133 97 102 133 97 102 133 97 120 145 115 120 145 115 172 208 165 172 208 165 172 208 165 172 208 165 120 145 115 120 145 115 151 169 177 151 169 177 216 242 254 216 242 254 216 242 254 216 242 254 216 242 254 197 235 255 197 235 255 197 235 255 197 235 255 197 235 255 137 164 178 137 164 178 137 164 178 137 164 178 128 158 178 184 227 255 128 158 178 120 152 175 172 218 250 172 218 250 120 152 175 120 152 175 112 147 172 112 147 172 112 147 172 112 147 172 112 147 172 105 140 168 105 140 168 105 140 168 105 140 168 150 201 240 105 140 168 98 134 163 98 134 163 98 134 163 98 134 163 140 192 234 98 134 163 98 134 163 92 128 158 92 128 158 92 128 158 132 184 227 132 184 227 92 128 158 92 128 158 132 184 227 92 128 158 92 128 158 92 128 158 92 128 158 92 128 158 92 128 158 92 128 158 92 128 158 132 184 227 132 184 227 132 184 227 132 184 227

209 215 171 209 215 171 209 215 171 209 215 171 209 215 171 209 215 171 146 150 119 209 215 171 209 215 171 209 215 171 209 215 171 146 150 119 146 150 119 209 215 171 146 150 119 189 204 150 209 215 171 132 142 105 132 142 105 132 142 105 132 142 105 132 142 105 209 215 171 209 215 171 209 215 171 132 142 105 189 204 150 132 142 105 132 142 105 132 142 105 189 204 150 189 204 150 189 204 150 189 204 150 132 142 105 132 142 105 132 142 105 189 204 150 189 204 150 132 142 105 132 142 105 189 204 150 209 215 171 146 150 119 209 215 171 146 150 119 146 150 119 132 142 105 132 142 105 132 142 105 132 142 105 132 142 105 132 142 105 132 142 105 116 137 99 116 137 99 116 137 99 116 137 99 116 137 99 116 137 99 102 133 97 102 133 97 102 133 97 147 191 139 167 197 142 167 197 142 147 191 139 167 197 142 167 197 142 147 191 139 116 137 99 167 197 142 167 197 142 167 197 142 167 197 142 167 197 142 167 197 142 167 197 142 167 197 142 167 197 142 167 197 142 167 197 142 189 204 150 189 204 150 189 204 150 132 142 105 189 204 150 189 204 150 209 215 171 209 215 171 209 215 171 209 215 171 209 215 171 209 215 171 209 215 171 209 215 171 209 215 171 209 215 171 209 215 171 209 215 171 209 215 171 209 215 171 209 215 171 209 215 171 209 215 171 209 215 171 146 150 119 146 150 119 209 215 171 146 150 119 146 150 119 209 215 171 209 215 171 132 142 105 189 204 150 189 204 150 209 215 171 209 215 171 209 215 171 209 215 171 209 215 171 209 215 171 209 215 171 209 215 171 209 215 171 132 142 105 132 142 105 189 204 150 189 204 150 189 204 150 189 204 150 189 204 150 189 204 150 189 204 150 209 215 171 209 215 171 209 215 171 209 215 171 189 204 150 132 142 105 189 204 150 132 142 105 132 142 105 189 204 150 189 204 150 189 204 150 189 204 150 189 204 150 189 204 150 189 204 150 189 204 150 189 204 150 132 142 105 189 204 150 209 215 171 209 215 171 209 215 171 209 215 171 209 215 171 209 215 171 209 215 171 209 215 171 209 215 171 146 150 119 132 142 105 132 142 105 132 142 105 189 204 150 189 204 150 116 137 99 116 137 99 116 137 99 116 137 99 167 197 142 167 197 142 116 137 99 102 133 97 147 191 139 147 191 139 102 133 97 147 191 139 147 191 139 147 191 139 147 191 139 147 191 139 102 133 97 102 133 97 120 145 115 172 208 165 147 191 139 147 191 139 172 208 165 172 208 165 120 145 115 172 208 165 172 208 165 151 169 177 151 169 177 216 242 254 216 242 254 216 242 254 216 242 254 216 242 254 197 235 255 216 242 254 197 235 255 137 164 178 137 164 178 137 164 178 197 235 255 137 164 178 128 158 178 197 235 255 128 158 178 128 158 178 172 218 250 120 152 175 120 152 175 120 152 175 112 147 172 112 147 172 112 147 172 160 210 247 112 147 172 112 147 172 105 140 168 105 140 168 150 201 240 150 201 240 98 134 163 98 134 163 98 134 163 140 192 234 98 134 163 140 192 234 140 192 234 140 192 234 92 128 158 92 128 158 132 184 227 92 128 158 92 128 158 92 128 158 132 184 227 132 184 227 92 128 158 92 128 158 92 128 158 92 128 158 92 128 158 92 128 158 92 128 158 132 184 227 132 184 227 132 184 227 132 184 227 140 192 234

209 215 171 209 215 171 209 215 171 209 215 171 209 215 171 209 215 171 146 150 119 209 215 171 146 150 119 146 150 119 146 150 119 132 142 105 132 142 105 132 142 105 132 142 105 132 142 105 132 142 105 132 142 105 132 142 105 189 204 150 189 204 150 189 204 150 189 204 150 209 215 171 146 150 119 146 150 119 132 142 105 132 142 105 132 142 105 132 142 105 189 204 150 189 204 150 189 204 150 132 142 105 132 142 105 132 142 105 189 204 150 189 204 150 132 142 105 132 142 105 189 204 150 209 215 171 209 215 171 209 215 171 146 150 119 132 142 105 132 142 105 132 142 105 132 142 105 132 142 105 132 142 105 132 142 105 132 142 105 116 137 99 116 137 99 116 137 99 116 137 99 116 137 99 102 133 97 102 133 97 102 133 97 102 133 97 102 133 97 102 133 97 147 191 139 167 197 142 102 133 97 147 191 139 102 133 97 102 133 97 147 191 139 102 133 97 102 133 97 116 137 99 116 137 99 116 137 99 116 137 99 116 137 99 167 197 142 116 137 99 116 137 99 167 197 142 189 204 150 189 204 150 189 204 150 189 204 150 189 204 150 189 204 150 209 215 171 209 215 171 209 215 171 209 215 171 209 215 171 209 215 171 209 215 171 209 215 171 209 215 171 146 150 119 209 215 171 146 150 119 209 215 171 209 215 171 146 150 119 146 150 119 146 150 119 146 150 119 146 150 119 146 150 119 146 150 119 146 150 119 146 150 119 146 150 119 209 215 171 209 215 171 189 204 150 189 204 150 209 215 171 209 215 171 146 150 119 209 215 171 132 142 105 132 142 105 146 150 119 146 150 119 132 142 105 146 150 119 189 204 150 209 215 171 189 204 150 189 204 150 189 204 150 189 204 150 189 204 150 189 204 150 209 215 171 209 215 171 209 215 171 209 215 171 132 142 105 132 142 105 189 204 150 132 142 105 189 204 150 189 204 150 209 215 171 209 215 171 209 215 171 209 215 171 189 204 150 209 215 171 189 204 150 189 204 150 189 204 150 189 204 150 189 204 150 209 215 171 209 215 171 209 215 171 209 215 171 209 215 171 209 215 171 146 150 119 146 150 119 146 150 119 209 215 171 209 215 171 189 204 150 189 204 150 189 204 150 132 142 105 167 197 142 167 197 142 167 197 142 167 197 142 116 137 99 116 137 99 167 197 142 167 197 142 167 197 142 167 197 142 167 197 142 147 191 139 102 133 97 102 133 97 102 133 97 102 133 97 102 133 97 120 145 115 172 208 165 172 208 165 120 145 115 147 191 139 172 208 165 120 145 115 120 145 115 120 145 115 151 169 177 216 242 254 216 242 254 216 242 254 216 242 254 216 242 254 216 242 254 216 242 254 216 242 254 137 164 178 137 164 178 197 235 255 197 235 255 197 235 255 137 164 178 137 164 178 128 158 178 128 158 178 184 227 255 120 152 175 120 152 175 120 152 175 120 152 175 112 147 172 160 210 247 112 147 172 112 147 172 112 147 172 105 140 168 105 140 168 105 140 168 150 201 240 105 140 168 98 134 163 98 134 163 98 134 163 140 192 234 98 134 163 98 134 163 92 128 158 92 128 158 92 128 158 92 128 158 92 128 158 92 128 158 92 128 158 132 184 227 132 184 227 92 128 158 92 128 158 92 128 158 92 128 158 92 128 158 92 128 158 92 128 158 132 184 227 132 184 227 92 128 158 92 128 158 92 128 158 92 128 158

209 215 171 209 215 171 209 215 171 209 215 171 209 215 171 209 215 171 209 215 171 209 215 171 209 215 171 146 150 119 146 150 119 132 142 105 132 142 105 132 142 105 132 142 105 132 142 105 132 142 105 189 204 150 132 142 105 189 204 150 189 204 150 189 204 150 209 215 171 209 215 171 209 215 171 209 215 171 132 142 105 132 142 105 189 204 150 189 204 150 189 204 150 189 204 150 189 204 150 132 142 105 132 142 105 132 142 105 189 204 150 189 204 150 189 204 150 189 204 150 189 204 150 189 204 150 209 215 171 132 142 105 132 142 105 132 142 105 132 142 105 132 142 105 132 142 105 132 142 105 116 137 99 116 137 99 116 137 99 116 137 99 116 137 99 116 137 99 116 137 99 102 133 97 102 133 97 102 133 97 102 133 97 102 133 97 102 133 97 147 191 139 147 191 139 102 133 97 167 197 142 167 197 142 102 133 97 147 191 139 102 133 97 147 191 139 147 191 139 167 197 142 167 197 142 116 137 99 167 197 142 116 137 99 116 137 99 116 137 99 116 137 99 189 204 150 189 204 150 189 204 150 189 204 150 189 204 150 189 204 150 189 204 150 209 215 171 209 215 171 209 215 171 209 215 171 209 215 171 209 215 171 209 215 171 209 215 171 209 215 171 209 215 171 209 215 171 209 215 171 209 215 171 209 215 171 209 215 171 209 215 171 146 150 119 146 150 119 146 150 119 209 215 171 146 150 119 146 150 119 146 150 119 209 215 171 209 215 171 146 150 119 209 215 171 209 215 171 209 215 171 209 215 171 209 215 171 209 215 171 132 142 105 209 215 171 209 215 171 132 142 105 209 215 171 209 215 171 209 215 171 209 215 171 209 215 171 209 215 171 209 215 171 209 215 171 209 215 171 209 215 171 209 215 171 209 215 171 209 215 171 209 215 171 209 215 171 209 215 171 189 204 150 189 204 150 209 215 171 209 215 171 209 215 171 209 215 171 209 215 171 209 215 171 209 215 171 209 215 171 209 215 171 189 204 150 132 142 105 189 204 150 209 215 171 209 215 171 209 215 171 209 215 171 209 215 171 209 215 171 209 215 171 209 215 171 209 215 171 146 150 119 146 150 119 209 215 171 209 215 171 209 215 171 189 204 150 132 142 105 132 142 105 167 197 142 116 137 99 116 137 99 167 197 142 167 197 142 167 197 142 167 197 142 167 197 142 167 197 142 167 197 142 116 137 99 102 133 97 102 133 97 147 191 139 102 133 97 147 191 139 102 133 97 147 191 139 147 191 139 147 191 139 147 191 139 120 145 115 120 145 115 120 145 115 172 208 165 120 145 115 216 242 254 172 208 165 172 208 165 216 242 254 216 242 254 216 242 254 216 242 254 216 242 254 151 169 177 197 235 255 197 235 255 197 235 255 197 235 255 197 235 255 137 164 178 128 158 178 128 158 178 128 158 178 128 158 178 120 152 175 172 218 250 120 152 175 112 147 172 112 147 172 112 147 172 112 147 172 105 140 168 105 140 168 105 140 168 105 140 168 105 140 168 105 140 168 98 134 163 98 134 163 98 134 163 98 134 163 98 134 163 92 128 158 92 128 158 92 128 158 92 128 158 92 128 158 92 128 158 92 128 158 132 184 227 132 184 227 132 184 227 92 128 158 92 128 158 92 128 158 92 128 158 92 128 158 84 124 155 92 128 158 132 184 227 132 184 227 92 128 158 92 128 158 92 128 158 132 184 227

209 215 171 209 215 171 209 215 171 209 215 171 209 215 171 146 150 119 146 150 119 146 150 119 146 150 119 146 150 119 146 150 119 132 142 105 189 204 150 189 204 150 189 204 150 132 142 105 189 204 150 189 204 150 132 142 105 189 204 150 132 142 105 132 142 105 189 204 150 146 150 119 209 215 171 146 150 119 132 142 105 132 142 105 189 204 150 189 204 150 189 204 150 189 204 150 132 142 105 132 142 105 132 142 105 189 204 150 132 142 105 189 204 150 189 204 150 189 204 150 189 204 150 189 204 150 189 204 150 132 142 105 132 142 105 132 142 105 132 142 105 116 137 99 116 137 99 116 137 99 116 137 99 116 137 99 116 137 99 116 137 99 116 137 99 102 133 97 102 133 97 102 133 97 102 133 97 102 133 97 102 133 97 147 191 139 147 191 139 102 133 97 147 191 139 147 191 139 167 197 142 102 133 97 102 133 97 147 191 139 147 191 139 147 191 139 102 133 97 102 133 97 102 133 97 116 137 99 116 137 99 116 137 99 116 137 99 167 197 142 167 197 142 189 204 150 189 204 150 189 204 150 189 204 150 189 204 150 189 204 150 209 215 171 209 215 171 209 215 171 209 215 171 209 215 171 146 150 119 209 215 171 209 215 171 224 228 180 224 228 180 224 228 180 146 150 119 146 150 119 146 150 119 146 150 119 146 150 119 146 150 119 146 150 119 209 215 171 146 150 119 209 215 171 209 215 171 209 215 171 209 215 171 146 150 119 209 215 171 209 215 171 209 215 171 209 215 171 209 215 171 209 215 171 146 150 119 146 150 119 146 150 119 189 204 150 209 215 171 209 215 171 209 215 171 209 215 171 209 215 171 209 215 171 209 215 171 209 215 171 209 215 171 146 150 119 209 215 171 209 215 171 209 215 171 209 215 171 209 215 171 146 150 119 209 215 171 209 215 171 209 215 171 209 215 171 209 215 171 209 215 171 209 215 171 209 215 171 209 215 171 209 215 171 209 215 171 209 215 171 146 150 119 146 150 119 189 204 150 189 204 150 209 215 171 209 215 171 209 215 171 209 215 171 209 215 171 224 228 180 224 228 180 209 215 171 146 150 119 146 150 119 146 150 119 146 150 119 209 215 171 146 150 119 132 142 105 132 142 105 132 142 105 116 137 99 116 137 99 167 197 142 167 197 142 167 197 142 167 197 142 167 197 142 167 197 142 167 197 142 116 137 99 102 133 97 102 133 97 102 133 97 102 133 97 102 133 97 147 191 139 102 133 97 147 191 139 147 191 139 147 191 139 147 191 139 147 191 139 147 191 139 172 208 165 120 145 115 120 145 115 172 208 165 172 208 165 172 208 165 151 169 177 151 169 177 151 169 177 151 169 177 151 169 177 151 169 177 216 242 254 216 242 254 216 242 254 137 164 178 137 164 178 137 164 178 128 158 178 128 158 178 128 158 178 128 158 178 120 152 175 120 152 175 120 152 175 120 152 175 112 147 172 112 147 172 112 147 172 105 140 168 105 140 168 105 140 168 105 140 168 105 140 168 98 134 163 98 134 163 98 134 163 98 134 163 98 134 163 92 128 158 92 128 158 92 128 158 92 128 158 92 128 158 92 128 158 92 128 158 92 128 158 132 184 227 132 184 227 92 128 158 132 184 227 132 184 227 92 128 158 92 128 158 84 124 155 84 124 155 84 124 155 92 128 158 92 128 158 132 184 227 132 184 227 132 184 227 132 184 227

224 228 180 209 215 171 209 215 171 209 215 171 146 150 119 146 150 119 146 150 119 146 150 119 209 215 171 146 150 119 132 142 105 132 142 105 132 142 105 132 142 105 132 142 105 132 142 105 189 204 150 189 204 150 189 204 150 189 204 150 189 204 150 132 142 105 189 204 150 209 215 171 209 215 171 209 215 171 209 215 171 132 142 105 189 204 150 189 204 150 189 204 150 132 142 105 132 142 105 132 142 105 132 142 105 189 204 150 132 142 105 189 204 150 189 204 150 189 204 150 209 215 171 189 204 150 132 142 105 132 142 105 132 142 105 116 137 99 116 137 99 116 137 99 116 137 99 116 137 99 116 137 99 116 137 99 116 137 99 116 137 99 102 133 97 102 133 97 102 133 97 102 133 97 102 133 97 102 133 97 102 133 97 102 133 97 102 133 97 147 191 139 147 191 139 147 191 139 147 191 139 102 133 97 167 197 142 147 191 139 102 133 97 102 133 97 102 133 97 102 133 97 102 133 97 167 197 142 167 197 142 167 197 142 167 197 142 167 197 142 189 204 150 189 204 150 189 204 150 189 204 150 189 204 150 189 204 150 189 204 150 209 215 171 209 215 171 209 215 171 209 215 171 209 215 171 209 215 171 209 215 171 224 228 180 224 228 180 224 228 180 224 228 180 146 150 119 209 215 171 209 215 171 209 215 171 146 150 119 209 215 171 146 150 119 209 215 171 146 150 119 146 150 119 146 150 119 146 150 119 209 215 171 209 215 171 209 215 171 146 150 119 209 215 171 209 215 171 209 215 171 209 215 171 209 215 171 209 215 171 209 215 171 209 215 171 209 215 171 209 215 171 209 215 171 209 215 171 209 215 171 209 215 171 224 228 180 209 215 171 209 215 171 209 215 171 209 215 171 209 215 171 209 215 171 146 150 119 209 215 171 209 215 171 209 215 171 209 215 171 209 215 171 209 215 171 209 215 171 209 215 171 209 215 171 209 215 171 209 215 171 209 215 171 209 215 171 209 215 171 209 215 171 209 215 171 209 215 171 209 215 171 209 215 171 209 215 171 209 215 171 209 215 171 224 228 180 224 228 180 224 228 180 146 150 119 146 150 119 146 150 119 209 215 171 146 150 119 132 142 105 132 142 105 209 215 171 132 142 105 132 142 105 132 142 105 116 137 99 167 197 142 189 204 150 189 204 150 189 204 150 116 137 99 116 137 99 167 197 142 167 197 142 102 133 97 102 133 97 147 191 139 102 133 97 147 191 139 102 133 97 102 133 97 147 191 139 147 191 139 147 191 139 147 191 139 147 191 139 147 191 139 120 145 115 120 145 115 120 145 115 172 208 165 120 145 115 120 145 115 172 208 165 216 242 254 151 169 177 151 169 177 216 242 254 216 242 254 216 242 254 216 242 254 216 242 254 137 164 178 137 164 178 137 164 178 128 158 178 128 158 178 128 158 178 120 152 175 120 152 175 120 152 175 172 218 250 112 147 172 112 147 172 112 147 172 112 147 172 160 210 247 160 210 247 105 140 168 105 140 168 105 140 168 98 134 163 140 192 234 98 134 163 140 192 234 98 134 163 92 128 158 132 184 227 132 184 227 92 128 158 92 128 158 132 184 227 92 128 158 92 128 158 132 184 227 132 184 227 92 128 158 132 184 227 92 128 158 92 128 158 92 128 158 84 124 155 84 124 155 84 124 155 132 184 227 132 184 227 132 184 227 132 184 227 92 128 158 132 184 227

209 215 171 146 150 119 146 150 119 146 150 119 146 150 119 146 150 119 132 142 105 209 215 171 146 150 119 132 142 105 132 142 105 132 142 105 132 142 105 132 142 105 132 142 105 132 142 105 189 204 150 132 142 105 132 142 105 189 204 150 189 204 150 132 142 105 189 204 150 189 204 150 209 215 171 146 150 119 146 150 119 132 142 105 189 204 150 189 204 150 189 204 150 132 142 105 132 142 105 132 142 105 189 204 150 189 204 150 132 142 105 189 204 150 189 204 150 132 142 105 132 142 105 132 142 105 132 142 105 132 142 105 132 142 105 116 137 99 116 137 99 116 137 99 116 137 99 167 197 142 116 137 99 102 133 97 102 133 97 102 133 97 102 133 97 102 133 97 147 191 139 147 191 139 147 191 139 102 133 97 120 145 115 147 191 139 147 191 139 147 191 139 102 133 97 102 133 97 102 133 97 102 133 97 102 133 97 102 133 97 102 133 97 102 133 97 102 133 97 147 191 139 147 191 139 147 191 139 102 133 97 167 197 142 167 197 142 167 197 142 167 197 142 189 204 150 189 204 150 189 204 150 189 204 150 132 142 105 189 204 150 209 215 171 209 215 171 146 150 119 209 215 171 209 215 171 209 215 171 209 215 171 209 215 171 224 228 180 156 159 126 156 159 126 146 150 119 209 215 171 209 215 171 209 215 171 146 150 119 209 215 171 209 215 171 209 215 171 209 215 171 209 215 171 209 215 171 209 215 171 209 215 171 209 215 171 209 215 171 146 150 119 209 215 171 209 215 171 209 215 171 209 215 171 209 215 171 209 215 171 209 215 171 209 215 171 209 215 171 209 215 171 209 215 171 209 215 171 209 215 171 209 215 171 209 215 171 146 150 119 146 150 119 209 215 171 209 215 171 209 215 171 209 215 171 146 150 119 209 215 171 209 215 171 146 150 119 209 215 171 146 150 119 146 150 119 209 215 171 146 150 119 146 150 119 146 150 119 209 215 171 146 150 119 146 150 119 146 150 119 146 150 119 209 215 171 209 215 171 209 215 171 209 215 171 209 215 171 209 215 171 209 215 171 224 228 180 224 228 180 224 228 180 156 159 126 146 150 119 146 150 119 209 215 171 146 150 119 132 142 105 132 142 105 132 142 105 132 142 105 132 142 105 132 142 105 116 137 99 189 204 150 167 197 142 116 137 99 116 137 99 116 137 99 116 137 99 167 197 142 116 137 99 116 137 99 167 197 142 147 191 139 147 191 139 147 191 139 147 191 139 147 191 139 147 191 139 147 191 139 147 191 139 147 191 139 147 191 139 102 133 97 147 191 139 120 145 115 172 208 165 120 145 115 120 145 115 151 169 177 151 169 177 151 169 177 151 169 177 216 242 254 216 242 254 216 242 254 151 169 177 151 169 177 151 169 177 137 164 178 137 164 178 137 164 178 128 158 178 128 158 178 128 158 178 120 152 175 120 152 175 120 152 175 120 152 175 120 152 175 112 147 172 112 147 172 112 147 172 105 140 168 105 140 168 105 140 168 105 140 168 105 140 168 105 140 168 98 134 163 98 134 163 98 134 163 98 134 163 140 192 234 140 192 234 92 128 158 92 128 158 132 184 227 92 128 158 92 128 158 132 184 227 132 184 227 92 128 158 92 128 158 92 128 158 92 128 158 84 124 155 84 124 155 84 124 155 84 124 155 121 178 222 121 178 222 84 124 155 92 128 158 92 128 158 92 128 158 92 128 158

209 215 171 146 150 119 146 150 119 146 150 119 146 150 119 146 150 119 146 150 119 132 142 105 132 142 105 132 142 105 132 142 105 132 142 105 132 142 105 189 204 150 132 142 105 132 142 105 132 142 105 132 142 105 189 204 150 189 204 150 132 142 105 132 142 105 189 204 150 132 142 105 189 204 150 132 142 105 209 215 171 209 215 171 189 204 150 189 204 150 189 204 150 132 142 105 189 204 150 189 204 150 189 204 150 132 142 105 189 204 150 132 142 105 189 204 150 132 142 105 132 142 105 132 142 105 116 137 99 116 137 99 116 137 99 116 137 99 116 137 99 116 137 99 167 197 142 116 137 99 102 133 97 102 133 97 102 133 97 147 191 139 102 133 97 102 133 97 102 133 97 102 133 97 102 133 97 102 133 97 102 133 97 147 191 139 147 191 139 147 191 139 147 191 139 102 133 97 147 191 139 102 133 97 102 133 97 102 133 97 102 133 97 147 191 139 147 191 139 147 191 139 147 191 139 147 191 139 147 191 139 167 197 142 167 197 142 167 197 142 167 197 142 116 137 99 189 204 150 189 204 150 189 204 150 132 142 105 132 142 105 189 204 150 209 215 171 209 215 171 209 215 171 209 215 171 209 215 171 209 215 171 224 228 180 224 228 180 224 228 180 224 228 180 224 228 180 224 228 180 209 215 171 209 215 171 209 215 171 209 215 171 146 150 119 209 215 171 209 215 171 209 215 171 146 150 119 209 215 171 209 215 171 209 215 171 209 215 171 209 215 171 209 215 171 209 215 171 146 150 119 209 215 171 146 150 119 146 150 119 209 215 171 209 215 171 209 215 171 209 215 171 209 215 171 209 215 171 209 215 171 209 215 171 209 215 171 146 150 119 146 150 119 209 215 171 209 215 171 146 150 119 209 215 171 146 150 119 209 215 171 146 150 119 209 215 171 209 215 171 209 215 171 209 215 171 209 215 171 209 215 171 209 215 171 209 215 171 209 215 171 209 215 171 209 215 171 209 215 171 209 215 171 209 215 171 209 215 171 209 215 171 209 215 171 209 215 171 209 215 171 224 228 180 224 228 180 224 228 180 224 228 180 156 159 126 224 228 180 209 215 171 209 215 171 146 150 119 132 142 105 132 142 105 132 142 105 132 142 105 132 142 105 189 204 150 189 204 150 189 204 150 116 137 99 167 197 142 167 197 142 116 137 99 167 197 142 167 197 142 116 137 99 116 137 99 167 197 142 102 133 97 147 191 139 147 191 139 147 191 139 147 191 139 147 191 139 147 191 139 147 191 139 147 191 139 147 191 139 102 133 97 102 133 97 120 145 115 172 208 165 120 145 115 120 145 115 151 169 177 151 169 177 216 242 254 216 242 254 216 242 254 216 242 254 151 169 177 151 169 177 216 242 254 137 164 178 137 164 178 137 164 178 137 164 178 128 158 178 128 158 178 184 227 255 128 158 178 120 152 175 120 152 175 120 152 175 112 147 172 112 147 172 112 147 172 112 147 172 112 147 172 105 140 168 105 140 168 105 140 168 105 140 168 98 134 163 98 134 163 98 134 163 140 192 234 98 134 163 98 134 163 140 192 234 140 192 234 92 128 158 92 128 158 92 128 158 132 184 227 132 184 227 92 128 158 132 184 227 92 128 158 92 128 158 84 124 155 84 124 155 84 124 155 84 124 155 84 124 155 121 178 222 121 178 222 84 124 155 121 178 222 84 124 155 92 128 158 92 128 158

209 215 171 209 215 171 146 150 119 146 150 119 146 150 119 146 150 119 132 142 105 132 142 105 132 142 105 132 142 105 132 142 105 132 142 105 132 142 105 132 142 105 132 142 105 189 204 150 132 142 105 132 142 105 132 142 105 132 142 105 132 142 105 189 204 150 189 204 150 132 142 105 189 204 150 209 215 171 209 215 171 209 215 171 146 150 119 189 204 150 189 204 150 189 204 150 189 204 150 132 142 105 132 142 105 189 204 150 189 204 150 132 142 105 189 204 150 132 142 105 132 142 105 116 137 99 116 137 99 116 137 99 116 137 99 116 137 99 116 137 99 116 137 99 116 137 99 116 137 99 102 133 97 102 133 97 102 133 97 102 133 97 102 133 97 102 133 97 102 133 97 102 133 97 147 191 139 147 191 139 120 145 115 147 191 139 102 133 97 102 133 97 120 145 115 102 133 97 102 133 97 102 133 97 102 133 97 102 133 97 147 191 139 147 191 139 147 191 139 147 191 139 147 191 139 147 191 139 102 133 97 167 197 142 167 197 142 116 137 99 116 137 99 167 197 142 167 197 142 189 204 150 189 204 150 132 142 105 189 204 150 189 204 150 189 204 150 209 215 171 146 150 119 209 215 171 209 215 171 224 228 180 224 228 180 224 228 180 224 228 180 224 228 180 224 228 180 224 228 180 224 228 180 224 228 180 209 215 171 209 215 171 209 215 171 209 215 171 209 215 171 209 215 171 209 215 171 209 215 171 209 215 171 209 215 171 209 215 171 224 228 180 224 228 180 146 150 119 209 215 171 209 215 171 146 150 119 209 215 171 209 215 171 209 215 171 209 215 171 209 215 171 209 215 171 209 215 171 209 215 171 209 215 171 146 150 119 146 150 119 209 215 171 209 215 171 146 150 119 146 150 119 209 215 171 209 215 171 209 215 171 146 150 119 209 215 171 146 150 119 209 215 171 146 150 119 146 150 119 209 215 171 209 215 171 209 215 171 209 215 171 209 215 171 209 215 171 209 215 171 209 215 171 209 215 171 209 215 171 209 215 171 209 215 171 224 228 180 224 228 180 224 228 180 224 228 180 224 228 180 224 228 180 156 159 126 224 228 180 146 150 119 146 150 119 146 150 119 132 142 105 132 142 105 132 142 105 132 142 105 132 142 105 132 142 105 132 142 105 116 137 99 116 137 99 167 197 142 116 137 99 116 137 99 116 137 99 167 197 142 116 137 99 167 197 142 116 137 99 116 137 99 147 191 139 167 197 142 147 191 139 147 191 139 147 191 139 147 191 139 147 191 139 147 191 139 147 191 139 102 133 97 147 191 139 102 133 97 120 145 115 120 145 115 120 145 115 151 169 177 172 208 165 172 208 165 151 169 177 216 242 254 216 242 254 151 169 177 151 169 177 137 164 178 137 164 178 137 164 178 137 164 178 137 164 178 128 158 178 128 158 178 184 227 255 128 158 178 120 152 175 120 152 175 120 152 175 120 152 175 112 147 172 112 147 172 112 147 172 105 140 168 105 140 168 105 140 168 105 140 168 105 140 168 105 140 168 140 192 234 98 134 163 98 134 163 98 134 163 140 192 234 98 134 163 98 134 163 92 128 158 92 128 158 132 184 227 132 184 227 132 184 227 92 128 158 92 128 158 92 128 158 84 124 155 84 124 155 84 124 155 84 124 155 84 124 155 84 124 155 121 178 222 84 124 155 84 124 155 84 124 155 121 178 222 84 124 155 84 124 155

209 215 171 209 215 171 146 150 119 146 150 119 146 150 119 132 142 105 132 142 105 132 142 105 132 142 105 132 142 105 132 142 105 132 142 105 189 204 150 189 204 150 189 204 150 189 204 150 132 142 105 189 204 150 132 142 105 132 142 105 132 142 105 132 142 105 132 142 105 132 142 105 209 215 171 189 204 150 146 150 119 209 215 171 209 215 171 132 142 105 209 215 171 189 204 150 189 204 150 132 142 105 132 142 105 189 204 150 189 204 150 116 137 99 132 142 105 116 137 99 116 137 99 116 137 99 116 137 99 116 137 99 116 137 99 116 137 99 116 137 99 116 137 99 116 137 99 102 133 97 102 133 97 102 133 97 102 133 97 102 133 97 147 191 139 147 191 139 147 191 139 102 133 97 147 191 139 102 133 97 102 133 97 147 191 139 102 133 97 120 145 115 120 145 115 147 191 139 102 133 97 147 191 139 147 191 139 147 191 139 147 191 139 147 191 139 147 191 139 102 133 97 147 191 139 102 133 97 167 197 142 147 191 139 116 137 99 116 137 99 167 197 142 167 197 142 167 197 142 189 204 150 189 204 150 132 142 105 189 204 150 189 204 150 189 204 150 209 215 171 209 215 171 209 215 171 224 228 180 224 228 180 224 228 180 224 228 180 224 228 180 224 228 180 224 228 180 224 228 180 224 228 180 156 159 126 146 150 119 146 150 119 209 215 171 209 215 171 224 228 180 209 215 171 209 215 171 209 215 171 224 228 180 224 228 180 224 228 180 224 228 180 224 228 180 146 150 119 209 215 171 209 215 171 146 150 119 209 215 171 209 215 171 209 215 171 209 215 171 146 150 119 209 215 171 209 215 171 224 228 180 209 215 171 224 228 180 209 215 171 146 150 119 146 150 119 146 150 119 146 150 119 209 215 171 209 215 171 146 150 119 146 150 119 146 150 119 146 150 119 146 150 119 146 150 119 209 215 171 209 215 171 209 215 171 209 215 171 209 215 171 209 215 171 209 215 171 209 215 171 209 215 171 209 215 171 209 215 171 224 228 180 224 228 180 224 228 180 224 228 180 224 228 180 224 228 180 224 228 180 224 228 180 224 228 180 156 159 126 146 150 119 146 150 119 146 150 119 132 142 105 132 142 105 132 142 105 132 142 105 132 142 105 116 137 99 189 204 150 189 204 150 167 197 142 167 197 142 116 137 99 116 137 99 167 197 142 167 197 142 167 197 142 167 197 142 116 137 99 167 197 142 167 197 142 167 197 142 167 197 142 167 197 142 167 197 142 147 191 139 167 197 142 147 191 139 167 197 142 147 191 139 102 133 97 102 133 97 120 145 115 120 145 115 120 145 115 120 145 115 172 208 165 151 169 177 151 169 177 151 169 177 216 242 254 151 169 177 151 169 177 151 169 177 137 164 178 137 164 178 197 235 255 137 164 178 128 158 178 128 158 178 128 158 178 128 158 178 184 227 255 120 152 175 120 152 175 112 147 172 112 147 172 112 147 172 112 147 172 105 140 168 105 140 168 105 140 168 105 140 168 105 140 168 150 201 240 98 134 163 140 192 234 140 192 234 140 192 234 140 192 234 98 134 163 92 128 158 92 128 158 92 128 158 92 128 158 92 128 158 132 184 227 132 184 227 92 128 158 92 128 158 84 124 155 84 124 155 84 124 155 121 178 222 84 124 155 121 178 222 121 178 222 121 178 222 84 124 155 84 124 155 121 178 222 84 124 155 84 124 155

209 215 171 209 215 171 146 150 119 146 150 119 146 150 119 132 142 105 132 142 105 132 142 105 132 142 105 132 142 105 189 204 150 132 142 105 189 204 150 189 204 150 132 142 105 132 142 105 132 142 105 132 142 105 132 142 105 132 142 105 132 142 105 189 204 150 132 142 105 189 204 150 189 204 150 132 142 105 189 204 150 132 142 105 132 142 105 132 142 105 132 142 105 132 142 105 189 204 150 132 142 105 132 142 105 189 204 150 189 204 150 132 142 105 116 137 99 116 137 99 116 137 99 116 137 99 116 137 99 116 137 99 102 133 97 116 137 99 102 133 97 102 133 97 102 133 97 102 133 97 102 133 97 102 133 97 102 133 97 102 133 97 102 133 97 102 133 97 102 133 97 102 133 97 102 133 97 102 133 97 120 145 115 120 145 115 120 145 115 120 145 115 120 145 115 120 145 115 147 191 139 147 191 139 147 191 139 102 133 97 102 133 97 147 191 139 147 191 139 147 191 139 147 191 139 102 133 97 102 133 97 102 133 97 167 197 142 167 197 142 167 197 142 167 197 142 116 137 99 167 197 142 189 204 150 132 142 105 189 204 150 132 142 105 132 142 105 189 204 150 209 215 171 209 215 171 209 215 171 224 228 180 224 228 180 224 228 180 224 228 180 224 228 180 156 159 126 156 159 126 156 159 126 156 159 126 146 150 119 146 150 119 209 215 171 209 215 171 209 215 171 146 150 119 209 215 171 224 228 180 224 228 180 224 228 180 224 228 180 224 228 180 224 228 180 224 228 180 224 228 180 224 228 180 209 215 171 209 215 171 209 215 171 209 215 171 209 215 171 209 215 171 209 215 171 224 228 180 224 228 180 224 228 180 224 228 180 146 150 119 146 150 119 209 215 171 209 215 171 209 215 171 209 215 171 209 215 171 146 150 119 209 215 171 146 150 119 209 215 171 146 150 119 209 215 171 209 215 171 209 215 171 209 215 171 209 215 171 209 215 171 146 150 119 209 215 171 209 215 171 209 215 171 224 228 180 224 228 180 224 228 180 224 228 180 224 228 180 224 228 180 224 228 180 224 228 180 224 228 180 224 228 180 156 159 126 156 159 126 146 150 119 146 150 119 146 150 119 146 150 119 132 142 105 132 142 105 132 142 105 132 142 105 132 142 105 116 137 99 189 204 150 116 137 99 116 137 99 116 137 99 116 137 99 167 197 142 167 197 142 167 197 142 116 137 99 167 197 142 167 197 142 167 197 142 116 137 99 167 197 142 167 197 142 167 197 142 116 137 99 167 197 142 167 197 142 167 197 142 102 133 97 102 133 97 102 133 97 102 133 97 120 145 115 120 145 115 120 145 115 151 169 177 151 169 177 151 169 177 216 242 254 151 169 177 151 169 177 151 169 177 137 164 178 137 164 178 137 164 178 137 164 178 137 164 178 128 158 178 128 158 178 128 158 178 184 227 255 184 227 255 120 152 175 120 152 175 120 152 175 112 147 172 112 147 172 112 147 172 105 140 168 105 140 168 105 140 168 105 140 168 150 201 240 150 201 240 98 134 163 140 192 234 98 134 163 140 192 234 98 134 163 98 134 163 98 134 163 140 192 234 92 128 158 92 128 158 132 184 227 132 184 227 92 128 158 92 128 158 92 128 158 84 124 155 121 178 222 84 124 155 121 178 222 84 124 155 121 178 222 121 178 222 84 124 155 84 124 155 84 124 155 84 124 155 84 124 155 84 124 155

209 215 171 209 215 171 146 150 119 146 150 119 209 215 171 132 142 105 132 142 105 132 142 105 132 142 105 189 204 150 132 142 105 189 204 150 189 204 150 132 142 105 132 142 105 189 204 150 116 137 99 116 137 99 132 142 105 189 204 150 189 204 150 132 142 105 189 204 150 132 142 105 189 204 150 132 142 105 189 204 150 132 142 105 132 142 105 132 142 105 189 204 150 189 204 150 209 215 171 132 142 105 189 204 150 132 142 105 132 142 105 132 142 105 116 137 99 116 137 99 116 137 99 116 137 99 116 137 99 116 137 99 102 133 97 102 133 97 102 133 97 102 133 97 102 133 97 102 133 97 102 133 97 102 133 97 102 133 97 102 133 97 147 191 139 120 145 115 102 133 97 120 145 115 102 133 97 120 145 115 120 145 115 120 145 115 120 145 115 120 145 115 120 145 115 172 208 165 147 191 139 120 145 115 102 133 97 102 133 97 102 133 97 102 133 97 102 133 97 102 133 97 102 133 97 102 133 97 147 191 139 147 191 139 147 191 139 167 197 142 167 197 142 167 197 142 167 197 142 167 197 142 167 197 142 132 142 105 132 142 105 132 142 105 189 204 150 189 204 150 209 215 171 209 215 171 209 215 171 224 228 180 224 228 180 224 228 180 224 228 180 224 228 180 224 228 180 156 159 126 156 159 126 156 159 126 146 150 119 146 150 119 209 215 171 224 228 180 224 228 180 224 228 180 224 228 180 224 228 180 224 228 180 224 228 180 224 228 180 224 228 180 224 228 180 224 228 180 224 228 180 224 228 180 224 228 180 224 228 180 209 215 171 146 150 119 209 215 171 209 215 171 224 228 180 224 228 180 224 228 180 224 228 180 224 228 180 156 159 126 224 228 180 209 215 171 209 215 171 209 215 171 209 215 171 146 150 119 209 215 171 209 215 171 209 215 171 209 215 171 209 215 171 209 215 171 209 215 171 209 215 171 209 215 171 209 215 171 209 215 171 209 215 171 209 215 171 224 228 180 224 228 180 224 228 180 224 228 180 224 228 180 224 228 180 224 228 180 224 228 180 224 228 180 224 228 180 224 228 180 224 228 180 156 159 126 224 228 180 156 159 126 146 150 119 146 150 119 146 150 119 132 142 105 132 142 105 132 142 105 189 204 150 132 142 105 116 137 99 167 197 142 116 137 99 116 137 99 116 137 99 167 197 142 167 197 142 167 197 142 167 197 142 116 137 99 167 197 142 167 197 142 167 197 142 167 197 142 167 197 142 167 197 142 167 197 142 167 197 142 167 197 142 167 197 142 167 197 142 167 197 142 147 191 139 102 133 97 102 133 97 120 145 115 120 145 115 120 145 115 151 169 177 216 242 254 151 169 177 151 169 177 151 169 177 151 169 177 151 169 177 137 164 178 137 164 178 137 164 178 197 235 255 137 164 178 137 164 178 128 158 178 184 227 255 184 227 255 128 158 178 120 152 175 120 152 175 172 218 250 120 152 175 112 147 172 112 147 172 105 140 168 105 140 168 105 140 168 150 201 240 150 201 240 105 140 168 98 134 163 140 192 234 150 201 240 150 201 240 98 134 163 140 192 234 140 192 234 98 134 163 92 128 158 132 184 227 92 128 158 132 184 227 92 128 158 132 184 227 92 128 158 132 184 227 132 184 227 121 178 222 121 178 222 121 178 222 121 178 222 121 178 222 84 124 155 121 178 222 121 178 222 121 178 222 84 124 155 84 124 155

209 215 171 209 215 171 146 150 119 146 150 119 146 150 119 132 142 105 132 142 105 132 142 105 116 137 99 116 137 99 116 137 99 189 204 150 132 142 105 132 142 105 116 137 99 116 137 99 189 204 150 167 197 142 167 197 142 116 137 99 116 137 99 116 137 99 116 137 99 189 204 150 189 204 150 132 142 105 132 142 105 132 142 105 132 142 105 132 142 105 189 204 150 132 142 105 189 204 150 132 142 105 189 204 150 132 142 105 189 204 150 116 137 99 116 137 99 116 137 99 102 133 97 102 133 97 102 133 97 102 133 97 102 133 97 102 133 97 102 133 97 102 133 97 120 145 115 102 133 97 120 145 115 102 133 97 120 145 115 120 145 115 120 145 115 120 145 115 120 145 115 120 145 115 120 145 115 120 145 115 120 145 115 120 145 115 120 145 115 120 145 115 172 208 165 172 208 165 172 208 165 120 145 115 172 208 165 120 145 115 102 133 97 120 145 115 120 145 115 120 145 115 120 145 115 147 191 139 147 191 139 102 133 97 147 191 139 167 197 142 167 197 142 167 197 142 167 197 142 167 197 142 167 197 142 116 137 99 116 137 99 189 204 150 189 204 150 189 204 150 189 204 150 146 150 119 209 215 171 209 215 171 224 228 180 224 228 180 224 228 180 224 228 180 156 159 126 156 159 126 156 159 126 156 159 126 224 228 180 224 228 180 209 215 171 224 228 180 224 228 180 224 228 180 224 228 180 224 228 180 224 228 180 224 228 180 224 228 180 224 228 180 224 228 180 156 159 126 224 228 180 224 228 180 224 228 180 156 159 126 156 159 126 209 215 171 224 228 180 224 228 180 224 228 180 224 228 180 156 159 126 224 228 180 224 228 180 156 159 126 224 228 180 156 159 126 146 150 119 146 150 119 146 150 119 146 150 119 146 150 119 209 215 171 146 150 119 146 150 119 146 150 119 209 215 171 209 215 171 209 215 171 209 215 171 209 215 171 209 215 171 209 215 171 209 215 171 224 228 180 224 228 180 224 228 180 224 228 180 224 228 180 224 228 180 224 228 180 238 235 191 238 235 191 238 235 191 238 235 191 224 228 180 156 159 126 156 159 126 146 150 119 146 150 119 146 150 119 146 150 119 132 142 105 132 142 105 189 204 150 132 142 105 132 142 105 189 204 150 116 137 99 167 197 142 116 137 99 167 197 142 167 197 142 116 137 99 167 197 142 167 197 142 116 137 99 167 197 142 116 137 99 116 137 99 116 137 99 116 137 99 116 137 99 167 197 142 167 197 142 167 197 142 167 197 142 167 197 142 116 137 99 102 133 97 102 133 97 102 133 97 120 145 115 120 145 115 120 145 115 151 169 177 151 169 177 151 169 177 151 169 177 151 169 177 151 169 177 137 164 178 137 164 178 137 164 178 137 164 178 137 164 178 137 164 178 137 164 178 128 158 178 128 158 178 128 158 178 128 158 178 120 152 175 120 152 175 120 152 175 120 152 175 112 147 172 112 147 172 112 147 172 105 140 168 105 140 168 150 201 240 105 140 168 105 140 168 98 134 163 140 192 234 150 201 240 150 201 240 98 134 163 140 192 234 140 192 234 140 192 234 140 192 234 132 184 227 92 128 158 132 184 227 132 184 227 132 184 227 92 128 158 132 184 227 132 184 227 84 124 155 84 124 155 121 178 222 84 124 155 84 124 155 84 124 155 84 124 155 84 124 155 84 124 155 84 124 155 121 178 222

224 228 180 209 215 171 146 150 119 146 150 119 209 215 171 132 142 105 132 142 105 132 142 105 116 137 99 116 137 99 167 197 142 189 204 150 189 204 150 132 142 105 189 204 150 189 204 150 189 204 150 116 137 99 116 137 99 116 137 99 116 137 99 116 137 99 167 197 142 167 197 142 132 142 105 116 137 99 116 137 99 116 137 99 116 137 99 116 137 99 132 142 105 189 204 150 189 204 150 132 142 105 132 142 105 132 142 105 116 137 99 116 137 99 116 137 99 102 133 97 102 133 97 102 133 97 102 133 97 147 191 139 102 133 97 102 133 97 102 133 97 120 145 115 120 145 115 172 208 165 120 145 115 120 145 115 120 145 115 120 145 115 120 145 115 172 208 165 147 191 139 120 145 115 120 145 115 120 145 115 120 145 115 120 145 115 120 145 115 120 145 115 172 208 165 172 208 165 172 208 165 120 145 115 172 208 165 120 145 115 120 145 115 120 145 115 120 145 115 120 145 115 172 208 165 147 191 139 147 191 139 147 191 139 147 191 139 147 191 139 167 197 142 167 197 142 167 197 142 167 197 142 116 137 99 167 197 142 189 204 150 189 204 150 132 142 105 189 204 150 189 204 150 189 204 150 209 215 171 209 215 171 209 215 171 224 228 180 238 235 191 224 228 180 156 159 126 156 159 126 156 159 126 224 228 180 224 228 180 224 228 180 224 228 180 224 228 180 224 228 180 224 228 180 224 228 180 224 228 180 224 228 180 224 228 180 238 235 191 224 228 180 238 235 191 156 159 126 224 228 180 224 228 180 156 159 126 156 159 126 224 228 180 224 228 180 224 228 180 224 228 180 224 228 180 224 228 180 224 228 180 224 228 180 224 228 180 224 228 180 156 159 126 156 159 126 156 159 126 209 215 171 146 150 119 209 215 171 146 150 119 209 215 171 209 215 171 209 215 171 209 215 171 209 215 171 209 215 171 209 215 171 209 215 171 209 215 171 209 215 171 146 150 119 224 228 180 224 228 180 224 228 180 224 228 180 238 235 191 224 228 180 238 235 191 238 235 191 238 235 191 238 235 191 238 235 191 238 235 191 238 235 191 156 159 126 156 159 126 156 159 126 146 150 119 146 150 119 146 150 119 132 142 105 132 142 105 189 204 150 189 204 150 132 142 105 116 137 99 189 204 150 167 197 142 167 197 142 167 197 142 167 197 142 167 197 142 167 197 142 167 197 142 116 137 99 167 197 142 116 137 99 116 137 99 116 137 99 167 197 142 116 137 99 167 197 142 167 197 142 167 197 142 167 197 142 189 204 150 116 137 99 102 133 97 102 133 97 102 133 97 120 145 115 120 145 115 151 169 177 151 169 177 151 169 177 151 169 177 216 242 254 216 242 254 151 169 177 151 169 177 137 164 178 197 235 255 137 164 178 137 164 178 137 164 178 137 164 178 128 158 178 128 158 178 128 158 178 128 158 178 120 152 175 120 152 175 120 152 175 120 152 175 112 147 172 112 147 172 112 147 172 105 140 168 150 201 240 150 201 240 150 201 240 150 201 240 105 140 168 150 201 240 150 201 240 150 201 240 98 134 163 140 192 234 98 134 163 98 134 163 140 192 234 140 192 234 140 192 234 140 192 234 132 184 227 132 184 227 132 184 227 132 184 227 132 184 227 92 128 158 132 184 227 121 178 222 84 124 155 84 124 155 121 178 222 121 178 222 121 178 222 121 178 222 121 178 222 121 178 222

209 215 171 146 150 119 146 150 119 146 150 119 146 150 119 132 142 105 132 142 105 116 137 99 116 137 99 116 137 99 167 197 142 167 197 142 189 204 150 132 142 105 189 204 150 116 137 99 116 137 99 116 137 99 116 137 99 116 137 99 116 137 99 167 197 142 116 137 99 116 137 99 167 197 142 116 137 99 116 137 99 116 137 99 116 137 99 167 197 142 116 137 99 189 204 150 132 142 105 132 142 105 132 142 105 116 137 99 116 137 99 116 137 99 116 137 99 102 133 97 102 133 97 102 133 97 102 133 97 102 133 97 102 133 97 102 133 97 120 145 115 120 145 115 120 145 115 120 145 115 120 145 115 120 145 115 120 145 115 120 145 115 172 208 165 172 208 165 120 145 115 120 145 115 120 145 115 120 145 115 120 145 115 172 208 165 120 145 115 120 145 115 172 208 165 120 145 115 120 145 115 120 145 115 120 145 115 120 145 115 120 145 115 120 145 115 120 145 115 120 145 115 172 208 165 147 191 139 147 191 139 102 133 97 147 191 139 147 191 139 147 191 139 116 137 99 116 137 99 116 137 99 167 197 142 167 197 142 116 137 99 116 137 99 116 137 99 189 204 150 132 142 105 189 204 150 209 215 171 209 215 171 209 215 171 224 228 180 224 228 180 156 159 126 156 159 126 156 159 126 156 159 126 224 228 180 156 159 126 224 228 180 224 228 180 224 228 180 224 228 180 224 228 180 224 228 180 156 159 126 224 228 180 224 228 180 238 235 191 156 159 126 238 235 191 238 235 191 224 228 180 156 159 126 156 159 126 224 228 180 224 228 180 156 159 126 224 228 180 224 228 180 224 228 180 156 159 126 224 228 180 224 228 180 156 159 126 156 159 126 156 159 126 224 228 180 146 150 119 146 150 119 209 215 171 209 215 171 209 215 171 209 215 171 209 215 171 209 215 171 209 215 171 146 150 119 146 150 119 146 150 119 209 215 171 209 215 171 209 215 171 209 215 171 224 228 180 224 228 180 224 228 180 224 228 180 224 228 180 156 159 126 238 235 191 238 235 191 238 235 191 166 164 133 238 235 191 166 164 133 156 159 126 156 159 126 156 159 126 146 150 119 146 150 119 146 150 119 146 150 119 132 142 105 132 142 105 189 204 150 189 204 150 132 142 105 132 142 105 189 204 150 116 137 99 167 197 142 116 137 99 167 197 142 167 197 142 167 197 142 167 197 142 116 137 99 116 137 99 116 137 99 116 137 99 116 137 99 102 133 97 116 137 99 116 137 99 116 137 99 116 137 99 116 137 99 116 137 99 116 137 99 102 133 97 102 133 97 120 145 115 120 145 115 120 145 115 151 169 177 151 169 177 151 169 177 151 169 177 151 169 177 151 169 177 151 169 177 137 164 178 137 164 178 197 235 255 137 164 178 137 164 178 137 164 178 128 158 178 128 158 178 128 158 178 128 158 178 120 152 175 120 152 175 120 152 175 120 152 175 120 152 175 112 147 172 112 147 172 112 147 172 105 140 168 150 201 240 150 201 240 150 201 240 150 201 240 150 201 240 150 201 240 150 201 240 105 140 168 105 140 168 140 192 234 140 192 234 140 192 234 140 192 234 140 192 234 140 192 234 140 192 234 140 192 234 92 128 158 132 184 227 132 184 227 92 128 158 92 128 158 92 128 158 84 124 155 121 178 222 121 178 222 121 178 222 84 124 155 121 178 222 121 178 222 121 178 222 121 178 222

209 215 171 146 150 119 146 150 119 146 150 119 132 142 105 132 142 105 116 137 99 116 137 99 116 137 99 116 137 99 167 197 142 167 197 142 189 204 150 116 137 99 116 137 99 116 137 99 116 137 99 167 197 142 116 137 99 116 137 99 167 197 142 116 137 99 116 137 99 167 197 142 116 137 99 116 137 99 116 137 99 116 137 99 116 137 99 167 197 142 116 137 99 167 197 142 116 137 99 116 137 99 116 137 99 116 137 99 116 137 99 102 133 97 116 137 99 102 133 97 102 133 97 102 133 97 102 133 97 102 133 97 102 133 97 120 145 115 120 145 115 172 208 165 120 145 115 120 145 115 120 145 115 120 145 115 120 145 115 172 208 165 172 208 165 120 145 115 120 145 115 120 145 115 120 145 115 120 145 115 120 145 115 172 208 165 120 145 115 120 145 115 172 208 165 120 145 115 172 208 165 120 145 115 120 145 115 120 145 115 120 145 115 120 145 115 120 145 115 172 208 165 172 208 165 147 191 139 147 191 139 147 191 139 102 133 97 102 133 97 102 133 97 147 191 139 167 197 142 167 197 142 167 197 142 116 137 99 167 197 142 116 137 99 116 137 99 189 204 150 189 204 150 189 204 150 209 215 171 209 215 171 209 215 171 224 228 180 224 228 180 156 159 126 156 159 126 156 159 126 156 159 126 224 228 180 224 228 180 224 228 180 224 228 180 224 228 180 224 228 180 224 228 180 156 159 126 224 228 180 224 228 180 224 228 180 224 228 180 156 159 126 238 235 191 156 159 126 156 159 126 156 159 126 156 159 126 156 159 126 156 159 126 224 228 180 156 159 126 156 159 126 224 228 180 224 228 180 224 228 180 224 228 180 156 159 126 224 228 180 224 228 180 224 228 180 224 228 180 224 228 180 224 228 180 224 228 180 224 228 180 209 215 171 224 228 180 209 215 171 146 150 119 209 215 171 209 215 171 209 215 171 146 150 119 146 150 119 209 215 171 224 228 180 224 228 180 224 228 180 224 228 180 224 228 180 224 228 180 224 228 180 224 228 180 156 159 126 238 235 191 166 164 133 238 235 191 156 159 126 156 159 126 156 159 126 156 159 126 146 150 119 146 150 119 209 215 171 209 215 171 146 150 119 132 142 105 189 204 150 132 142 105 132 142 105 132 142 105 189 204 150 189 204 150 116 137 99 189 204 150 167 197 142 167 197 142 167 197 142 167 197 142 116 137 99 116 137 99 116 137 99 116 137 99 116 137 99 102 133 97 102 133 97 102 133 97 102 133 97 102 133 97 102 133 97 116 137 99 102 133 97 102 133 97 120 145 115 120 145 115 120 145 115 120 145 115 151 169 177 151 169 177 216 242 254 216 242 254 151 169 177 216 242 254 151 169 177 216 242 254 137 164 178 197 235 255 137 164 178 137 164 178 137 164 178 197 235 255 128 158 178 128 158 178 128 158 178 120 152 175 120 152 175 120 152 175 120 152 175 120 152 175 112 147 172 112 147 172 160 210 247 112 147 172 160 210 247 150 201 240 150 201 240 150 201 240 150 201 240 150 201 240 150 201 240 105 140 168 150 201 240 105 140 168 150 201 240 150 201 240 140 192 234 140 192 234 140 192 234 140 192 234 140 192 234 140 192 234 140 192 234 140 192 234 92 128 158 92 128 158 92 128 158 132 184 227 132 184 227 84 124 155 121 178 222 121 178 222 121 178 222 121 178 222 121 178 222 121 178 222

209 215 171 146 150 119 132 142 105 132 142 105 132 142 105 132 142 105 116 137 99 116 137 99 116 137 99 116 137 99 167 197 142 116 137 99 116 137 99 116 137 99 116 137 99 116 137 99 116 137 99 116 137 99 116 137 99 116 137 99 167 197 142 116 137 99 116 137 99 167 197 142 116 137 99 116 137 99 116 137 99 116 137 99 116 137 99 116 137 99 116 137 99 116 137 99 116 137 99 116 137 99 116 137 99 116 137 99 102 133 97 102 133 97 102 133 97 102 133 97 102 133 97 102 133 97 120 145 115 120 145 115 120 145 115 120 145 115 120 145 115 120 145 115 120 145 115 120 145 115 120 145 115 151 169 177 151 169 177 172 208 165 172 208 165 120 145 115 120 145 115 120 145 115 120 145 115 120 145 115 120 145 115 172 208 165 172 208 165 172 208 165 172 208 165 120 145 115 172 208 165 120 145 115 172 208 165 172 208 165 120 145 115 172 208 165 172 208 165 172 208 165 172 208 165 172 208 165 147 191 139 102 133 97 102 133 97 102 133 97 147 191 139 147 191 139 147 191 139 167 197 142 167 197 142 116 137 99 116 137 99 116 137 99 167 197 142 167 197 142 189 204 150 189 204 150 189 204 150 209 215 171 209 215 171 209 215 171 146 150 119 156 159 126 156 159 126 156 159 126 146 150 119 224 228 180 156 159 126 224 228 180 224 228 180 224 228 180 224 228 180 156 159 126 224 228 180 224 228 180 224 228 180 224 228 180 224 228 180 224 228 180 156 159 126 156 159 126 156 159 126 156 159 126 156 159 126 156 159 126 156 159 126 156 159 126 156 159 126 146 150 119 224 228 180 224 228 180 224 228 180 224 228 180 224 228 180 224 228 180 224 228 180 156 159 126 224 228 180 224 228 180 156 159 126 224 228 180 224 228 180 224 228 180 209 215 171 146 150 119 146 150 119 209 215 171 209 215 171 209 215 171 209 215 171 209 215 171 209 215 171 209 215 171 224 228 180 156 159 126 224 228 180 224 228 180 224 228 180 224 228 180 224 228 180 156 159 126 224 228 180 238 235 191 156 159 126 156 159 126 156 159 126 156 159 126 156 159 126 156 159 126 146 150 119 146 150 119 146 150 119 146 150 119 132 142 105 189 204 150 132 142 105 132 142 105 132 142 105 132 142 105 116 137 99 116 137 99 167 197 142 116 137 99 116 137 99 116 137 99 116 137 99 116 137 99 167 197 142 116 137 99 116 137 99 102 133 97 102 133 97 102 133 97 102 133 97 147 191 139 102 133 97 102 133 97 102 133 97 102 133 97 102 133 97 120 145 115 120 145 115 120 145 115 120 145 115 151 169 177 151 169 177 216 242 254 151 169 177 151 169 177 151 169 177 151 169 177 151 169 177 137 164 178 137 164 178 137 164 178 137 164 178 137 164 178 137 164 178 128 158 178 128 158 178 128 158 178 120 152 175 172 218 250 172 218 250 120 152 175 172 218 250 112 147 172 112 147 172 160 210 247 112 147 172 112 147 172 160 210 247 150 201 240 150 201 240 150 201 240 150 201 240 105 140 168 150 201 240 150 201 240 105 140 168 150 201 240 150 201 240 98 134 163 98 134 163 140 192 234 98 134 163 98 134 163 98 134 163 140 192 234 98 134 163 92 128 158 132 184 227 132 184 227 132 184 227 132 184 227 132 184 227 132 184 227 132 184 227 132 184 227 121 178 222 121 178 222 121 178 222

209 215 171 132 142 105 132 142 105 132 142 105 132 142 105 132 142 105 116 137 99 116 137 99 116 137 99 116 137 99 167 197 142 116 137 99 167 197 142 116 137 99 116 137 99 116 137 99 116 137 99 102 133 97 167 197 142 116 137 99 116 137 99 116 137 99 102 133 97 167 197 142 167 197 142 116 137 99 116 137 99 116 137 99 116 137 99 167 197 142 167 197 142 116 137 99 116 137 99 116 137 99 116 137 99 102 133 97 102 133 97 102 133 97 102 133 97 102 133 97 102 133 97 102 133 97 120 145 115 120 145 115 120 145 115 120 145 115 120 145 115 120 145 115 120 145 115 120 145 115 151 169 177 151 169 177 172 208 165 172 208 165 120 145 115 120 145 115 120 145 115 120 145 115 120 145 115 151 169 177 120 145 115 172 208 165 172 208 165 120 145 115 172 208 165 120 145 115 120 145 115 151 169 177 172 208 165 172 208 165 172 208 165 172 208 165 172 208 165 172 208 165 172 208 165 172 208 165 172 208 165 120 145 115 147 191 139 147 191 139 147 191 139 147 191 139 147 191 139 167 197 142 167 197 142 167 197 142 116 137 99 167 197 142 167 197 142 167 197 142 189 204 150 189 204 150 189 204 150 209 215 171 209 215 171 209 215 171 224 228 180 146 150 119 146 150 119 156 159 126 224 228 180 209 215 171 224 228 180 224 228 180 224 228 180 224 228 180 224 228 180 156 159 126 224 228 180 224 228 180 224 228 180 224 228 180 238 235 191 156 159 126 156 159 126 156 159 126 156 159 126 156 159 126 146 150 119 224 228 180 146 150 119 146 150 119 224 228 180 146 150 119 209 215 171 224 228 180 224 228 180 156 159 126 224 228 180 156 159 126 156 159 126 156 159 126 224 228 180 224 228 180 156 159 126 156 159 126 224 228 180 156 159 126 146 150 119 209 215 171 209 215 171 209 215 171 209 215 171 209 215 171 224 228 180 224 228 180 224 228 180 224 228 180 209 215 171 224 228 180 224 228 180 224 228 180 224 228 180 224 228 180 224 228 180 224 228 180 238 235 191 156 159 126 156 159 126 156 159 126 156 159 126 156 159 126 156 159 126 146 150 119 146 150 119 146 150 119 146 150 119 146 150 119 209 215 171 209 215 171 132 142 105 189 204 150 189 204 150 132 142 105 116 137 99 116 137 99 116 137 99 116 137 99 116 137 99 167 197 142 167 197 142 167 197 142 116 137 99 116 137 99 102 133 97 102 133 97 147 191 139 147 191 139 102 133 97 102 133 97 102 133 97 102 133 97 102 133 97 102 133 97 120 145 115 120 145 115 120 145 115 120 145 115 151 169 177 151 169 177 151 169 177 216 242 254 151 169 177 151 169 177 151 169 177 216 242 254 216 242 254 137 164 178 137 164 178 197 235 255 197 235 255 197 235 255 197 235 255 128 158 178 128 158 178 184 227 255 120 152 175 120 152 175 120 152 175 120 152 175 120 152 175 112 147 172 160 210 247 160 210 247 160 210 247 160 210 247 160 210 247 160 210 247 160 210 247 160 210 247 160 210 247 150 201 240 150 201 240 105 140 168 150 201 240 150 201 240 150 201 240 150 201 240 140 192 234 140 192 234 98 134 163 98 134 163 140 192 234 140 192 234 140 192 234 140 192 234 140 192 234 92 128 158 92 128 158 132 184 227 132 184 227 132 184 227 132 184 227 132 184 227 132 184 227 132 184 227 132 184 227

189 204 150 132 142 105 132 142 105 132 142 105 132 142 105 116 137 99 116 137 99 116 137 99 116 137 99 116 137 99 116 137 99 116 137 99 116 137 99 116 137 99 116 137 99 116 137 99 116 137 99 102 133 97 167 197 142 116 137 99 167 197 142 102 133 97 102 133 97 167 197 142 116 137 99 116 137 99 102 133 97 102 133 97 167 197 142 116 137 99 116 137 99 102 133 97 102 133 97 102 133 97 102 133 97 102 133 97 102 133 97 102 133 97 102 133 97 147 191 139 102 133 97 102 133 97 120 145 115 120 145 115 120 145 115 120 145 115 120 145 115 120 145 115 120 145 115 120 145 115 151 169 177 216 242 254 172 208 165 172 208 165 151 169 177 151 169 177 151 169 177 151 169 177 151 169 177 151 169 177 151 169 177 120 145 115 172 208 165 120 145 115 120 145 115 120 145 115 151 169 177 172 208 165 172 208 165 172 208 165 172 208 165 120 145 115 172 208 165 172 208 165 172 208 165 172 208 165 172 208 165 147 191 139 147 191 139 147 191 139 147 191 139 147 191 139 147 191 139 147 191 139 167 197 142 116 137 99 116 137 99 167 197 142 167 197 142 189 204 150 189 204 150 189 204 150 189 204 150 209 215 171 146 150 119 146 150 119 146 150 119 146 150 119 146 150 119 209 215 171 146 150 119 224 228 180 224 228 180 224 228 180 224 228 180 224 228 180 156 159 126 156 159 126 224 228 180 224 228 180 224 228 180 224 228 180 224 228 180 156 159 126 156 159 126 156 159 126 156 159 126 156 159 126 146 150 119 224 228 180 146 150 119 224 228 180 224 228 180 146 150 119 209 215 171 224 228 180 156 159 126 224 228 180 224 228 180 156 159 126 156 159 126 156 159 126 224 228 180 156 159 126 224 228 180 224 228 180 224 228 180 156 159 126 146 150 119 224 228 180 224 228 180 209 215 171 209 215 171 209 215 171 209 215 171 224 228 180 156 159 126 224 228 180 224 228 180 224 228 180 224 228 180 224 228 180 224 228 180 224 228 180 224 228 180 156 159 126 156 159 126 156 159 126 156 159 126 156 159 126 156 159 126 156 159 126 156 159 126 146 150 119 209 215 171 146 150 119 209 215 171 209 215 171 209 215 171 209 215 171 146 150 119 132 142 105 189 204 150 132 142 105 116 137 99 116 137 99 116 137 99 167 197 142 167 197 142 167 197 142 167 197 142 116 137 99 116 137 99 102 133 97 102 133 97 102 133 97 147 191 139 102 133 97 102 133 97 102 133 97 102 133 97 102 133 97 102 133 97 120 145 115 120 145 115 120 145 115 120 145 115 120 145 115 151 169 177 216 242 254 216 242 254 151 169 177 151 169 177 151 169 177 151 169 177 151 169 177 137 164 178 137 164 178 137 164 178 137 164 178 137 164 178 137 164 178 137 164 178 128 158 178 128 158 178 128 158 178 128 158 178 120 152 175 120 152 175 172 218 250 120 152 175 120 152 175 160 210 247 160 210 247 112 147 172 112 147 172 160 210 247 160 210 247 160 210 247 112 147 172 105 140 168 105 140 168 150 201 240 150 201 240 150 201 240 150 201 240 150 201 240 105 140 168 98 134 163 150 201 240 140 192 234 140 192 234 140 192 234 140 192 234 140 192 234 140 192 234 98 134 163 92 128 158 132 184 227 132 184 227 132 184 227 132 184 227 92 128 158 132 184 227 132 184 227 132 184 227 132 184 227

189 204 150 132 142 105 132 142 105 116 137 99 116 137 99 116 137 99 116 137 99 116 137 99 102 133 97 102 133 97 102 133 97 102 133 97 102 133 97 102 133 97 102 133 97 102 133 97 116 137 99 102 133 97 102 133 97 102 133 97 116 137 99 102 133 97 102 133 97 102 133 97 102 133 97 102 133 97 167 197 142 147 191 139 147 191 139 102 133 97 102 133 97 102 133 97 102 133 97 102 133 97 102 133 97 102 133 97 102 133 97 102 133 97 102 133 97 102 133 97 102 133 97 120 145 115 120 145 115 120 145 115 120 145 115 120 145 115 120 145 115 120 145 115 120 145 115 120 145 115 151 169 177 172 208 165 151 169 177 151 169 177 172 208 165 216 242 254 151 169 177 151 169 177 151 169 177 216 242 254 216 242 254 216 242 254 172 208 165 151 169 177 151 169 177 151 169 177 151 169 177 172 208 165 172 208 165 120 145 115 172 208 165 172 208 165 172 208 165 172 208 165 172 208 165 172 208 165 172 208 165 147 191 139 147 191 139 147 191 139 147 191 139 147 191 139 147 191 139 147 191 139 167 197 142 167 197 142 167 197 142 167 197 142 167 197 142 167 197 142 189 204 150 189 204 150 189 204 150 189 204 150 132 142 105 209 215 171 146 150 119 146 150 119 209 215 171 209 215 171 224 228 180 224 228 180 224 228 180 224 228 180 224 228 180 224 228 180 156 159 126 224 228 180 224 228 180 224 228 180 224 228 180 156 159 126 156 159 126 156 159 126 156 159 126 224 228 180 156 159 126 224 228 180 224 228 180 224 228 180 224 228 180 209 215 171 146 150 119 146 150 119 209 215 171 224 228 180 224 228 180 224 228 180 156 159 126 224 228 180 156 159 126 224 228 180 156 159 126 156 159 126 224 228 180 156 159 126 156 159 126 224 228 180 224 228 180 224 228 180 224 228 180 224 228 180 209 215 171 209 215 171 224 228 180 224 228 180 224 228 180 224 228 180 224 228 180 224 228 180 224 228 180 224 228 180 224 228 180 224 228 180 224 228 180 156 159 126 156 159 126 156 159 126 224 228 180 224 228 180 156 159 126 156 159 126 146 150 119 146 150 119 209 215 171 146 150 119 209 215 171 209 215 171 209 215 171 209 215 171 146 150 119 132 142 105 189 204 150 132 142 105 132 142 105 116 137 99 167 197 142 167 197 142 167 197 142 167 197 142 167 197 142 116 137 99 116 137 99 116 137 99 102 133 97 102 133 97 102 133 97 102 133 97 102 133 97 102 133 97 102 133 97 102 133 97 120 145 115 120 145 115 120 145 115 172 208 165 172 208 165 120 145 115 172 208 165 216 242 254 151 169 177 151 169 177 151 169 177 151 169 177 216 242 254 216 242 254 151 169 177 197 235 255 137 164 178 137 164 178 137 164 178 137 164 178 137 164 178 128 158 178 128 158 178 128 158 178 128 158 178 120 152 175 172 218 250 172 218 250 172 218 250 172 218 250 172 218 250 172 218 250 160 210 247 160 210 247 160 210 247 112 147 172 160 210 247 112 147 172 105 140 168 160 210 247 105 140 168 105 140 168 150 201 240 150 201 240 150 201 240 105 140 168 105 140 168 150 201 240 150 201 240 140 192 234 140 192 234 140 192 234 140 192 234 140 192 234 140 192 234 140 192 234 140 192 234 140 192 234 132 184 227 132 184 227 132 184 227 132 184 227 132 184 227 132 184 227 132 184 227

189 204 150 132 142 105 116 137 99 116 137 99 116 137 99 116 137 99 116 137 99 116 137 99 102 133 97 102 133 97 102 133 97 102 133 97 102 133 97 102 133 97 102 133 97 102 133 97 102 133 97 102 133 97 102 133 97 147 191 139 102 133 97 102 133 97 102 133 97 102 133 97 102 133 97 147 191 139 147 191 139 102 133 97 102 133 97 102 133 97 102 133 97 102 133 97 147 191 139 102 133 97 102 133 97 102 133 97 102 133 97 102 133 97 102 133 97 102 133 97 102 133 97 120 145 115 120 145 115 120 145 115 120 145 115 120 145 115 120 145 115 172 208 165 172 208 165 120 145 115 172 208 165 172 208 165 151 169 177 216 242 254 216 242 254 151 169 177 216 242 254 216 242 254 216 242 254 216 242 254 216 242 254 172 208 165 216 242 254 120 145 115 151 169 177 216 242 254 151 169 177 216 242 254 151 169 177 120 145 115 172 208 165 172 208 165 172 208 165 172 208 165 172 208 165 172 208 165 147 191 139 172 208 165 120 145 115 147 191 139 102 133 97 147 191 139 147 191 139 147 191 139 147 191 139 116 137 99 167 197 142 116 137 99 167 197 142 167 197 142 167 197 142 189 204 150 189 204 150 189 204 150 189 204 150 209 215 171 209 215 171 209 215 171 209 215 171 209 215 171 224 228 180 146 150 119 224 228 180 224 228 180 224 228 180 224 228 180 224 228 180 224 228 180 224 228 180 224 228 180 156 159 126 156 159 126 224 228 180 224 228 180 156 159 126 156 159 126 156 159 126 156 159 126 146 150 119 224 228 180 224 228 180 224 228 180 224 228 180 224 228 180 224 228 180 209 215 171 146 150 119 156 159 126 224 228 180 224 228 180 156 159 126 146 150 119 146 150 119 156 159 126 146 150 119 224 228 180 224 228 180 224 228 180 224 228 180 156 159 126 224 228 180 224 228 180 146 150 119 209 215 171 209 215 171 146 150 119 156 159 126 224 228 180 224 228 180 224 228 180 224 228 180 224 228 180 224 228 180 156 159 126 156 159 126 156 159 126 156 159 126 156 159 126 156 159 126 156 159 126 156 159 126 156 159 126 146 150 119 146 150 119 146 150 119 146 150 119 146 150 119 146 150 119 209 215 171 146 150 119 132 142 105 132 142 105 132 142 105 132 142 105 132 142 105 116 137 99 167 197 142 167 197 142 167 197 142 116 137 99 116 137 99 116 137 99 116 137 99 116 137 99 102 133 97 102 133 97 102 133 97 102 133 97 102 133 97 102 133 97 102 133 97 120 145 115 120 145 115 120 145 115 120 145 115 120 145 115 120 145 115 120 145 115 172 208 165 151 169 177 216 242 254 151 169 177 151 169 177 216 242 254 216 242 254 151 169 177 137 164 178 137 164 178 137 164 178 137 164 178 197 235 255 137 164 178 137 164 178 128 158 178 128 158 178 128 158 178 128 158 178 128 158 178 184 227 255 172 218 250 172 218 250 120 152 175 120 152 175 172 218 250 112 147 172 112 147 172 112 147 172 112 147 172 112 147 172 112 147 172 160 210 247 160 210 247 160 210 247 150 201 240 150 201 240 150 201 240 150 201 240 150 201 240 150 201 240 150 201 240 150 201 240 150 201 240 150 201 240 140 192 234 98 134 163 140 192 234 98 134 163 140 192 234 140 192 234 98 134 163 140 192 234 140 192 234 132 184 227 132 184 227 132 184 227 132 184 227 132 184 227

189 204 150 116 137 99 116 137 99 116 137 99 102 133 97 102 133 97 116 137 99 116 137 99 102 133 97 102 133 97 102 133 97 102 133 97 102 133 97 102 133 97 102 133 97 102 133 97 147 191 139 147 191 139 102 133 97 147 191 139 102 133 97 102 133 97 102 133 97 102 133 97 102 133 97 102 133 97 102 133 97 102 133 97 102 133 97 102 133 97 102 133 97 102 133 97 102 133 97 102 133 97 102 133 97 120 145 115 102 133 97 120 145 115 120 145 115 120 145 115 120 145 115 120 145 115 120 145 115 120 145 115 172 208 165 120 145 115 172 208 165 172 208 165 172 208 165 120 145 115 172 208 165 151 169 177 151 169 177 151 169 177 151 169 177 216 242 254 151 169 177 151 169 177 216 242 254 172 208 165 172 208 165 151 169 177 151 169 177 151 169 177 151 169 177 151 169 177 216 242 254 216 242 254 216 242 254 216 242 254 172 208 165 172 208 165 147 191 139 172 208 165 147 191 139 120 145 115 147 191 139 120 145 115 172 208 165 172 208 165 147 191 139 147 191 139 147 191 139 102 133 97 147 191 139 102 133 97 167 197 142 167 197 142 167 197 142 116 137 99 116 137 99 189 204 150 189 204 150 189 204 150 189 204 150 189 204 150 209 215 171 209 215 171 209 215 171 209 215 171 209 215 171 146 150 119 224 228 180 224 228 180 224 228 180 224 228 180 156 159 126 224 228 180 224 228 180 224 228 180 156 159 126 156 159 126 238 235 191 224 228 180 224 228 180 224 228 180 156 159 126 224 228 180 156 159 126 224 228 180 224 228 180 156 159 126 224 228 180 224 228 180 224 228 180 146 150 119 146 150 119 146 150 119 146 150 119 146 150 119 156 159 126 146 150 119 209 215 171 224 228 180 146 150 119 224 228 180 224 228 180 224 228 180 224 228 180 224 228 180 224 228 180 146 150 119 156 159 126 146 150 119 146 150 119 209 215 171 224 228 180 224 228 180 224 228 180 224 228 180 224 228 180 156 159 126 224 228 180 156 159 126 156 159 126 156 159 126 156 159 126 146 150 119 146 150 119 224 228 180 224 228 180 156 159 126 156 159 126 146 150 119 209 215 171 146 150 119 209 215 171 146 150 119 209 215 171 146 150 119 209 215 171 189 204 150 132 142 105 132 142 105 132 142 105 116 137 99 167 197 142 116 137 99 116 137 99 116 137 99 116 137 99 102 133 97 116 137 99 102 133 97 167 197 142 102 133 97 147 191 139 102 133 97 102 133 97 102 133 97 120 145 115 120 145 115 120 145 115 120 145 115 120 145 115 120 145 115 172 208 165 172 208 165 120 145 115 151 169 177 216 242 254 151 169 177 151 169 177 151 169 177 216 242 254 151 169 177 151 169 177 137 164 178 197 235 255 137 164 178 137 164 178 137 164 178 197 235 255 197 235 255 128 158 178 128 158 178 128 158 178 184 227 255 184 227 255 120 152 175 184 227 255 172 218 250 172 218 250 172 218 250 112 147 172 112 147 172 112 147 172 160 210 247 160 210 247 160 210 247 160 210 247 160 210 247 160 210 247 112 147 172 150 201 240 105 140 168 150 201 240 105 140 168 150 201 240 150 201 240 150 201 240 150 201 240 150 201 240 150 201 240 140 192 234 140 192 234 140 192 234 140 192 234 140 192 234 140 192 234 140 192 234 98 134 163 140 192 234 140 192 234 140 192 234 140 192 234 140 192 234

167 197 142 116 137 99 116 137 99 116 137 99 116 137 99 102 133 97 147 191 139 102 133 97 102 133 97 102 133 97 102 133 97 147 191 139 147 191 139 147 191 139 147 191 139 147 191 139 147 191 139 102 133 97 102 133 97 102 133 97 102 133 97 102 133 97 102 133 97 102 133 97 102 133 97 147 191 139 147 191 139 102 133 97 102 133 97 102 133 97 147 191 139 102 133 97 120 145 115 120 145 115 120 145 115 120 145 115 120 145 115 120 145 115 120 145 115 172 208 165 172 208 165 120 145 115 120 145 115 120 145 115 151 169 177 120 145 115 172 208 165 120 145 115 120 145 115 151 169 177 151 169 177 151 169 177 151 169 177 151 169 177 151 169 177 151 169 177 151 169 177 151 169 177 216 242 254 151 169 177 151 169 177 151 169 177 151 169 177 151 169 177 151 169 177 151 169 177 151 169 177 151 169 177 151 169 177 216 242 254 172 208 165 172 208 165 172 208 165 120 145 115 120 145 115 120 145 115 172 208 165 120 145 115 120 145 115 120 145 115 172 208 165 147 191 139 147 191 139 147 191 139 147 191 139 102 133 97 102 133 97 167 197 142 167 197 142 116 137 99 167 197 142 189 204 150 189 204 150 132 142 105 189 204 150 132 142 105 209 215 171 209 215 171 209 215 171 209 215 171 209 215 171 224 228 180 224 228 180 224 228 180 224 228 180 156 159 126 156 159 126 224 228 180 224 228 180 156 159 126 156 159 126 224 228 180 224 228 180 156 159 126 156 159 126 156 159 126 156 159 126 224 228 180 156 159 126 224 228 180 224 228 180 224 228 180 224 228 180 224 228 180 156 159 126 146 150 119 146 150 119 209 215 171 209 215 171 209 215 171 224 228 180 224 228 180 209 215 171 224 228 180 224 228 180 209 215 171 224 228 180 156 159 126 156 159 126 224 228 180 156 159 126 146 150 119 146 150 119 146 150 119 209 215 171 209 215 171 224 228 180 224 228 180 224 228 180 224 228 180 156 159 126 156 159 126 156 159 126 156 159 126 156 159 126 156 159 126 156 159 126 146 150 119 209 215 171 146 150 119 156 159 126 146 150 119 146 150 119 146 150 119 146 150 119 146 150 119 146 150 119 146 150 119 146 150 119 146 150 119 146 150 119 132 142 105 132 142 105 132 142 105 116 137 99 116 137 99 116 137 99 116 137 99 116 137 99 116 137 99 116 137 99 102 133 97 102 133 97 102 133 97 102 133 97 102 133 97 102 133 97 102 133 97 102 133 97 120 145 115 120 145 115 120 145 115 120 145 115 120 145 115 120 145 115 120 145 115 172 208 165 151 169 177 151 169 177 151 169 177 151 169 177 151 169 177 151 169 177 216 242 254 151 169 177 151 169 177 216 242 254 216 242 254 197 235 255 137 164 178 197 235 255 197 235 255 197 235 255 197 235 255 128 158 178 184 227 255 128 158 178 184 227 255 184 227 255 128 158 178 120 152 175 120 152 175 172 218 250 120 152 175 120 152 175 160 210 247 160 210 247 160 210 247 160 210 247 160 210 247 160 210 247 160 210 247 160 210 247 160 210 247 160 210 247 150 201 240 105 140 168 105 140 168 150 201 240 105 140 168 150 201 240 150 201 240 150 201 240 105 140 168 105 140 168 150 201 240 150 201 240 140 192 234 140 192 234 98 134 163 140 192 234 140 192 234 140 192 234 140 192 234 140 192 234 140 192 234 140 192 234

167 197 142 116 137 99 116 137 99 116 137 99 102 133 97 102 133 97 102 133 97 102 133 97 102 133 97 102 133 97 147 191 139 147 191 139 147 191 139 102 133 97 102 133 97 147 191 139 147 191 139 102 133 97 102 133 97 102 133 97 102 133 97 102 133 97 102 133 97 147 191 139 102 133 97 102 133 97 102 133 97 102 133 97 102 133 97 102 133 97 147 191 139 102 133 97 120 145 115 120 145 115 120 145 115 172 208 165 172 208 165 120 145 115 120 145 115 120 145 115 120 145 115 120 145 115 120 145 115 120 145 115 151 169 177 151 169 177 151 169 177 151 169 177 151 169 177 151 169 177 216 242 254 151 169 177 151 169 177 151 169 177 151 169 177 151 169 177 151 169 177 151 169 177 151 169 177 151 169 177 151 169 177 151 169 177 151 169 177 151 169 177 151 169 177 151 169 177 151 169 177 216 242 254 216 242 254 216 242 254 172 208 165 172 208 165 120 145 115 120 145 115 120 145 115 120 145 115 120 145 115 120 145 115 120 145 115 120 145 115 120 145 115 172 208 165 120 145 115 147 191 139 147 191 139 147 191 139 147 191 139 167 197 142 167 197 142 167 197 142 167 197 142 189 204 150 189 204 150 189 204 150 132 142 105 189 204 150 189 204 150 209 215 171 209 215 171 209 215 171 209 215 171 209 215 171 224 228 180 224 228 180 156 159 126 156 159 126 224 228 180 224 228 180 224 228 180 224 228 180 156 159 126 224 228 180 224 228 180 224 228 180 238 235 191 238 235 191 224 228 180 224 228 180 224 228 180 224 228 180 156 159 126 156 159 126 224 228 180 224 228 180 156 159 126 224 228 180 209 215 171 209 215 171 209 215 171 209 215 171 224 228 180 146 150 119 224 228 180 224 228 180 146 150 119 146 150 119 224 228 180 156 159 126 156 159 126 146 150 119 146 150 119 146 150 119 146 150 119 146 150 119 209 215 171 209 215 171 209 215 171 156 159 126 224 228 180 224 228 180 156 159 126 224 228 180 156 159 126 156 159 126 156 159 126 156 159 126 146 150 119 146 150 119 146 150 119 146 150 119 209 215 171 146 150 119 146 150 119 146 150 119 209 215 171 146 150 119 146 150 119 146 150 119 132 142 105 132 142 105 146 150 119 132 142 105 132 142 105 132 142 105 132 142 105 116 137 99 116 137 99 116 137 99 116 137 99 116 137 99 102 133 97 102 133 97 102 133 97 102 133 97 102 133 97 102 133 97 102 133 97 120 145 115 120 145 115 120 145 115 120 145 115 120 145 115 172 208 165 120 145 115 120 145 115 151 169 177 151 169 177 151 169 177 151 169 177 151 169 177 151 169 177 151 169 177 151 169 177 151 169 177 151 169 177 216 242 254 216 242 254 216 242 254 216 242 254 197 235 255 197 235 255 197 235 255 137 164 178 197 235 255 137 164 178 128 158 178 128 158 178 184 227 255 184 227 255 184 227 255 184 227 255 172 218 250 120 152 175 120 152 175 172 218 250 172 218 250 172 218 250 160 210 247 160 210 247 160 210 247 160 210 247 160 210 247 112 147 172 112 147 172 112 147 172 160 210 247 160 210 247 150 201 240 150 201 240 150 201 240 150 201 240 150 201 240 105 140 168 105 140 168 150 201 240 150 201 240 150 201 240 98 134 163 150 201 240 140 192 234 140 192 234 98 134 163 98 134 163 140 192 234 140 192 234 140 192 234 140 192 234

167 197 142 102 133 97 102 133 97 102 133 97 102 133 97 102 133 97 102 133 97 102 133 97 102 133 97 102 133 97 147 191 139 102 133 97 102 133 97 102 133 97 102 133 97 102 133 97 102 133 97 102 133 97 102 133 97 120 145 115 120 145 115 102 133 97 120 145 115 120 145 115 120 145 115 147 191 139 147 191 139 102 133 97 120 145 115 120 145 115 120 145 115 120 145 115 120 145 115 172 208 165 120 145 115 120 145 115 120 145 115 120 145 115 120 145 115 120 145 115 120 145 115 120 145 115 120 145 115 151 169 177 151 169 177 216 242 254 216 242 254 216 242 254 216 242 254 216 242 254 151 169 177 151 169 177 151 169 177 151 169 177 151 169 177 151 169 177 151 169 177 151 169 177 151 169 177 151 169 177 151 169 177 151 169 177 137 164 178 137 164 178 137 164 178 151 169 177 151 169 177 216 242 254 216 242 254 151 169 177 151 169 177 151 169 177 151 169 177 120 145 115 120 145 115 120 145 115 120 145 115 120 145 115 120 145 115 120 145 115 120 145 115 120 145 115 172 208 165 147 191 139 147 191 139 147 191 139 147 191 139 102 133 97 167 197 142 167 197 142 167 197 142 167 197 142 116 137 99 132 142 105 189 204 150 189 204 150 132 142 105 132 142 105 146 150 119 209 215 171 146 150 119 209 215 171 146 150 119 156 159 126 224 228 180 224 228 180 224 228 180 224 228 180 224 228 180 156 159 126 224 228 180 224 228 180 224 228 180 224 228 180 238 235 191 238 235 191 156 159 126 156 159 126 224 228 180 156 159 126 224 228 180 224 228 180 224 228 180 156 159 126 156 159 126 224 228 180 146 150 119 224 228 180 209 215 171 209 215 171 209 215 171 156 159 126 224 228 180 156 159 126 224 228 180 209 215 171 224 228 180 146 150 119 224 228 180 224 228 180 209 215 171 146 150 119 146 150 119 146 150 119 209 215 171 146 150 119 209 215 171 224 228 180 224 228 180 156 159 126 156 159 126 156 159 126 156 159 126 224 228 180 224 228 180 146 150 119 146 150 119 146 150 119 146 150 119 146 150 119 146 150 119 146 150 119 209 215 171 146 150 119 146 150 119 146 150 119 146 150 119 132 142 105 132 142 105 132 142 105 132 142 105 132 142 105 132 142 105 132 142 105 116 137 99 116 137 99 116 137 99 102 133 97 102 133 97 102 133 97 102 133 97 102 133 97 102 133 97 102 133 97 102 133 97 102 133 97 120 145 115 120 145 115 120 145 115 120 145 115 172 208 165 120 145 115 120 145 115 120 145 115 120 145 115 151 169 177 151 169 177 151 169 177 151 169 177 151 169 177 151 169 177 151 169 177 216 242 254 151 169 177 216 242 254 216 242 254 216 242 254 216 242 254 216 242 254 216 242 254 216 242 254 137 164 178 137 164 178 197 235 255 197 235 255 197 235 255 184 227 255 184 227 255 184 227 255 184 227 255 184 227 255 184 227 255 120 152 175 172 218 250 172 218 250 120 152 175 172 218 250 172 218 250 160 210 247 172 218 250 160 210 247 160 210 247 160 210 247 160 210 247 112 147 172 112 147 172 105 140 168 105 140 168 105 140 168 105 140 168 150 201 240 105 140 168 105 140 168 105 140 168 150 201 240 150 201 240 150 201 240 150 201 240 150 201 240 150 201 240 140 192 234 140 192 234 140 192 234 140 192 234 140 192 234 98 134 163 140 192 234

167 197 142 102 133 97 102 133 97 102 133 97 102 133 97 102 133 97 102 133 97 147 191 139 147 191 139 102 133 97 147 191 139 102 133 97 102 133 97 102 133 97 120 145 115 102 133 97 147 191 139 120 145 115 102 133 97 120 145 115 120 145 115 120 145 115 120 145 115 172 208 165 147 191 139 147 191 139 102 133 97 120 145 115 120 145 115 120 145 115 120 145 115 120 145 115 120 145 115 120 145 115 120 145 115 120 145 115 120 145 115 120 145 115 172 208 165 120 145 115 120 145 115 172 208 165 120 145 115 151 169 177 216 242 254 151 169 177 151 169 177 151 169 177 216 242 254 216 242 254 216 242 254 151 169 177 151 169 177 151 169 177 216 242 254 216 242 254 151 169 177 137 164 178 151 169 177 151 169 177 151 169 177 151 169 177 137 164 178 137 164 178 137 164 178 137 164 178 137 164 178 216 242 254 216 242 254 216 242 254 151 169 177 216 242 254 172 208 165 216 242 254 120 145 115 172 208 165 172 208 165 120 145 115 120 145 115 120 145 115 120 145 115 172 208 165 172 208 165 172 208 165 147 191 139 147 191 139 102 133 97 102 133 97 147 191 139 167 197 142 167 197 142 167 197 142 167 197 142 167 197 142 116 137 99 189 204 150 189 204 150 189 204 150 189 204 150 209 215 171 209 215 171 209 215 171 146 150 119 209 215 171 224 228 180 156 159 126 156 159 126 224 228 180 156 159 126 224 228 180 224 228 180 224 228 180 224 228 180 238 235 191 238 235 191 156 159 126 166 164 133 224 228 180 156 159 126 156 159 126 224 228 180 224 228 180 224 228 180 224 228 180 224 228 180 224 228 180 224 228 180 224 228 180 146 150 119 224 228 180 224 228 180 224 228 180 224 228 180 224 228 180 224 228 180 146 150 119 224 228 180 146 150 119 209 215 171 146 150 119 146 150 119 146 150 119 146 150 119 146 150 119 209 215 171 209 215 171 224 228 180 209 215 171 224 228 180 224 228 180 156 159 126 156 159 126 156 159 126 146 150 119 156 159 126 146 150 119 146 150 119 146 150 119 209 215 171 146 150 119 146 150 119 146 150 119 146 150 119 146 150 119 146 150 119 132 142 105 132 142 105 132 142 105 132 142 105 132 142 105 132 142 105 132 142 105 132 142 105 116 137 99 116 137 99 116 137 99 116 137 99 102 133 97 102 133 97 102 133 97 102 133 97 102 133 97 102 133 97 102 133 97 102 133 97 102 133 97 120 145 115 120 145 115 120 145 115 120 145 115 120 145 115 120 145 115 120 145 115 151 169 177 151 169 177 151 169 177 151 169 177 151 169 177 151 169 177 151 169 177 137 164 178 137 164 178 137 164 178 151 169 177 216 242 254 216 242 254 216 242 254 216 242 254 216 242 254 216 242 254 216 242 254 137 164 178 197 235 255 197 235 255 197 235 255 197 235 255 197 235 255 197 235 255 197 235 255 184 227 255 128 158 178 184 227 255 128 158 178 172 218 250 172 218 250 120 152 175 172 218 250 172 218 250 172 218 250 172 218 250 172 218 250 172 218 250 160 210 247 160 210 247 112 147 172 160 210 247 112 147 172 105 140 168 105 140 168 105 140 168 105 140 168 105 140 168 150 201 240 150 201 240 150 201 240 150 201 240 105 140 168 150 201 240 150 201 240 105 140 168 98 134 163 98 134 163 140 192 234 140 192 234 98 134 163 98 134 163 140 192 234

147 191 139 102 133 97 102 133 97 102 133 97 102 133 97 102 133 97 102 133 97 147 191 139 102 133 97 102 133 97 147 191 139 120 145 115 120 145 115 120 145 115 120 145 115 120 145 115 120 145 115 120 145 115 120 145 115 120 145 115 172 208 165 120 145 115 172 208 165 120 145 115 120 145 115 120 145 115 120 145 115 120 145 115 120 145 115 120 145 115 120 145 115 120 145 115 120 145 115 120 145 115 120 145 115 120 145 115 151 169 177 172 208 165 172 208 165 120 145 115 120 145 115 120 145 115 151 169 177 120 145 115 151 169 177 151 169 177 216 242 254 151 169 177 216 242 254 151 169 177 151 169 177 151 169 177 151 169 177 151 169 177 151 169 177 151 169 177 151 169 177 216 242 254 197 235 255 216 242 254 151 169 177 137 164 178 137 164 178 137 164 178 137 164 178 137 164 178 197 235 255 197 235 255 216 242 254 216 242 254 216 242 254 216 242 254 216 242 254 151 169 177 151 169 177 172 208 165 151 169 177 151 169 177 120 145 115 120 145 115 172 208 165 172 208 165 172 208 165 147 191 139 147 191 139 147 191 139 147 191 139 147 191 139 147 191 139 167 197 142 167 197 142 167 197 142 167 197 142 116 137 99 189 204 150 189 204 150 189 204 150 189 204 150 189 204 150 209 215 171 209 215 171 146 150 119 209 215 171 146 150 119 146 150 119 156 159 126 156 159 126 224 228 180 156 159 126 224 228 180 224 228 180 224 228 180 224 228 180 238 235 191 238 235 191 166 164 133 156 159 126 156 159 126 156 159 126 224 228 180 224 228 180 224 228 180 156 159 126 224 228 180 224 228 180 156 159 126 224 228 180 224 228 180 224 228 180 224 228 180 224 228 180 224 228 180 224 228 180 156 159 126 156 159 126 156 159 126 224 228 180 146 150 119 209 215 171 209 215 171 224 228 180 209 215 171 209 215 171 209 215 171 209 215 171 224 228 180 224 228 180 146 150 119 209 215 171 146 150 119 224 228 180 224 228 180 146 150 119 146 150 119 146 150 119 146 150 119 209 215 171 209 215 171 146 150 119 146 150 119 146 150 119 209 215 171 146 150 119 146 150 119 209 215 171 132 142 105 132 142 105 132 142 105 132 142 105 132 142 105 132 142 105 132 142 105 132 142 105 116 137 99 116 137 99 116 137 99 116 137 99 102 133 97 102 133 97 102 133 97 102 133 97 102 133 97 102 133 97 102 133 97 120 145 115 120 145 115 120 145 115 120 145 115 120 145 115 120 145 115 120 145 115 120 145 115 151 169 177 151 169 177 151 169 177 151 169 177 151 169 177 151 169 177 137 164 178 151 169 177 137 164 178 197 235 255 197 235 255 216 242 254 216 242 254 151 169 177 151 169 177 151 169 177 216 242 254 151 169 177 216 242 254 137 164 178 197 235 255 137 164 178 197 235 255 197 235 255 197 235 255 197 235 255 137 164 178 137 164 178 128 158 178 128 158 178 128 158 178 184 227 255 184 227 255 120 152 175 172 218 250 172 218 250 172 218 250 172 218 250 120 152 175 172 218 250 172 218 250 112 147 172 112 147 172 112 147 172 105 140 168 105 140 168 105 140 168 150 201 240 150 201 240 150 201 240 150 201 240 150 201 240 105 140 168 150 201 240 150 201 240 150 201 240 150 201 240 105 140 168 98 134 163 140 192 234 140 192 234 140 192 234 98 134 163 98 134 163 98 134 163

147 191 139 102 133 97 102 133 97 120 145 115 120 145 115 102 133 97 147 191 139 147 191 139 102 133 97 102 133 97 102 133 97 120 145 115 120 145 115 120 145 115 120 145 115 120 145 115 120 145 115 120 145 115 120 145 115 120 145 115 172 208 165 120 145 115 120 145 115 120 145 115 120 145 115 172 208 165 172 208 165 172 208 165 120 145 115 120 145 115 120 145 115 120 145 115 120 145 115 120 145 115 151 169 177 151 169 177 172 208 165 172 208 165 172 208 165 120 145 115 120 145 115 120 145 115 172 208 165 216 242 254 151 169 177 151 169 177 216 242 254 151 169 177 216 242 254 151 169 177 151 169 177 151 169 177 151 169 177 151 169 177 151 169 177 151 169 177 216 242 254 137 164 178 216 242 254 197 235 255 216 242 254 137 164 178 137 164 178 137 164 178 197 235 255 137 164 178 197 235 255 197 235 255 197 235 255 216 242 254 216 242 254 216 242 254 216 242 254 151 169 177 216 242 254 216 242 254 172 208 165 216 242 254 151 169 177 172 208 165 172 208 165 172 208 165 172 208 165 172 208 165 147 191 139 147 191 139 147 191 139 147 191 139 147 191 139 167 197 142 167 197 142 167 197 142 116 137 99 167 197 142 189 204 150 189 204 150 189 204 150 132 142 105 189 204 150 189 204 150 209 215 171 146 150 119 209 215 171 146 150 119 209 215 171 146 150 119 146 150 119 224 228 180 224 228 180 224 228 180 224 228 180 224 228 180 224 228 180 238 235 191 238 235 191 156 159 126 156 159 126 224 228 180 224 228 180 224 228 180 156 159 126 224 228 180 224 228 180 224 228 180 224 228 180 156 159 126 224 228 180 156 159 126 224 228 180 224 228 180 224 228 180 224 228 180 224 228 180 156 159 126 224 228 180 156 159 126 146 150 119 224 228 180 209 215 171 146 150 119 224 228 180 146 150 119 146 150 119 209 215 171 209 215 171 209 215 171 224 228 180 146 150 119 224 228 180 224 228 180 224 228 180 156 159 126 146 150 119 209 215 171 224 228 180 146 150 119 146 150 119 146 150 119 146 150 119 146 150 119 146 150 119 146 150 119 146 150 119 146 150 119 146 150 119 146 150 119 132 142 105 132 142 105 132 142 105 132 142 105 116 137 99 116 137 99 116 137 99 116 137 99 116 137 99 102 133 97 102 133 97 102 133 97 102 133 97 102 133 97 102 133 97 147 191 139 147 191 139 120 145 115 120 145 115 120 145 115 120 145 115 120 145 115 120 145 115 120 145 115 120 145 115 151 169 177 151 169 177 151 169 177 151 169 177 151 169 177 151 169 177 137 164 178 216 242 254 197 235 255 137 164 178 137 164 178 137 164 178 216 242 254 216 242 254 216 242 254 151 169 177 216 242 254 151 169 177 151 169 177 216 242 254 137 164 178 197 235 255 197 235 255 216 242 254 197 235 255 197 235 255 137 164 178 137 164 178 197 235 255 128 158 178 128 158 178 184 227 255 184 227 255 184 227 255 120 152 175 172 218 250 120 152 175 172 218 250 172 218 250 172 218 250 172 218 250 120 152 175 112 147 172 160 210 247 160 210 247 112 147 172 105 140 168 160 210 247 150 201 240 150 201 240 150 201 240 150 201 240 150 201 240 150 201 240 150 201 240 150 201 240 150 201 240 150 201 240 105 140 168 105 140 168 140 192 234 98 134 163 140 192 234 140 192 234 140 192 234 140 192 234

147 191 139 102 133 97 120 145 115 120 145 115 120 145 115 120 145 115 120 145 115 120 145 115 120 145 115 120 145 115 120 145 115 120 145 115 120 145 115 120 145 115 120 145 115 120 145 115 120 145 115 120 145 115 120 145 115 120 145 115 172 208 165 120 145 115 120 145 115 172 208 165 172 208 165 120 145 115 120 145 115 120 145 115 120 145 115 120 145 115 120 145 115 120 145 115 151 169 177 151 169 177 151 169 177 216 242 254 216 242 254 120 145 115 120 145 115 120 145 115 172 208 165 151 169 177 151 169 177 151 169 177 151 169 177 216 242 254 216 242 254 151 169 177 151 169 177 151 169 177 151 169 177 151 169 177 137 164 178 137 164 178 137 164 178 216 242 254 216 242 254 151 169 177 137 164 178 137 164 178 137 164 178 137 164 178 137 164 178 137 164 178 137 164 178 137 164 178 197 235 255 197 235 255 197 235 255 216 242 254 216 242 254 216 242 254 216 242 254 216 242 254 216 242 254 216 242 254 151 169 177 151 169 177 151 169 177 151 169 177 172 208 165 172 208 165 172 208 165 172 208 165 147 191 139 147 191 139 147 191 139 147 191 139 147 191 139 167 197 142 167 197 142 116 137 99 167 197 142 167 197 142 167 197 142 116 137 99 189 204 150 189 204 150 189 204 150 189 204 150 132 142 105 132 142 105 209 215 171 146 150 119 146 150 119 146 150 119 209 215 171 224 228 180 224 228 180 224 228 180 224 228 180 224 228 180 238 235 191 238 235 191 166 164 133 166 164 133 238 235 191 224 228 180 156 159 126 156 159 126 156 159 126 224 228 180 224 228 180 224 228 180 224 228 180 156 159 126 156 159 126 224 228 180 224 228 180 224 228 180 224 228 180 224 228 180 224 228 180 156 159 126 224 228 180 156 159 126 224 228 180 209 215 171 224 228 180 224 228 180 224 228 180 224 228 180 224 228 180 224 228 180 209 215 171 224 228 180 224 228 180 224 228 180 224 228 180 224 228 180 224 228 180 156 159 126 146 150 119 209 215 171 224 228 180 146 150 119 209 215 171 209 215 171 146 150 119 146 150 119 146 150 119 146 150 119 146 150 119 209 215 171 146 150 119 132 142 105 132 142 105 132 142 105 132 142 105 116 137 99 116 137 99 116 137 99 116 137 99 116 137 99 102 133 97 102 133 97 102 133 97 102 133 97 102 133 97 102 133 97 147 191 139 102 133 97 102 133 97 120 145 115 120 145 115 120 145 115 120 145 115 120 145 115 172 208 165 151 169 177 151 169 177 151 169 177 151 169 177 151 169 177 151 169 177 151 169 177 137 164 178 216 242 254 137 164 178 137 164 178 137 164 178 197 235 255 197 235 255 197 235 255 216 242 254 216 242 254 216 242 254 216 242 254 216 242 254 216 242 254 216 242 254 151 169 177 216 242 254 216 242 254 216 242 254 137 164 178 197 235 255 137 164 178 137 164 178 137 164 178 128 158 178 184 227 255 184 227 255 184 227 255 184 227 255 184 227 255 184 227 255 120 152 175 120 152 175 120 152 175 120 152 175 120 152 175 112 147 172 112 147 172 112 147 172 112 147 172 112 147 172 105 140 168 150 201 240 160 210 247 105 140 168 105 140 168 150 201 240 105 140 168 105 140 168 105 140 168 150 201 240 105 140 168 105 140 168 105 140 168 105 140 168 98 134 163 98 134 163 140 192 234 98 134 163 140 192 234 140 192 234

147 191 139 120 145 115 120 145 115 120 145 115 120 145 115 120 145 115 120 145 115 120 145 115 120 145 115 120 145 115 120 145 115 120 145 115 120 145 115 120 145 115 120 145 115 120 145 115 151 169 177 172 208 165 120 145 115 120 145 115 172 208 165 120 145 115 120 145 115 172 208 165 172 208 165 120 145 115 120 145 115 120 145 115 120 145 115 120 145 115 151 169 177 151 169 177 151 169 177 151 169 177 151 169 177 216 242 254 172 208 165 216 242 254 172 208 165 172 208 165 120 145 115 151 169 177 151 169 177 151 169 177 216 242 254 151 169 177 151 169 177 151 169 177 151 169 177 151 169 177 151 169 177 137 164 178 137 164 178 137 164 178 216 242 254 216 242 254 216 242 254 137 164 178 137 164 178 137 164 178 137 164 178 137 164 178 137 164 178 137 164 178 137 164 178 197 235 255 197 235 255 197 235 255 137 164 178 197 235 255 216 242 254 216 242 254 216 242 254 151 169 177 151 169 177 216 242 254 151 169 177 151 169 177 216 242 254 151 169 177 216 242 254 172 208 165 172 208 165 172 208 165 147 191 139 147 191 139 102 133 97 102 133 97 147 191 139 147 191 139 167 197 142 167 197 142 167 197 142 167 197 142 167 197 142 167 197 142 189 204 150 189 204 150 189 204 150 189 204 150 132 142 105 132 142 105 189 204 150 132 142 105 132 142 105 209 215 171 209 215 171 209 215 171 224 228 180 156 159 126 224 228 180 238 235 191 238 235 191 166 164 133 166 164 133 166 164 133 238 235 191 156 159 126 224 228 180 224 228 180 224 228 180 224 228 180 224 228 180 156 159 126 224 228 180 224 228 180 156 159 126 224 228 180 224 228 180 156 159 126 224 228 180 224 228 180 224 228 180 156 159 126 224 228 180 156 159 126 224 228 180 224 228 180 224 228 180 224 228 180 224 228 180 224 228 180 224 228 180 156 159 126 224 228 180 224 228 180 224 228 180 224 228 180 224 228 180 224 228 180 156 159 126 156 159 126 146 150 119 209 215 171 224 228 180 146 150 119 209 215 171 209 215 171 209 215 171 209 215 171 209 215 171 209 215 171 146 150 119 209 215 171 146 150 119 132 142 105 132 142 105 132 142 105 132 142 105 132 142 105 167 197 142 116 137 99 116 137 99 116 137 99 102 133 97 147 191 139 102 133 97 102 133 97 102 133 97 102 133 97 147 191 139 120 145 115 120 145 115 120 145 115 120 145 115 120 145 115 120 145 115 151 169 177 151 169 177 151 169 177 151 169 177 151 169 177 151 169 177 151 169 177 151 169 177 151 169 177 137 164 178 197 235 255 137 164 178 137 164 178 137 164 178 197 235 255 216 242 254 216 242 254 216 242 254 216 242 254 216 242 254 151 169 177 216 242 254 216 242 254 216 242 254 216 242 254 216 242 254 216 242 254 151 169 177 137 164 178 216 242 254 197 235 255 197 235 255 197 235 255 197 235 255 197 235 255 197 235 255 184 227 255 184 227 255 128 158 178 128 158 178 120 152 175 120 152 175 120 152 175 120 152 175 172 218 250 120 152 175 160 210 247 160 210 247 112 147 172 112 147 172 160 210 247 160 210 247 160 210 247 105 140 168 150 201 240 150 201 240 150 201 240 150 201 240 150 201 240 150 201 240 150 201 240 150 201 240 150 201 240 105 140 168 98 134 163 140 192 234 150 201 240 140 192 234 140 192 234 140 192 234

172 208 165 120 145 115 120 145 115 120 145 115 120 145 115 120 145 115 120 145 115 120 145 115 120 145 115 120 145 115 120 145 115 120 145 115 120 145 115 120 145 115 151 169 177 151 169 177 172 208 165 172 208 165 172 208 165 120 145 115 172 208 165 120 145 115 120 145 115 172 208 165 120 145 115 120 145 115 172 208 165 120 145 115 120 145 115 151 169 177 151 169 177 151 169 177 151 169 177 216 242 254 216 242 254 216 242 254 216 242 254 151 169 177 151 169 177 151 169 177 151 169 177 151 169 177 151 169 177 151 169 177 151 169 177 151 169 177 151 169 177 137 164 178 137 164 178 137 164 178 151 169 177 137 164 178 137 164 178 137 164 178 197 235 255 137 164 178 137 164 178 137 164 178 137 164 178 137 164 178 137 164 178 137 164 178 137 164 178 137 164 178 197 235 255 197 235 255 197 235 255 137 164 178 137 164 178 137 164 178 197 235 255 151 169 177 216 242 254 151 169 177 151 169 177 151 169 177 151 169 177 151 169 177 151 169 177 216 242 254 216 242 254 172 208 165 172 208 165 172 208 165 147 191 139 147 191 139 102 133 97 147 191 139 147 191 139 102 133 97 102 133 97 167 197 142 167 197 142 116 137 99 116 137 99 167 197 142 167 197 142 132 142 105 132 142 105 132 142 105 132 142 105 189 204 150 132 142 105 132 142 105 132 142 105 209 215 171 209 215 171 209 215 171 224 228 180 224 228 180 224 228 180 238 235 191 238 235 191 166 164 133 156 159 126 156 159 126 156 159 126 156 159 126 156 159 126 156 159 126 156 159 126 224 228 180 224 228 180 224 228 180 224 228 180 156 159 126 156 159 126 224 228 180 224 228 180 156 159 126 224 228 180 224 228 180 156 159 126 156 159 126 156 159 126 224 228 180 224 228 180 224 228 180 224 228 180 224 228 180 224 228 180 156 159 126 156 159 126 224 228 180 224 228 180 224 228 180 224 228 180 224 228 180 224 228 180 156 159 126 146 150 119 146 150 119 146 150 119 146 150 119 209 215 171 146 150 119 146 150 119 146 150 119 146 150 119 146 150 119 146 150 119 209 215 171 146 150 119 209 215 171 146 150 119 132 142 105 132 142 105 132 142 105 132 142 105 132 142 105 116 137 99 116 137 99 116 137 99 116 137 99 102 133 97 147 191 139 147 191 139 102 133 97 102 133 97 102 133 97 102 133 97 120 145 115 120 145 115 120 145 115 120 145 115 120 145 115 151 169 177 151 169 177 151 169 177 151 169 177 151 169 177 151 169 177 151 169 177 151 169 177 151 169 177 216 242 254 137 164 178 197 235 255 137 164 178 197 235 255 197 235 255 197 235 255 216 242 254 216 242 254 216 242 254 216 242 254 216 242 254 151 169 177 151 169 177 151 169 177 151 169 177 151 169 177 216 242 254 151 169 177 151 169 177 216 242 254 197 235 255 137 164 178 137 164 178 137 164 178 137 164 178 137 164 178 128 158 178 128 158 178 184 227 255 128 158 178 128 158 178 184 227 255 172 218 250 172 218 250 172 218 250 172 218 250 172 218 250 172 218 250 112 147 172 112 147 172 160 210 247 112 147 172 160 210 247 160 210 247 160 210 247 160 210 247 150 201 240 150 201 240 150 201 240 150 201 240 150 201 240 150 201 240 105 140 168 105 140 168 105 140 168 150 201 240 150 201 240 150 201 240 150 201 240 150 201 240 150 201 240

172 208 165 120 145 115 120 145 115 120 145 115 120 145 115 120 145 115 172 208 165 172 208 165 172 208 165 120 145 115 120 145 115 120 145 115 120 145 115 151 169 177 172 208 165 172 208 165 172 208 165 172 208 165 172 208 165 120 145 115 151 169 177 120 145 115 120 145 115 172 208 165 120 145 115 120 145 115 120 145 115 120 145 115 120 145 115 151 169 177 151 169 177 151 169 177 151 169 177 151 169 177 151 169 177 216 242 254 151 169 177 151 169 177 151 169 177 151 169 177 151 169 177 151 169 177 151 169 177 151 169 177 151 169 177 151 169 177 151 169 177 137 164 178 137 164 178 137 164 178 216 242 254 137 164 178 197 235 255 197 235 255 137 164 178 137 164 178 137 164 178 137 164 178 137 164 178 137 164 178 137 164 178 137 164 178 137 164 178 137 164 178 137 164 178 137 164 178 197 235 255 137 164 178 197 235 255 197 235 255 197 235 255 197 235 255 216 242 254 151 169 177 151 169 177 151 169 177 151 169 177 216 242 254 216 242 254 172 208 165 172 208 165 172 208 165 172 208 165 172 208 165 147 191 139 120 145 115 147 191 139 147 191 139 102 133 97 102 133 97 147 191 139 147 191 139 167 197 142 167 197 142 167 197 142 167 197 142 116 137 99 167 197 142 189 204 150 116 137 99 116 137 99 116 137 99 132 142 105 189 204 150 189 204 150 209 215 171 209 215 171 209 215 171 224 228 180 224 228 180 224 228 180 224 228 180 238 235 191 156 159 126 156 159 126 224 228 180 224 228 180 156 159 126 156 159 126 224 228 180 156 159 126 156 159 126 224 228 180 156 159 126 156 159 126 156 159 126 156 159 126 224 228 180 224 228 180 156 159 126 224 228 180 156 159 126 156 159 126 156 159 126 224 228 180 224 228 180 224 228 180 224 228 180 224 228 180 224 228 180 224 228 180 224 228 180 224 228 180 224 228 180 224 228 180 224 228 180 224 228 180 224 228 180 224 228 180 156 159 126 146 150 119 209 215 171 146 150 119 146 150 119 209 215 171 146 150 119 209 215 171 146 150 119 146 150 119 146 150 119 209 215 171 209 215 171 209 215 171 209 215 171 209 215 171 132 142 105 189 204 150 132 142 105 132 142 105 132 142 105 189 204 150 116 137 99 116 137 99 116 137 99 116 137 99 167 197 142 147 191 139 102 133 97 102 133 97 102 133 97 102 133 97 120 145 115 120 145 115 120 145 115 120 145 115 120 145 115 151 169 177 151 169 177 151 169 177 151 169 177 151 169 177 151 169 177 151 169 177 151 169 177 216 242 254 137 164 178 216 242 254 216 242 254 197 235 255 216 242 254 216 242 254 216 242 254 216 242 254 137 164 178 151 169 177 151 169 177 151 169 177 151 169 177 151 169 177 216 242 254 216 242 254 216 242 254 216 242 254 151 169 177 151 169 177 151 169 177 137 164 178 137 164 178 137 164 178 137 164 178 197 235 255 137 164 178 137 164 178 184 227 255 128 158 178 128 158 178 128 158 178 184 227 255 184 227 255 184 227 255 172 218 250 172 218 250 172 218 250 120 152 175 120 152 175 160 210 247 160 210 247 112 147 172 160 210 247 112 147 172 160 210 247 160 210 247 105 140 168 150 201 240 160 210 247 150 201 240 105 140 168 150 201 240 105 140 168 105 140 168 105 140 168 105 140 168 150 201 240 150 201 240 150 201 240 150 201 240 150 201 240

172 208 165 120 145 115 120 145 115 120 145 115 120 145 115 172 208 165 172 208 165 172 208 165 172 208 165 120 145 115 120 145 115 172 208 165 151 169 177 172 208 165 172 208 165 172 208 165 172 208 165 120 145 115 172 208 165 172 208 165 172 208 165 172 208 165 151 169 177 120 145 115 151 169 177 172 208 165 120 145 115 151 169 177 120 145 115 151 169 177 151 169 177 151 169 177 151 169 177 151 169 177 151 169 177 216 242 254 151 169 177 151 169 177 151 169 177 151 169 177 151 169 177 151 169 177 216 242 254 151 169 177 151 169 177 137 164 178 137 164 178 137 164 178 197 235 255 197 235 255 197 235 255 137 164 178 197 235 255 137 164 178 137 164 178 137 164 178 137 164 178 137 164 178 137 164 178 137 164 178 137 164 178 137 164 178 137 164 178 128 158 178 128 158 178 197 235 255 197 235 255 197 235 255 197 235 255 197 235 255 197 235 255 137 164 178 197 235 255 151 169 177 151 169 177 151 169 177 216 242 254 216 242 254 216 242 254 216 242 254 172 208 165 172 208 165 172 208 165 172 208 165 172 208 165 120 145 115 147 191 139 102 133 97 147 191 139 147 191 139 147 191 139 147 191 139 102 133 97 167 197 142 116 137 99 167 197 142 167 197 142 167 197 142 116 137 99 116 137 99 116 137 99 189 204 150 189 204 150 189 204 150 189 204 150 209 215 171 209 215 171 209 215 171 209 215 171 224 228 180 224 228 180 156 159 126 224 228 180 156 159 126 156 159 126 224 228 180 156 159 126 156 159 126 156 159 126 156 159 126 156 159 126 224 228 180 224 228 180 156 159 126 156 159 126 156 159 126 224 228 180 156 159 126 224 228 180 224 228 180 156 159 126 156 159 126 224 228 180 156 159 126 156 159 126 224 228 180 224 228 180 224 228 180 224 228 180 224 228 180 224 228 180 224 228 180 224 228 180 224 228 180 224 228 180 224 228 180 224 228 180 224 228 180 156 159 126 156 159 126 156 159 126 146 150 119 146 150 119 209 215 171 146 150 119 146 150 119 146 150 119 146 150 119 146 150 119 209 215 171 209 215 171 146 150 119 146 150 119 209 215 171 146 150 119 146 150 119 209 215 171 132 142 105 132 142 105 189 204 150 189 204 150 116 137 99 116 137 99 116 137 99 116 137 99 102 133 97 102 133 97 102 133 97 102 133 97 102 133 97 120 145 115 120 145 115 120 145 115 120 145 115 120 145 115 151 169 177 151 169 177 151 169 177 151 169 177 151 169 177 151 169 177 151 169 177 216 242 254 216 242 254 216 242 254 151 169 177 216 242 254 137 164 178 137 164 178 216 242 254 216 242 254 216 242 254 137 164 178 137 164 178 137 164 178 137 164 178 137 164 178 151 169 177 216 242 254 216 242 254 151 169 177 151 169 177 151 169 177 151 169 177 216 242 254 151 169 177 137 164 178 137 164 178 197 235 255 137 164 178 137 164 178 137 164 178 197 235 255 197 235 255 128 158 178 184 227 255 184 227 255 184 227 255 184 227 255 128 158 178 184 227 255 120 152 175 172 218 250 172 218 250 172 218 250 120 152 175 160 210 247 160 210 247 160 210 247 112 147 172 160 210 247 112 147 172 112 147 172 160 210 247 160 210 247 105 140 168 105 140 168 105 140 168 105 140 168 105 140 168 105 140 168 150 201 240 150 201 240 105 140 168 150 201 240 105 140 168 150 201 240

172 208 165 120 145 115 120 145 115 120 145 115 172 208 165 172 208 165 172 208 165 172 208 165 172 208 165 172 208 165 172 208 165 172 208 165 120 145 115 172 208 165 172 208 165 172 208 165 172 208 165 120 145 115 172 208 165 172 208 165 120 145 115 151 169 177 151 169 177 216 242 254 151 169 177 172 208 165 172 208 165 172 208 165 172 208 165 151 169 177 151 169 177 151 169 177 151 169 177 151 169 177 216 242 254 216 242 254 216 242 254 151 169 177 151 169 177 151 169 177 151 169 177 151 169 177 151 169 177 137 164 178 216 242 254 137 164 178 137 164 178 137 164 178 197 235 255 137 164 178 137 164 178 137 164 178 137 164 178 137 164 178 137 164 178 197 235 255 197 235 255 137 164 178 137 164 178 128 158 178 128 158 178 197 235 255 197 235 255 128 158 178 128 158 178 184 227 255 197 235 255 197 235 255 197 235 255 197 235 255 137 164 178 137 164 178 137 164 178 197 235 255 216 242 254 216 242 254 216 242 254 216 242 254 172 208 165 216 242 254 172 208 165 172 208 165 172 208 165 172 208 165 172 208 165 120 145 115 172 208 165 147 191 139 147 191 139 147 191 139 147 191 139 147 191 139 102 133 97 147 191 139 167 197 142 167 197 142 167 197 142 167 197 142 116 137 99 116 137 99 167 197 142 167 197 142 189 204 150 189 204 150 189 204 150 209 215 171 209 215 171 209 215 171 209 215 171 224 228 180 224 228 180 156 159 126 224 228 180 156 159 126 156 159 126 156 159 126 156 159 126 156 159 126 224 228 180 224 228 180 224 228 180 156 159 126 156 159 126 156 159 126 224 228 180 156 159 126 156 159 126 156 159 126 224 228 180 156 159 126 224 228 180 224 228 180 224 228 180 224 228 180 224 228 180 224 228 180 224 228 180 224 228 180 238 235 191 238 235 191 238 235 191 238 235 191 238 235 191 224 228 180 224 228 180 156 159 126 224 228 180 156 159 126 156 159 126 224 228 180 156 159 126 146 150 119 146 150 119 209 215 171 209 215 171 146 150 119 146 150 119 146 150 119 146 150 119 209 215 171 209 215 171 209 215 171 209 215 171 146 150 119 146 150 119 146 150 119 209 215 171 132 142 105 132 142 105 132 142 105 132 142 105 132 142 105 116 137 99 116 137 99 116 137 99 102 133 97 102 133 97 102 133 97 102 133 97 102 133 97 120 145 115 120 145 115 120 145 115 151 169 177 151 169 177 151 169 177 151 169 177 151 169 177 151 169 177 151 169 177 151 169 177 151 169 177 216 242 254 151 169 177 151 169 177 216 242 254 216 242 254 151 169 177 216 242 254 197 235 255 151 169 177 216 242 254 137 164 178 137 164 178 137 164 178 137 164 178 137 164 178 197 235 255 216 242 254 137 164 178 151 169 177 216 242 254 216 242 254 151 169 177 216 242 254 137 164 178 137 164 178 197 235 255 137 164 178 137 164 178 137 164 178 197 235 255 197 235 255 197 235 255 197 235 255 197 235 255 184 227 255 128 158 178 184 227 255 128 158 178 184 227 255 184 227 255 184 227 255 172 218 250 120 152 175 120 152 175 172 218 250 172 218 250 160 210 247 112 147 172 112 147 172 160 210 247 160 210 247 160 210 247 160 210 247 160 210 247 105 140 168 105 140 168 105 140 168 150 201 240 150 201 240 150 201 240 150 201 240 150 201 240 150 201 240 150 201 240 150 201 240

172 208 165 120 145 115 151 169 177 172 208 165 120 145 115 120 145 115 172 208 165 172 208 165 120 145 115 120 145 115 120 145 115 120 145 115 120 145 115 172 208 165 172 208 165 172 208 165 120 145 115 120 145 115 151 169 177 151 169 177 120 145 115 151 169 177 216 242 254 216 242 254 151 169 177 172 208 165 172 208 165 151 169 177 151 169 177 151 169 177 151 169 177 151 169 177 137 164 178 137 164 178 137 164 178 151 169 177 151 169 177 151 169 177 137 164 178 137 164 178 137 164 178 137 164 178 137 164 178 137 164 178 197 235 255 137 164 178 137 164 178 137 164 178 137 164 178 137 164 178 137 164 178 137 164 178 197 235 255 137 164 178 137 164 178 137 164 178 137 164 178 137 164 178 137 164 178 128 158 178 184 227 255 128 158 178 128 158 178 128 158 178 128 158 178 184 227 255 197 235 255 197 235 255 137 164 178 137 164 178 137 164 178 137 164 178 137 164 178 197 235 255 197 235 255 216 242 254 216 242 254 216 242 254 172 208 165 172 208 165 172 208 165 172 208 165 120 145 115 172 208 165 172 208 165 120 145 115 172 208 165 172 208 165 147 191 139 147 191 139 147 191 139 147 191 139 147 191 139 147 191 139 147 191 139 167 197 142 116 137 99 116 137 99 116 137 99 116 137 99 167 197 142 167 197 142 189 204 150 189 204 150 189 204 150 209 215 171 209 215 171 146 150 119 209 215 171 209 215 171 146 150 119 156 159 126 224 228 180 156 159 126 156 159 126 224 228 180 224 228 180 156 159 126 156 159 126 224 228 180 156 159 126 156 159 126 156 159 126 224 228 180 224 228 180 156 159 126 224 228 180 224 228 180 224 228 180 224 228 180 224 228 180 224 228 180 224 228 180 224 228 180 224 228 180 224 228 180 224 228 180 224 228 180 238 235 191 238 235 191 156 159 126 238 235 191 238 235 191 156 159 126 156 159 126 156 159 126 224 228 180 224 228 180 224 228 180 156 159 126 156 159 126 146 150 119 209 215 171 146 150 119 209 215 171 146 150 119 209 215 171 146 150 119 209 215 171 209 215 171 209 215 171 146 150 119 146 150 119 146 150 119 146 150 119 146 150 119 209 215 171 132 142 105 132 142 105 132 142 105 132 142 105 116 137 99 116 137 99 116 137 99 116 137 99 102 133 97 102 133 97 102 133 97 120 145 115 120 145 115 120 145 115 120 145 115 120 145 115 120 145 115 151 169 177 151 169 177 151 169 177 151 169 177 151 169 177 137 164 178 137 164 178 137 164 178 137 164 178 137 164 178 137 164 178 137 164 178 216 242 254 151 169 177 216 242 254 151 169 177 197 235 255 137 164 178 137 164 178 137 164 178 197 235 255 137 164 178 137 164 178 197 235 255 137 164 178 137 164 178 216 242 254 137 164 178 151 169 177 151 169 177 137 164 178 137 164 178 137 164 178 137 164 178 137 164 178 197 235 255 197 235 255 197 235 255 137 164 178 137 164 178 137 164 178 197 235 255 197 235 255 184 227 255 184 227 255 128 158 178 184 227 255 128 158 178 120 152 175 120 152 175 120 152 175 120 152 175 172 218 250 120 152 175 112 147 172 112 147 172 160 210 247 160 210 247 160 210 247 160 210 247 112 147 172 112 147 172 160 210 247 105 140 168 105 140 168 150 201 240 105 140 168 105 140 168 150 201 240 150 201 240 150 201 240 105 140 168 105 140 168

172 208 165 151 169 177 151 169 177 151 169 177 151 169 177 172 208 165 172 208 165 120 145 115 120 145 115 120 145 115 120 145 115 120 145 115 120 145 115 172 208 165 172 208 165 172 208 165 120 145 115 172 208 165 172 208 165 151 169 177 151 169 177 172 208 165 172 208 165 172 208 165 172 208 165 172 208 165 172 208 165 151 169 177 151 169 177 151 169 177 151 169 177 137 164 178 137 164 178 137 164 178 197 235 255 197 235 255 216 242 254 137 164 178 137 164 178 137 164 178 137 164 178 137 164 178 137 164 178 137 164 178 137 164 178 137 164 178 197 235 255 137 164 178 197 235 255 137 164 178 137 164 178 197 235 255 197 235 255 137 164 178 137 164 178 137 164 178 137 164 178 137 164 178 128 158 178 128 158 178 128 158 178 128 158 178 128 158 178 128 158 178 128 158 178 184 227 255 197 235 255 197 235 255 137 164 178 137 164 178 197 235 255 137 164 178 197 235 255 197 235 255 216 242 254 216 242 254 216 242 254 216 242 254 172 208 165 172 208 165 172 208 165 172 208 165 172 208 165 172 208 165 172 208 165 172 208 165 147 191 139 147 191 139 147 191 139 147 191 139 102 133 97 147 191 139 147 191 139 102 133 97 147 191 139 167 197 142 167 197 142 116 137 99 167 197 142 167 197 142 167 197 142 167 197 142 167 197 142 189 204 150 189 204 150 189 204 150 209 215 171 209 215 171 209 215 171 209 215 171 209 215 171 209 215 171 156 159 126 156 159 126 156 159 126 156 159 126 224 228 180 224 228 180 224 228 180 224 228 180 156 159 126 224 228 180 224 228 180 224 228 180 224 228 180 224 228 180 224 228 180 224 228 180 224 228 180 224 228 180 224 228 180 224 228 180 224 228 180 238 235 191 238 235 191 238 235 191 238 235 191 238 235 191 238 235 191 238 235 191 156 159 126 238 235 191 238 235 191 156 159 126 156 159 126 156 159 126 224 228 180 224 228 180 224 228 180 156 159 126 156 159 126 146 150 119 146 150 119 146 150 119 146 150 119 146 150 119 209 215 171 146 150 119 209 215 171 146 150 119 209 215 171 146 150 119 146 150 119 146 150 119 132 142 105 132 142 105 132 142 105 132 142 105 132 142 105 132 142 105 132 142 105 116 137 99 116 137 99 116 137 99 116 137 99 102 133 97 102 133 97 102 133 97 102 133 97 120 145 115 120 145 115 120 145 115 120 145 115 120 145 115 151 169 177 151 169 177 151 169 177 151 169 177 137 164 178 216 242 254 197 235 255 197 235 255 137 164 178 197 235 255 137 164 178 197 235 255 137 164 178 137 164 178 216 242 254 151 169 177 137 164 178 137 164 178 216 242 254 137 164 178 137 164 178 137 164 178 197 235 255 197 235 255 137 164 178 197 235 255 216 242 254 216 242 254 216 242 254 137 164 178 216 242 254 197 235 255 137 164 178 197 235 255 197 235 255 197 235 255 197 235 255 137 164 178 197 235 255 197 235 255 137 164 178 197 235 255 197 235 255 197 235 255 184 227 255 128 158 178 128 158 178 120 152 175 120 152 175 172 218 250 172 218 250 172 218 250 172 218 250 172 218 250 120 152 175 160 210 247 160 210 247 160 210 247 160 210 247 112 147 172 160 210 247 160 210 247 112 147 172 160 210 247 150 201 240 150 201 240 105 140 168 150 201 240 150 201 240 150 201 240 150 201 240 150 201 240 150 201 240

216 242 254 151 169 177 151 169 177 151 169 177 216 242 254 216 242 254 172 208 165 120 145 115 172 208 165 172 208 165 172 208 165 120 145 115 172 208 165 120 145 115 172 208 165 172 208 165 172 208 165 172 208 165 120 145 115 151 169 177 216 242 254 216 242 254 172 208 165 120 145 115 120 145 115 151 169 177 151 169 177 151 169 177 151 169 177 151 169 177 151 169 177 137 164 178 137 164 178 137 164 178 137 164 178 197 235 255 197 235 255 137 164 178 137 164 178 137 164 178 137 164 178 197 235 255 137 164 178 137 164 178 137 164 178 137 164 178 137 164 178 137 164 178 197 235 255 137 164 178 137 164 178 137 164 178 137 164 178 137 164 178 137 164 178 128 158 178 128 158 178 128 158 178 128 158 178 128 158 178 128 158 178 128 158 178 184 227 255 128 158 178 128 158 178 184 227 255 184 227 255 197 235 255 137 164 178 197 235 255 137 164 178 137 164 178 197 235 255 197 235 255 197 235 255 216 242 254 216 242 254 216 242 254 216 242 254 120 145 115 120 145 115 172 208 165 172 208 165 172 208 165 120 145 115 172 208 165 172 208 165 120 145 115 120 145 115 102 133 97 147 191 139 147 191 139 147 191 139 102 133 97 102 133 97 147 191 139 167 197 142 167 197 142 167 197 142 167 197 142 167 197 142 167 197 142 167 197 142 189 204 150 189 204 150 189 204 150 209 215 171 209 215 171 209 215 171 209 215 171 209 215 171 224 228 180 209 215 171 156 159 126 224 228 180 224 228 180 224 228 180 156 159 126 156 159 126 156 159 126 156 159 126 156 159 126 156 159 126 224 228 180 224 228 180 224 228 180 224 228 180 224 228 180 238 235 191 238 235 191 238 235 191 238 235 191 238 235 191 238 235 191 238 235 191 238 235 191 238 235 191 238 235 191 238 235 191 166 164 133 156 159 126 238 235 191 238 235 191 156 159 126 224 228 180 224 228 180 224 228 180 156 159 126 156 159 126 156 159 126 156 159 126 146 150 119 209 215 171 209 215 171 146 150 119 146 150 119 146 150 119 146 150 119 209 215 171 209 215 171 146 150 119 146 150 119 209 215 171 146 150 119 209 215 171 209 215 171 189 204 150 189 204 150 132 142 105 132 142 105 132 142 105 116 137 99 116 137 99 116 137 99 102 133 97 102 133 97 102 133 97 102 133 97 120 145 115 120 145 115 172 208 165 120 145 115 120 145 115 151 169 177 151 169 177 151 169 177 151 169 177 151 169 177 216 242 254 197 235 255 137 164 178 197 235 255 137 164 178 197 235 255 137 164 178 137 164 178 197 235 255 197 235 255 197 235 255 216 242 254 137 164 178 197 235 255 137 164 178 137 164 178 197 235 255 137 164 178 197 235 255 137 164 178 137 164 178 197 235 255 197 235 255 216 242 254 137 164 178 137 164 178 216 242 254 216 242 254 216 242 254 197 235 255 197 235 255 197 235 255 197 235 255 197 235 255 197 235 255 197 235 255 197 235 255 197 235 255 197 235 255 137 164 178 137 164 178 128 158 178 128 158 178 128 158 178 120 152 175 120 152 175 172 218 250 172 218 250 172 218 250 120 152 175 120 152 175 172 218 250 160 210 247 112 147 172 160 210 247 112 147 172 160 210 247 112 147 172 112 147 172 105 140 168 105 140 168 105 140 168 150 201 240 150 201 240 150 201 240 150 201 240 150 201 240 150 201 240 150 201 240

216 242 254 151 169 177 151 169 177 151 169 177 151 169 177 151 169 177 216 242 254 151 169 177 172 208 165 172 208 165 172 208 165 172 208 165 172 208 165 172 208 165 172 208 165 172 208 165 172 208 165 120 145 115 151 169 177 151 169 177 216 242 254 216 242 254 172 208 165 172 208 165 172 208 165 151 169 177 151 169 177 151 169 177 216 242 254 151 169 177 151 169 177 137 164 178 137 164 178 137 164 178 197 235 255 197 235 255 137 164 178 137 164 178 137 164 178 137 164 178 197 235 255 137 164 178 137 164 178 137 164 178 137 164 178 137 164 178 137 164 178 137 164 178 197 235 255 137 164 178 137 164 178 137 164 178 137 164 178 128 158 178 128 158 178 128 158 178 128 158 178 128 158 178 128 158 178 128 158 178 184 227 255 128 158 178 128 158 178 128 158 178 128 158 178 184 227 255 184 227 255 184 227 255 197 235 255 128 158 178 137 164 178 197 235 255 137 164 178 197 235 255 197 235 255 216 242 254 216 242 254 216 242 254 216 242 254 172 208 165 172 208 165 172 208 165 172 208 165 172 208 165 172 208 165 120 145 115 120 145 115 120 145 115 120 145 115 147 191 139 147 191 139 147 191 139 147 191 139 147 191 139 147 191 139 147 191 139 147 191 139 116 137 99 167 197 142 167 197 142 167 197 142 167 197 142 189 204 150 189 204 150 189 204 150 189 204 150 209 215 171 209 215 171 209 215 171 146 150 119 209 215 171 146 150 119 224 228 180 209 215 171 146 150 119 224 228 180 224 228 180 224 228 180 224 228 180 156 159 126 156 159 126 224 228 180 224 228 180 224 228 180 224 228 180 224 228 180 238 235 191 224 228 180 238 235 191 238 235 191 238 235 191 238 235 191 238 235 191 238 235 191 238 235 191 238 235 191 238 235 191 238 235 191 166 164 133 238 235 191 238 235 191 238 235 191 238 235 191 166 164 133 224 228 180 156 159 126 156 159 126 224 228 180 156 159 126 156 159 126 156 159 126 146 150 119 209 215 171 146 150 119 146 150 119 146 150 119 146 150 119 209 215 171 146 150 119 146 150 119 146 150 119 146 150 119 209 215 171 209 215 171 209 215 171 209 215 171 209 215 171 209 215 171 189 204 150 132 142 105 132 142 105 116 137 99 116 137 99 116 137 99 116 137 99 102 133 97 102 133 97 102 133 97 120 145 115 120 145 115 172 208 165 120 145 115 151 169 177 151 169 177 151 169 177 151 169 177 216 242 254 151 169 177 216 242 254 137 164 178 137 164 178 137 164 178 137 164 178 137 164 178 137 164 178 197 235 255 137 164 178 197 235 255 216 242 254 216 242 254 216 242 254 197 235 255 137 164 178 137 164 178 197 235 255 137 164 178 197 235 255 197 235 255 197 235 255 197 235 255 197 235 255 197 235 255 137 164 178 197 235 255 216 242 254 216 242 254 216 242 254 137 164 178 197 235 255 197 235 255 216 242 254 197 235 255 216 242 254 216 242 254 216 242 254 197 235 255 197 235 255 197 235 255 137 164 178 128 158 178 128 158 178 184 227 255 120 152 175 172 218 250 172 218 250 120 152 175 172 218 250 120 152 175 120 152 175 172 218 250 120 152 175 112 147 172 112 147 172 112 147 172 112 147 172 112 147 172 112 147 172 105 140 168 150 201 240 150 201 240 160 210 247 160 210 247 150 201 240 150 201 240 160 210 247 160 210 247 150 201 240

216 242 254 151 169 177 151 169 177 151 169 177 151 169 177 151 169 177 151 169 177 151 169 177 216 242 254 172 208 165 120 145 115 120 145 115 172 208 165 172 208 165 172 208 165 172 208 165 172 208 165 120 145 115 151 169 177 151 169 177 151 169 177 151 169 177 151 169 177 172 208 165 151 169 177 151 169 177 151 169 177 151 169 177 151 169 177 151 169 177 137 164 178 137 164 178 137 164 178 137 164 178 197 235 255 137 164 178 137 164 178 137 164 178 137 164 178 137 164 178 137 164 178 137 164 178 137 164 178 137 164 178 137 164 178 137 164 178 128 158 178 197 235 255 197 235 255 137 164 178 137 164 178 137 164 178 128 158 178 128 158 178 128 158 178 128 158 178 128 158 178 128 158 178 128 158 178 128 158 178 184 227 255 128 158 178 128 158 178 128 158 178 184 227 255 184 227 255 184 227 255 128 158 178 128 158 178 128 158 178 184 227 255 197 235 255 197 235 255 197 235 255 197 235 255 216 242 254 216 242 254 216 242 254 216 242 254 151 169 177 120 145 115 120 145 115 172 208 165 120 145 115 172 208 165 120 145 115 172 208 165 172 208 165 172 208 165 147 191 139 120 145 115 147 191 139 102 133 97 102 133 97 102 133 97 147 191 139 147 191 139 147 191 139 167 197 142 167 197 142 167 197 142 167 197 142 167 197 142 189 204 150 189 204 150 189 204 150 189 204 150 209 215 171 209 215 171 146 150 119 209 215 171 209 215 171 224 228 180 146 150 119 146 150 119 224 228 180 224 228 180 156 159 126 156 159 126 156 159 126 156 159 126 224 228 180 224 228 180 224 228 180 224 228 180 224 228 180 224 228 180 238 235 191 238 235 191 166 164 133 166 164 133 238 235 191 238 235 191 238 235 191 238 235 191 238 235 191 238 235 191 166 164 133 166 164 133 238 235 191 238 235 191 166 164 133 238 235 191 166 164 133 156 159 126 156 159 126 224 228 180 224 228 180 156 159 126 156 159 126 156 159 126 224 228 180 224 228 180 146 150 119 209 215 171 209 215 171 209 215 171 209 215 171 146 150 119 209 215 171 209 215 171 209 215 171 209 215 171 209 215 171 146 150 119 146 150 119 132 142 105 132 142 105 132 142 105 132 142 105 116 137 99 116 137 99 116 137 99 116 137 99 116 137 99 102 133 97 102 133 97 102 133 97 102 133 97 120 145 115 120 145 115 120 145 115 151 169 177 151 169 177 151 169 177 151 169 177 151 169 177 151 169 177 151 169 177 137 164 178 197 235 255 197 235 255 137 164 178 137 164 178 137 164 178 137 164 178 137 164 178 197 235 255 197 235 255 216 242 254 137 164 178 137 164 178 137 164 178 137 164 178 137 164 178 197 235 255 197 235 255 197 235 255 197 235 255 137 164 178 197 235 255 137 164 178 137 164 178 197 235 255 197 235 255 216 242 254 137 164 178 151 169 177 216 242 254 216 242 254 216 242 254 151 169 177 216 242 254 137 164 178 137 164 178 137 164 178 137 164 178 137 164 178 137 164 178 128 158 178 128 158 178 128 158 178 128 158 178 184 227 255 120 152 175 120 152 175 172 218 250 120 152 175 120 152 175 172 218 250 112 147 172 112 147 172 112 147 172 112 147 172 112 147 172 112 147 172 112 147 172 160 210 247 105 140 168 160 210 247 160 210 247 160 210 247 160 210 247 160 210 247 160 210 247 160 210 247 160 210 247

216 242 254 151 169 177 151 169 177 137 164 178 137 164 178 216 242 254 216 242 254 216 242 254 216 242 254 151 169 177 151 169 177 151 169 177 172 208 165 120 145 115 120 145 115 120 145 115 120 145 115 120 145 115 120 145 115 151 169 177 216 242 254 151 169 177 216 242 254 216 242 254 151 169 177 151 169 177 151 169 177 151 169 177 151 169 177 137 164 178 137 164 178 137 164 178 137 164 178 137 164 178 137 164 178 137 164 178 137 164 178 137 164 178 137 164 178 137 164 178 128 158 178 128 158 178 128 158 178 128 158 178 128 158 178 128 158 178 128 158 178 184 227 255 137 164 178 128 158 178 128 158 178 128 158 178 128 158 178 128 158 178 128 158 178 128 158 178 120 152 175 128 158 178 184 227 255 128 158 178 120 152 175 128 158 178 184 227 255 120 152 175 120 152 175 184 227 255 184 227 255 184 227 255 128 158 178 128 158 178 184 227 255 197 235 255 197 235 255 197 235 255 197 235 255 216 242 254 216 242 254 216 242 254 216 242 254 216 242 254 216 242 254 151 169 177 172 208 165 120 145 115 120 145 115 120 145 115 172 208 165 120 145 115 172 208 165 120 145 115 147 191 139 147 191 139 147 191 139 147 191 139 147 191 139 147 191 139 147 191 139 167 197 142 167 197 142 167 197 142 167 197 142 167 197 142 167 197 142 167 197 142 189 204 150 189 204 150 189 204 150 209 215 171 209 215 171 209 215 171 209 215 171 209 215 171 209 215 171 146 150 119 146 150 119 209 215 171 146 150 119 156 159 126 146 150 119 224 228 180 224 228 180 224 228 180 224 228 180 224 228 180 224 228 180 224 228 180 238 235 191 238 235 191 238 235 191 238 235 191 238 235 191 238 235 191 238 235 191 238 235 191 238 235 191 238 235 191 238 235 191 166 164 133 166 164 133 238 235 191 238 235 191 238 235 191 238 235 191 238 235 191 238 235 191 238 235 191 238 235 191 156 159 126 156 159 126 156 159 126 224 228 180 224 228 180 224 228 180 224 228 180 209 215 171 146 150 119 209 215 171 209 215 171 209 215 171 209 215 171 209 215 171 209 215 171 209 215 171 146 150 119 146 150 119 146 150 119 132 142 105 132 142 105 132 142 105 132 142 105 116 137 99 116 137 99 167 197 142 116 137 99 116 137 99 102 133 97 102 133 97 102 133 97 102 133 97 120 145 115 172 208 165 120 145 115 151 169 177 216 242 254 151 169 177 151 169 177 216 242 254 151 169 177 151 169 177 137 164 178 137 164 178 137 164 178 137 164 178 197 235 255 137 164 178 137 164 178 197 235 255 197 235 255 216 242 254 137 164 178 137 164 178 137 164 178 137 164 178 197 235 255 137 164 178 197 235 255 197 235 255 137 164 178 137 164 178 137 164 178 137 164 178 137 164 178 137 164 178 197 235 255 137 164 178 137 164 178 137 164 178 197 235 255 216 242 254 137 164 178 151 169 177 216 242 254 216 242 254 137 164 178 137 164 178 137 164 178 137 164 178 137 164 178 128 158 178 128 158 178 184 227 255 128 158 178 128 158 178 120 152 175 184 227 255 172 218 250 184 227 255 120 152 175 120 152 175 120 152 175 120 152 175 112 147 172 112 147 172 112 147 172 112 147 172 160 210 247 160 210 247 160 210 247 160 210 247 160 210 247 160 210 247 160 210 247 112 147 172 160 210 247 160 210 247 160 210 247 160 210 247

197 235 255 137 164 178 137 164 178 137 164 178 197 235 255 216 242 254 216 242 254 151 169 177 151 169 177 151 169 177 216 242 254 216 242 254 216 242 254 151 169 177 151 169 177 120 145 115 120 145 115 120 145 115 120 145 115 151 169 177 151 169 177 151 169 177 216 242 254 151 169 177 151 169 177 151 169 177 151 169 177 137 164 178 137 164 178 137 164 178 137 164 178 137 164 178 197 235 255 137 164 178 137 164 178 137 164 178 137 164 178 137 164 178 128 158 178 128 158 178 128 158 178 128 158 178 128 158 178 128 158 178 128 158 178 128 158 178 128 158 178 128 158 178 128 158 178 128 158 178 128 158 178 128 158 178 128 158 178 128 158 178 128 158 178 120 152 175 120 152 175 120 152 175 120 152 175 120 152 175 120 152 175 120 152 175 120 152 175 120 152 175 120 152 175 184 227 255 184 227 255 184 227 255 184 227 255 184 227 255 184 227 255 197 235 255 197 235 255 197 235 255 197 235 255 137 164 178 216 242 254 216 242 254 216 242 254 216 242 254 216 242 254 216 242 254 172 208 165 172 208 165 172 208 165 120 145 115 172 208 165 120 145 115 172 208 165 120 145 115 172 208 165 120 145 115 147 191 139 147 191 139 147 191 139 147 191 139 167 197 142 167 197 142 167 197 142 167 197 142 167 197 142 167 197 142 167 197 142 189 204 150 189 204 150 189 204 150 189 204 150 189 204 150 209 215 171 146 150 119 209 215 171 209 215 171 209 215 171 146 150 119 146 150 119 146 150 119 146 150 119 146 150 119 146 150 119 224 228 180 224 228 180 224 228 180 224 228 180 224 228 180 224 228 180 224 228 180 238 235 191 238 235 191 238 235 191 238 235 191 238 235 191 238 235 191 238 235 191 166 164 133 238 235 191 166 164 133 166 164 133 166 164 133 238 235 191 238 235 191 238 235 191 166 164 133 166 164 133 166 164 133 238 235 191 166 164 133 166 164 133 156 159 126 224 228 180 224 228 180 224 228 180 224 228 180 224 228 180 224 228 180 146 150 119 146 150 119 209 215 171 146 150 119 209 215 171 146 150 119 209 215 171 209 215 171 146 150 119 146 150 119 209 215 171 146 150 119 132 142 105 132 142 105 132 142 105 132 142 105 116 137 99 116 137 99 116 137 99 116 137 99 116 137 99 102 133 97 102 133 97 102 133 97 120 145 115 120 145 115 120 145 115 120 145 115 120 145 115 151 169 177 151 169 177 216 242 254 151 169 177 151 169 177 137 164 178 137 164 178 197 235 255 137 164 178 137 164 178 137 164 178 137 164 178 197 235 255 197 235 255 197 235 255 216 242 254 216 242 254 197 235 255 137 164 178 137 164 178 137 164 178 137 164 178 197 235 255 137 164 178 137 164 178 137 164 178 137 164 178 137 164 178 197 235 255 197 235 255 137 164 178 137 164 178 197 235 255 137 164 178 137 164 178 137 164 178 137 164 178 137 164 178 137 164 178 137 164 178 137 164 178 137 164 178 137 164 178 137 164 178 137 164 178 137 164 178 184 227 255 128 158 178 128 158 178 184 227 255 184 227 255 172 218 250 184 227 255 172 218 250 120 152 175 120 152 175 120 152 175 120 152 175 112 147 172 160 210 247 112 147 172 160 210 247 160 210 247 160 210 247 160 210 247 160 210 247 160 210 247 160 210 247 160 210 247 160 210 247 160 210 247 160 210 247 160 210 247 160 210 247

216 242 254 137 164 178 137 164 178 137 164 178 137 164 178 137 164 178 137 164 178 137 164 178 151 169 177 216 242 254 216 242 254 151 169 177 151 169 177 216 242 254 216 242 254 151 169 177 172 208 165 151 169 177 120 145 115 151 169 177 151 169 177 151 169 177 151 169 177 151 169 177 216 242 254 151 169 177 137 164 178 137 164 178 137 164 178 137 164 178 137 164 178 137 164 178 137 164 178 137 164 178 197 235 255 137 164 178 197 235 255 197 235 255 197 235 255 128 158 178 128 158 178 128 158 178 128 158 178 128 158 178 128 158 178 128 158 178 128 158 178 184 227 255 128 158 178 128 158 178 128 158 178 184 227 255 128 158 178 120 152 175 120 152 175 120 152 175 120 152 175 120 152 175 172 218 250 120 152 175 120 152 175 120 152 175 120 152 175 120 152 175 172 218 250 172 218 250 184 227 255 184 227 255 184 227 255 184 227 255 184 227 255 197 235 255 197 235 255 197 235 255 197 235 255 197 235 255 216 242 254 216 242 254 216 242 254 216 242 254 216 242 254 151 169 177 216 242 254 151 169 177 120 145 115 120 145 115 172 208 165 172 208 165 172 208 165 172 208 165 172 208 165 172 208 165 147 191 139 147 191 139 147 191 139 147 191 139 167 197 142 167 197 142 167 197 142 167 197 142 167 197 142 167 197 142 189 204 150 189 204 150 189 204 150 189 204 150 189 204 150 189 204 150 209 215 171 132 142 105 146 150 119 209 215 171 209 215 171 146 150 119 146 150 119 146 150 119 209 215 171 209 215 171 209 215 171 224 228 180 224 228 180 224 228 180 224 228 180 224 228 180 224 228 180 238 235 191 238 235 191 238 235 191 238 235 191 238 235 191 238 235 191 238 235 191 238 235 191 238 235 191 166 164 133 238 235 191 166 164 133 238 235 191 166 164 133 166 164 133 166 164 133 166 164 133 166 164 133 166 164 133 238 235 191 166 164 133 156 159 126 156 159 126 224 228 180 156 159 126 224 228 180 224 228 180 224 228 180 156 159 126 224 228 180 146 150 119 209 215 171 146 150 119 209 215 171 146 150 119 209 215 171 209 215 171 146 150 119 146 150 119 209 215 171 132 142 105 132 142 105 132 142 105 132 142 105 132 142 105 116 137 99 167 197 142 167 197 142 116 137 99 102 133 97 102 133 97 102 133 97 102 133 97 120 145 115 120 145 115 120 145 115 120 145 115 120 145 115 151 169 177 216 242 254 151 169 177 216 242 254 151 169 177 137 164 178 137 164 178 197 235 255 137 164 178 137 164 178 137 164 178 197 235 255 197 235 255 197 235 255 197 235 255 216 242 254 216 242 254 137 164 178 137 164 178 197 235 255 137 164 178 137 164 178 137 164 178 137 164 178 137 164 178 137 164 178 137 164 178 197 235 255 197 235 255 137 164 178 137 164 178 197 235 255 197 235 255 137 164 178 197 235 255 137 164 178 197 235 255 137 164 178 197 235 255 137 164 178 137 164 178 197 235 255 137 164 178 137 164 178 137 164 178 197 235 255 197 235 255 197 235 255 184 227 255 184 227 255 184 227 255 184 227 255 184 227 255 184 227 255 184 227 255 172 218 250 120 152 175 120 152 175 112 147 172 160 210 247 160 210 247 160 210 247 160 210 247 160 210 247 160 210 247 160 210 247 160 210 247 160 210 247 160 210 247 160 210 247 160 210 247 160 210 247 160 210 247 160 210 247

197 235 255 137 164 178 137 164 178 197 235 255 137 164 178 137 164 178 137 164 178 197 235 255 197 235 255 137 164 178 216 242 254 151 169 177 151 169 177 216 242 254 151 169 177 151 169 177 216 242 254 151 169 177 151 169 177 151 169 177 151 169 177 151 169 177 151 169 177 151 169 177 151 169 177 151 169 177 151 169 177 137 164 178 197 235 255 197 235 255 137 164 178 197 235 255 197 235 255 197 235 255 197 235 255 137 164 178 197 235 255 137 164 178 137 164 178 128 158 178 128 158 178 128 158 178 128 158 178 128 158 178 128 158 178 128 158 178 128 158 178 128 158 178 128 158 178 128 158 178 128 158 178 184 227 255 120 152 175 120 152 175 120 152 175 120 152 175 120 152 175 120 152 175 120 152 175 120 152 175 172 218 250 120 152 175 172 218 250 172 218 250 172 218 250 172 218 250 184 227 255 184 227 255 184 227 255 184 227 255 184 227 255 197 235 255 197 235 255 197 235 255 197 235 255 197 235 255 216 242 254 216 242 254 216 242 254 216 242 254 151 169 177 216 242 254 216 242 254 151 169 177 172 208 165 172 208 165 172 208 165 172 208 165 172 208 165 172 208 165 172 208 165 147 191 139 147 191 139 147 191 139 147 191 139 167 197 142 167 197 142 116 137 99 167 197 142 167 197 142 167 197 142 167 197 142 189 204 150 189 204 150 189 204 150 189 204 150 189 204 150 189 204 150 189 204 150 132 142 105 132 142 105 209 215 171 146 150 119 146 150 119 146 150 119 146 150 119 209 215 171 209 215 171 224 228 180 224 228 180 224 228 180 156 159 126 156 159 126 156 159 126 224 228 180 238 235 191 238 235 191 238 235 191 238 235 191 238 235 191 166 164 133 238 235 191 238 235 191 166 164 133 238 235 191 166 164 133 166 164 133 166 164 133 166 164 133 166 164 133 166 164 133 166 164 133 166 164 133 166 164 133 238 235 191 156 159 126 238 235 191 224 228 180 156 159 126 156 159 126 224 228 180 224 228 180 224 228 180 156 159 126 224 228 180 156 159 126 209 215 171 146 150 119 209 215 171 209 215 171 209 215 171 146 150 119 146 150 119 146 150 119 132 142 105 132 142 105 132 142 105 132 142 105 132 142 105 116 137 99 116 137 99 116 137 99 116 137 99 116 137 99 102 133 97 102 133 97 102 133 97 102 133 97 120 145 115 120 145 115 120 145 115 120 145 115 120 145 115 151 169 177 216 242 254 151 169 177 216 242 254 216 242 254 137 164 178 197 235 255 137 164 178 137 164 178 137 164 178 197 235 255 197 235 255 137 164 178 197 235 255 197 235 255 137 164 178 137 164 178 137 164 178 137 164 178 197 235 255 137 164 178 197 235 255 137 164 178 137 164 178 137 164 178 197 235 255 137 164 178 197 235 255 137 164 178 137 164 178 137 164 178 137 164 178 137 164 178 137 164 178 137 164 178 197 235 255 197 235 255 197 235 255 197 235 255 197 235 255 197 235 255 137 164 178 137 164 178 137 164 178 137 164 178 137 164 178 137 164 178 128 158 178 128 158 178 128 158 178 184 227 255 184 227 255 128 158 178 120 152 175 128 158 178 120 152 175 120 152 175 120 152 175 172 218 250 172 218 250 160 210 247 160 210 247 172 218 250 172 218 250 160 210 247 160 210 247 160 210 247 160 210 247 160 210 247 160 210 247 160 210 247 160 210 247 160 210 247 160 210 247

197 235 255 137 164 178 137 164 178 137 164 178 137 164 178 137 164 178 137 164 178 197 235 255 137 164 178 137 164 178 197 235 255 216 242 254 216 242 254 216 242 254 151 169 177 151 169 177 151 169 177 151 169 177 151 169 177 151 169 177 151 169 177 137 164 178 151 169 177 137 164 178 137 164 178 137 164 178 151 169 177 137 164 178 197 235 255 197 235 255 197 235 255 197 235 255 197 235 255 197 235 255 197 235 255 137 164 178 137 164 178 137 164 178 137 164 178 128 158 178 128 158 178 128 158 178 128 158 178 128 158 178 120 152 175 128 158 178 184 227 255 120 152 175 120 152 175 120 152 175 184 227 255 120 152 175 120 152 175 120 152 175 120 152 175 120 152 175 120 152 175 120 152 175 172 218 250 172 218 250 172 218 250 172 218 250 172 218 250 172 218 250 172 218 250 172 218 250 184 227 255 128 158 178 184 227 255 184 227 255 184 227 255 197 235 255 197 235 255 197 235 255 197 235 255 216 242 254 216 242 254 216 242 254 216 242 254 216 242 254 216 242 254 216 242 254 216 242 254 172 208 165 172 208 165 172 208 165 172 208 165 172 208 165 172 208 165 120 145 115 172 208 165 172 208 165 147 191 139 147 191 139 147 191 139 102 133 97 167 197 142 167 197 142 167 197 142 116 137 99 167 197 142 167 197 142 189 204 150 189 204 150 189 204 150 189 204 150 189 204 150 209 215 171 209 215 171 132 142 105 132 142 105 132 142 105 132 142 105 132 142 105 146 150 119 146 150 119 209 215 171 209 215 171 224 228 180 224 228 180 224 228 180 156 159 126 156 159 126 224 228 180 224 228 180 238 235 191 238 235 191 238 235 191 238 235 191 238 235 191 238 235 191 238 235 191 238 235 191 238 235 191 238 235 191 166 164 133 166 164 133 238 235 191 238 235 191 166 164 133 166 164 133 238 235 191 238 235 191 166 164 133 238 235 191 238 235 191 238 235 191 156 159 126 156 159 126 156 159 126 224 228 180 224 228 180 156 159 126 156 159 126 224 228 180 156 159 126 156 159 126 146 150 119 209 215 171 209 215 171 209 215 171 209 215 171 146 150 119 146 150 119 132 142 105 189 204 150 132 142 105 132 142 105 132 142 105 116 137 99 167 197 142 116 137 99 116 137 99 116 137 99 102 133 97 102 133 97 102 133 97 102 133 97 147 191 139 120 145 115 120 145 115 172 208 165 172 208 165 151 169 177 151 169 177 151 169 177 216 242 254 151 169 177 151 169 177 216 242 254 197 235 255 197 235 255 137 164 178 197 235 255 137 164 178 137 164 178 197 235 255 197 235 255 197 235 255 137 164 178 137 164 178 137 164 178 137 164 178 137 164 178 137 164 178 137 164 178 137 164 178 128 158 178 137 164 178 128 158 178 137 164 178 137 164 178 137 164 178 137 164 178 137 164 178 137 164 178 137 164 178 137 164 178 197 235 255 137 164 178 197 235 255 197 235 255 216 242 254 197 235 255 197 235 255 137 164 178 197 235 255 137 164 178 137 164 178 137 164 178 128 158 178 184 227 255 184 227 255 184 227 255 128 158 178 128 158 178 184 227 255 184 227 255 184 227 255 172 218 250 172 218 250 172 218 250 120 152 175 120 152 175 172 218 250 172 218 250 172 218 250 112 147 172 160 210 247 160 210 247 160 210 247 160 210 247 160 210 247 160 210 247 172 218 250 160 210 247 172 218 250

184 227 255 137 164 178 137 164 178 137 164 178 137 164 178 137 164 178 137 164 178 197 235 255 137 164 178 137 164 178 197 235 255 137 164 178 151 169 177 151 169 177 151 169 177 151 169 177 151 169 177 151 169 177 151 169 177 151 169 177 137 164 178 137 164 178 137 164 178 137 164 178 137 164 178 137 164 178 137 164 178 137 164 178 137 164 178 137 164 178 137 164 178 137 164 178 197 235 255 197 235 255 137 164 178 137 164 178 137 164 178 137 164 178 128 158 178 128 158 178 128 158 178 184 227 255 128 158 178 128 158 178 120 152 175 184 227 255 120 152 175 120 152 175 120 152 175 120 152 175 120 152 175 120 152 175 120 152 175 120 152 175 120 152 175 120 152 175 120 152 175 172 218 250 120 152 175 172 218 250 172 218 250 172 218 250 172 218 250 172 218 250 120 152 175 120 152 175 172 218 250 184 227 255 184 227 255 184 227 255 184 227 255 197 235 255 197 235 255 197 235 255 197 235 255 216 242 254 216 242 254 216 242 254 216 242 254 216 242 254 216 242 254 216 242 254 172 208 165 172 208 165 172 208 165 172 208 165 172 208 165 120 145 115 120 145 115 172 208 165 172 208 165 172 208 165 147 191 139 147 191 139 147 191 139 147 191 139 167 197 142 167 197 142 167 197 142 116 137 99 167 197 142 167 197 142 189 204 150 189 204 150 189 204 150 189 204 150 189 204 150 189 204 150 132 142 105 132 142 105 132 142 105 132 142 105 132 142 105 132 142 105 209 215 171 146 150 119 209 215 171 209 215 171 209 215 171 146 150 119 146 150 119 156 159 126 224 228 180 224 228 180 224 228 180 238 235 191 238 235 191 238 235 191 231 224 182 231 224 182 166 164 133 166 164 133 238 235 191 238 235 191 238 235 191 166 164 133 238 235 191 238 235 191 166 164 133 166 164 133 156 159 126 238 235 191 238 235 191 166 164 133 238 235 191 166 164 133 156 159 126 156 159 126 156 159 126 224 228 180 224 228 180 224 228 180 224 228 180 224 228 180 224 228 180 156 159 126 156 159 126 224 228 180 224 228 180 224 228 180 209 215 171 146 150 119 146 150 119 146 150 119 146 150 119 132 142 105 132 142 105 132 142 105 132 142 105 132 142 105 116 137 99 116 137 99 116 137 99 116 137 99 102 133 97 102 133 97 102 133 97 102 133 97 120 145 115 120 145 115 120 145 115 172 208 165 120 145 115 120 145 115 172 208 165 151 169 177 216 242 254 151 169 177 216 242 254 216 242 254 137 164 178 137 164 178 137 164 178 197 235 255 197 235 255 197 235 255 197 235 255 137 164 178 137 164 178 137 164 178 137 164 178 137 164 178 137 164 178 137 164 178 137 164 178 197 235 255 137 164 178 128 158 178 184 227 255 128 158 178 197 235 255 128 158 178 137 164 178 197 235 255 197 235 255 197 235 255 197 235 255 197 235 255 197 235 255 197 235 255 197 235 255 137 164 178 197 235 255 137 164 178 216 242 254 137 164 178 197 235 255 137 164 178 137 164 178 197 235 255 197 235 255 197 235 255 184 227 255 128 158 178 128 158 178 184 227 255 184 227 255 184 227 255 184 227 255 120 152 175 172 218 250 172 218 250 172 218 250 172 218 250 172 218 250 172 218 250 172 218 250 172 218 250 172 218 250 172 218 250 172 218 250 172 218 250 160 210 247 160 210 247 172 218 250 172 218 250 172 218 250

184 227 255 128 158 178 128 158 178 128 158 178 128 158 178 128 158 178 137 164 178 137 164 178 197 235 255 137 164 178 197 235 255 137 164 178 197 235 255 137 164 178 137 164 178 216 242 254 216 242 254 151 169 177 137 164 178 137 164 178 137 164 178 137 164 178 137 164 178 137 164 178 197 235 255 137 164 178 137 164 178 137 164 178 137 164 178 137 164 178 137 164 178 197 235 255 197 235 255 197 235 255 137 164 178 137 164 178 137 164 178 128 158 178 128 158 178 128 158 178 184 227 255 128 158 178 128 158 178 128 158 178 128 158 178 184 227 255 120 152 175 120 152 175 120 152 175 120 152 175 172 218 250 172 218 250 120 152 175 120 152 175 172 218 250 120 152 175 120 152 175 172 218 250 120 152 175 172 218 250 172 218 250 172 218 250 172 218 250 120 152 175 120 152 175 172 218 250 184 227 255 184 227 255 184 227 255 184 227 255 184 227 255 197 235 255 197 235 255 137 164 178 197 235 255 197 235 255 216 242 254 216 242 254 216 242 254 216 242 254 172 208 165 172 208 165 172 208 165 172 208 165 172 208 165 172 208 165 172 208 165 120 145 115 120 145 115 172 208 165 172 208 165 172 208 165 147 191 139 147 191 139 147 191 139 147 191 139 167 197 142 167 197 142 167 197 142 167 197 142 167 197 142 167 197 142 189 204 150 189 204 150 189 204 150 189 204 150 189 204 150 132 142 105 209 215 171 132 142 105 132 142 105 132 142 105 132 142 105 189 204 150 189 204 150 209 215 171 209 215 171 209 215 171 209 215 171 209 215 171 209 215 171 224 228 180 224 228 180 224 228 180 224 228 180 238 235 191 238 235 191 238 235 191 231 224 182 166 164 133 166 164 133 231 224 182 231 224 182 166 164 133 166 164 133 166 164 133 166 164 133 166 164 133 238 235 191 238 235 191 238 235 191 238 235 191 166 164 133 156 159 126 238 235 191 166 164 133 156 159 126 156 159 126 224 228 180 156 159 126 156 159 126 224 228 180 238 235 191 156 159 126 156 159 126 156 159 126 224 228 180 224 228 180 146 150 119 146 150 119 224 228 180 146 150 119 146 150 119 146 150 119 132 142 105 132 142 105 132 142 105 189 204 150 189 204 150 132 142 105 132 142 105 116 137 99 116 137 99 116 137 99 102 133 97 102 133 97 102 133 97 120 145 115 120 145 115 120 145 115 172 208 165 172 208 165 120 145 115 120 145 115 172 208 165 151 169 177 151 169 177 151 169 177 216 242 254 151 169 177 216 242 254 137 164 178 137 164 178 197 235 255 197 235 255 197 235 255 197 235 255 137 164 178 137 164 178 137 164 178 137 164 178 128 158 178 137 164 178 137 164 178 197 235 255 197 235 255 128 158 178 128 158 178 197 235 255 197 235 255 197 235 255 197 235 255 197 235 255 197 235 255 197 235 255 197 235 255 197 235 255 137 164 178 197 235 255 197 235 255 197 235 255 197 235 255 197 235 255 216 242 254 216 242 254 137 164 178 137 164 178 197 235 255 197 235 255 197 235 255 197 235 255 197 235 255 197 235 255 128 158 178 128 158 178 184 227 255 184 227 255 184 227 255 128 158 178 120 152 175 172 218 250 172 218 250 172 218 250 172 218 250 172 218 250 172 218 250 172 218 250 172 218 250 172 218 250 172 218 250 120 152 175 172 218 250 172 218 250 172 218 250 172 218 250 172 218 250 184 227 255

184 227 255 128 158 178 128 158 178 128 158 178 128 158 178 128 158 178 128 158 178 128 158 178 128 158 178 137 164 178 137 164 178 137 164 178 197 235 255 137 164 178 137 164 178 197 235 255 137 164 178 137 164 178 137 164 178 137 164 178 137 164 178 137 164 178 137 164 178 137 164 178 137 164 178 137 164 178 137 164 178 137 164 178 137 164 178 197 235 255 197 235 255 197 235 255 137 164 178 137 164 178 137 164 178 137 164 178 137 164 178 128 158 178 184 227 255 128 158 178 128 158 178 128 158 178 128 158 178 128 158 178 184 227 255 120 152 175 120 152 175 120 152 175 120 152 175 172 218 250 120 152 175 120 152 175 120 152 175 172 218 250 172 218 250 120 152 175 172 218 250 172 218 250 172 218 250 172 218 250 172 218 250 172 218 250 172 218 250 172 218 250 172 218 250 172 218 250 172 218 250 184 227 255 184 227 255 184 227 255 197 235 255 197 235 255 197 235 255 137 164 178 197 235 255 197 235 255 197 235 255 151 169 177 216 242 254 216 242 254 216 242 254 120 145 115 151 169 177 172 208 165 172 208 165 120 145 115 120 145 115 120 145 115 172 208 165 172 208 165 172 208 165 147 191 139 147 191 139 147 191 139 147 191 139 147 191 139 167 197 142 116 137 99 167 197 142 116 137 99 167 197 142 167 197 142 167 197 142 189 204 150 189 204 150 132 142 105 189 204 150 189 204 150 132 142 105 132 142 105 132 142 105 132 142 105 189 204 150 189 204 150 189 204 150 209 215 171 209 215 171 146 150 119 209 215 171 146 150 119 209 215 171 224 228 180 224 228 180 224 228 180 224 228 180 238 235 191 238 235 191 238 235 191 238 235 191 161 156 127 238 235 191 231 224 182 166 164 133 166 164 133 238 235 191 166 164 133 166 164 133 166 164 133 166 164 133 166 164 133 166 164 133 238 235 191 238 235 191 238 235 191 238 235 191 166 164 133 156 159 126 224 228 180 224 228 180 156 159 126 156 159 126 224 228 180 156 159 126 156 159 126 156 159 126 224 228 180 224 228 180 156 159 126 146 150 119 209 215 171 209 215 171 146 150 119 146 150 119 146 150 119 132 142 105 132 142 105 132 142 105 132 142 105 132 142 105 116 137 99 116 137 99 116 137 99 116 137 99 116 137 99 102 133 97 102 133 97 102 133 97 102 133 97 120 145 115 172 208 165 120 145 115 120 145 115 120 145 115 120 145 115 120 145 115 151 169 177 216 242 254 151 169 177 216 242 254 151 169 177 216 242 254 137 164 178 137 164 178 137 164 178 137 164 178 137 164 178 137 164 178 137 164 178 137 164 178 128 158 178 137 164 178 128 158 178 197 235 255 197 235 255 197 235 255 137 164 178 128 158 178 197 235 255 197 235 255 137 164 178 197 235 255 197 235 255 128 158 178 197 235 255 197 235 255 137 164 178 137 164 178 197 235 255 197 235 255 197 235 255 197 235 255 197 235 255 197 235 255 197 235 255 137 164 178 137 164 178 137 164 178 137 164 178 137 164 178 137 164 178 137 164 178 197 235 255 197 235 255 197 235 255 184 227 255 184 227 255 128 158 178 128 158 178 128 158 178 184 227 255 184 227 255 184 227 255 184 227 255 184 227 255 172 218 250 172 218 250 172 218 250 120 152 175 172 218 250 120 152 175 172 218 250 172 218 250 172 218 250 172 218 250 172 218 250 172 218 250 172 218 250

172 218 250 120 152 175 184 227 255 128 158 178 128 158 178 184 227 255 128 158 178 128 158 178 128 158 178 184 227 255 137 164 178 137 164 178 137 164 178 137 164 178 197 235 255 137 164 178 137 164 178 137 164 178 137 164 178 137 164 178 137 164 178 137 164 178 137 164 178 137 164 178 197 235 255 137 164 178 137 164 178 197 235 255 197 235 255 197 235 255 197 235 255 137 164 178 137 164 178 137 164 178 137 164 178 137 164 178 128 158 178 128 158 178 128 158 178 128 158 178 128 158 178 128 158 178 184 227 255 184 227 255 128 158 178 120 152 175 184 227 255 172 218 250 172 218 250 120 152 175 120 152 175 172 218 250 172 218 250 120 152 175 172 218 250 120 152 175 120 152 175 172 218 250 172 218 250 172 218 250 172 218 250 172 218 250 172 218 250 172 218 250 184 227 255 184 227 255 184 227 255 184 227 255 184 227 255 184 227 255 184 227 255 197 235 255 197 235 255 197 235 255 197 235 255 197 235 255 197 235 255 197 235 255 216 242 254 216 242 254 151 169 177 151 169 177 172 208 165 216 242 254 172 208 165 172 208 165 120 145 115 172 208 165 172 208 165 172 208 165 147 191 139 147 191 139 147 191 139 147 191 139 147 191 139 147 191 139 167 197 142 167 197 142 116 137 99 116 137 99 167 197 142 167 197 142 189 204 150 189 204 150 132 142 105 189 204 150 189 204 150 132 142 105 132 142 105 132 142 105 132 142 105 132 142 105 189 204 150 132 142 105 189 204 150 132 142 105 209 215 171 209 215 171 209 215 171 146 150 119 209 215 171 146 150 119 224 228 180 224 228 180 224 228 180 238 235 191 238 235 191 238 235 191 166 164 133 238 235 191 231 224 182 231 224 182 161 156 127 238 235 191 238 235 191 166 164 133 166 164 133 166 164 133 166 164 133 238 235 191 238 235 191 238 235 191 238 235 191 238 235 191 238 235 191 156 159 126 156 159 126 224 228 180 224 228 180 156 159 126 156 159 126 224 228 180 224 228 180 156 159 126 156 159 126 156 159 126 224 228 180 156 159 126 156 159 126 224 228 180 224 228 180 146 150 119 146 150 119 146 150 119 132 142 105 132 142 105 132 142 105 132 142 105 116 137 99 116 137 99 116 137 99 116 137 99 116 137 99 102 133 97 102 133 97 102 133 97 102 133 97 120 145 115 120 145 115 120 145 115 120 145 115 120 145 115 120 145 115 120 145 115 151 169 177 151 169 177 151 169 177 151 169 177 216 242 254 216 242 254 216 242 254 137 164 178 137 164 178 137 164 178 197 235 255 197 235 255 137 164 178 137 164 178 128 158 178 128 158 178 184 227 255 128 158 178 128 158 178 197 235 255 137 164 178 197 235 255 197 235 255 197 235 255 197 235 255 128 158 178 197 235 255 137 164 178 128 158 178 197 235 255 197 235 255 137 164 178 197 235 255 197 235 255 197 235 255 197 235 255 197 235 255 197 235 255 197 235 255 197 235 255 197 235 255 137 164 178 137 164 178 137 164 178 137 164 178 137 164 178 197 235 255 197 235 255 197 235 255 137 164 178 128 158 178 128 158 178 184 227 255 184 227 255 184 227 255 184 227 255 184 227 255 184 227 255 184 227 255 184 227 255 184 227 255 172 218 250 184 227 255 172 218 250 172 218 250 120 152 175 172 218 250 172 218 250 172 218 250 172 218 250 172 218 250 172 218 250 172 218 250

172 218 250 120 152 175 120 152 175 120 152 175 128 158 178 128 158 178 128 158 178 128 158 178 128 158 178 128 158 178 128 158 178 128 158 178 137 164 178 137 164 178 137 164 178 137 164 178 137 164 178 137 164 178 137 164 178 137 164 178 137 164 178 137 164 178 137 164 178 197 235 255 197 235 255 137 164 178 137 164 178 197 235 255 137 164 178 137 164 178 137 164 178 137 164 178 137 164 178 197 235 255 137 164 178 137 164 178 137 164 178 128 158 178 128 158 178 128 158 178 184 227 255 128 158 178 184 227 255 128 158 178 128 158 178 128 158 178 184 227 255 120 152 175 120 152 175 120 152 175 172 218 250 172 218 250 172 218 250 120 152 175 172 218 250 120 152 175 120 152 175 172 218 250 172 218 250 172 218 250 172 218 250 172 218 250 172 218 250 172 218 250 120 152 175 120 152 175 120 152 175 184 227 255 184 227 255 184 227 255 128 158 178 197 235 255 197 235 255 137 164 178 197 235 255 197 235 255 197 235 255 197 235 255 216 242 254 216 242 254 216 242 254 151 169 177 216 242 254 172 208 165 172 208 165 120 145 115 172 208 165 172 208 165 172 208 165 172 208 165 147 191 139 147 191 139 147 191 139 147 191 139 147 191 139 147 191 139 167 197 142 167 197 142 167 197 142 167 197 142 167 197 142 167 197 142 167 197 142 189 204 150 189 204 150 189 204 150 132 142 105 132 142 105 132 142 105 132 142 105 132 142 105 132 142 105 189 204 150 132 142 105 189 204 150 189 204 150 189 204 150 209 215 171 209 215 171 209 215 171 209 215 171 224 228 180 224 228 180 224 228 180 224 228 180 238 235 191 238 235 191 166 164 133 166 164 133 238 235 191 238 235 191 166 164 133 166 164 133 166 164 133 166 164 133 166 164 133 166 164 133 166 164 133 238 235 191 238 235 191 238 235 191 238 235 191 166 164 133 238 235 191 238 235 191 166 164 133 238 235 191 238 235 191 238 235 191 224 228 180 156 159 126 224 228 180 156 159 126 156 159 126 156 159 126 156 159 126 156 159 126 156 159 126 146 150 119 224 228 180 146 150 119 146 150 119 146 150 119 146 150 119 132 142 105 132 142 105 132 142 105 116 137 99 116 137 99 116 137 99 116 137 99 116 137 99 116 137 99 116 137 99 102 133 97 102 133 97 102 133 97 120 145 115 172 208 165 120 145 115 120 145 115 120 145 115 120 145 115 120 145 115 151 169 177 151 169 177 216 242 254 151 169 177 216 242 254 151 169 177 151 169 177 151 169 177 197 235 255 197 235 255 197 235 255 197 235 255 137 164 178 137 164 178 128 158 178 128 158 178 128 158 178 128 158 178 184 227 255 184 227 255 197 235 255 197 235 255 197 235 255 137 164 178 137 164 178 137 164 178 197 235 255 128 158 178 128 158 178 184 227 255 128 158 178 197 235 255 137 164 178 137 164 178 197 235 255 197 235 255 197 235 255 137 164 178 137 164 178 137 164 178 137 164 178 137 164 178 197 235 255 137 164 178 197 235 255 137 164 178 197 235 255 197 235 255 197 235 255 197 235 255 197 235 255 184 227 255 184 227 255 184 227 255 197 235 255 184 227 255 184 227 255 184 227 255 184 227 255 184 227 255 184 227 255 184 227 255 184 227 255 120 152 175 172 218 250 172 218 250 172 218 250 172 218 250 172 218 250 172 218 250 172 218 250 172 218 250 172 218 250

172 218 250 120 152 175 172 218 250 172 218 250 184 227 255 184 227 255 120 152 175 120 152 175 120 152 175 128 158 178 184 227 255 128 158 178 128 158 178 128 158 178 128 158 178 128 158 178 137 164 178 128 158 178 128 158 178 128 158 178 128 158 178 128 158 178 128 158 178 197 235 255 197 235 255 197 235 255 197 235 255 137 164 178 137 164 178 137 164 178 137 164 178 197 235 255 197 235 255 197 235 255 197 235 255 137 164 178 197 235 255 128 158 178 128 158 178 128 158 178 128 158 178 184 227 255 184 227 255 184 227 255 184 227 255 128 158 178 184 227 255 128 158 178 120 152 175 172 218 250 184 227 255 184 227 255 172 218 250 172 218 250 120 152 175 172 218 250 120 152 175 172 218 250 172 218 250 172 218 250 172 218 250 172 218 250 172 218 250 184 227 255 184 227 255 184 227 255 184 227 255 184 227 255 184 227 255 184 227 255 184 227 255 184 227 255 197 235 255 197 235 255 137 164 178 137 164 178 197 235 255 216 242 254 216 242 254 216 242 254 216 242 254 216 242 254 216 242 254 216 242 254 172 208 165 172 208 165 172 208 165 172 208 165 172 208 165 172 208 165 147 191 139 147 191 139 147 191 139 147 191 139 147 191 139 147 191 139 167 197 142 102 133 97 167 197 142 167 197 142 167 197 142 167 197 142 167 197 142 167 197 142 189 204 150 189 204 150 189 204 150 189 204 150 132 142 105 132 142 105 189 204 150 189 204 150 189 204 150 189 204 150 189 204 150 189 204 150 209 215 171 209 215 171 209 215 171 209 215 171 209 215 171 224 228 180 224 228 180 224 228 180 238 235 191 238 235 191 238 235 191 238 235 191 238 235 191 238 235 191 238 235 191 166 164 133 231 224 182 166 164 133 238 235 191 166 164 133 166 164 133 238 235 191 238 235 191 238 235 191 238 235 191 238 235 191 238 235 191 238 235 191 238 235 191 238 235 191 238 235 191 166 164 133 238 235 191 156 159 126 156 159 126 156 159 126 156 159 126 156 159 126 224 228 180 156 159 126 224 228 180 146 150 119 146 150 119 209 215 171 224 228 180 146 150 119 146 150 119 146 150 119 209 215 171 132 142 105 132 142 105 116 137 99 116 137 99 116 137 99 116 137 99 167 197 142 167 197 142 116 137 99 102 133 97 102 133 97 102 133 97 120 145 115 120 145 115 120 145 115 120 145 115 120 145 115 120 145 115 151 169 177 151 169 177 151 169 177 151 169 177 151 169 177 216 242 254 151 169 177 216 242 254 216 242 254 216 242 254 137 164 178 137 164 178 137 164 178 137 164 178 137 164 178 137 164 178 128 158 178 128 158 178 184 227 255 197 235 255 197 235 255 197 235 255 197 235 255 128 158 178 137 164 178 197 235 255 197 235 255 128 158 178 197 235 255 197 235 255 184 227 255 184 227 255 128 158 178 137 164 178 197 235 255 197 235 255 197 235 255 197 235 255 137 164 178 197 235 255 137 164 178 137 164 178 137 164 178 137 164 178 197 235 255 197 235 255 197 235 255 197 235 255 197 235 255 197 235 255 197 235 255 197 235 255 197 235 255 197 235 255 197 235 255 197 235 255 197 235 255 197 235 255 197 235 255 184 227 255 184 227 255 128 158 178 184 227 255 184 227 255 184 227 255 184 227 255 184 227 255 172 218 250 184 227 255 184 227 255 184 227 255 184 227 255 184 227 255 184 227 255

172 218 250 172 218 250 120 152 175 120 152 175 120 152 175 120 152 175 120 152 175 120 152 175 120 152 175 120 152 175 120 152 175 128 158 178 128 158 178 128 158 178 128 158 178 128 158 178 128 158 178 128 158 178 128 158 178 128 158 178 128 158 178 128 158 178 184 227 255 197 235 255 197 235 255 137 164 178 137 164 178 137 164 178 128 158 178 128 158 178 197 235 255 197 235 255 137 164 178 197 235 255 197 235 255 137 164 178 197 235 255 128 158 178 128 158 178 128 158 178 128 158 178 184 227 255 128 158 178 184 227 255 128 158 178 128 158 178 184 227 255 128 158 178 184 227 255 184 227 255 172 218 250 184 227 255 184 227 255 172 218 250 120 152 175 172 218 250 172 218 250 172 218 250 172 218 250 184 227 255 172 218 250 184 227 255 172 218 250 184 227 255 120 152 175 184 227 255 184 227 255 184 227 255 184 227 255 128 158 178 184 227 255 184 227 255 128 158 178 197 235 255 197 235 255 197 235 255 197 235 255 197 235 255 216 242 254 216 242 254 216 242 254 216 242 254 216 242 254 151 169 177 172 208 165 172 208 165 120 145 115 172 208 165 172 208 165 172 208 165 147 191 139 147 191 139 102 133 97 102 133 97 102 133 97 147 191 139 102 133 97 102 133 97 167 197 142 167 197 142 116 137 99 167 197 142 167 197 142 167 197 142 189 204 150 132 142 105 189 204 150 132 142 105 132 142 105 132 142 105 116 137 99 116 137 99 189 204 150 189 204 150 189 204 150 189 204 150 209 215 171 209 215 171 209 215 171 209 215 171 224 228 180 224 228 180 224 228 180 224 228 180 238 235 191 238 235 191 238 235 191 238 235 191 238 235 191 238 235 191 238 235 191 231 224 182 238 235 191 166 164 133 238 235 191 238 235 191 238 235 191 238 235 191 238 235 191 166 164 133 166 164 133 238 235 191 238 235 191 238 235 191 238 235 191 238 235 191 166 164 133 238 235 191 156 159 126 156 159 126 156 159 126 156 159 126 156 159 126 224 228 180 156 159 126 156 159 126 146 150 119 146 150 119 209 215 171 209 215 171 146 150 119 146 150 119 146 150 119 146 150 119 132 142 105 132 142 105 132 142 105 132 142 105 116 137 99 116 137 99 116 137 99 116 137 99 116 137 99 102 133 97 102 133 97 102 133 97 102 133 97 120 145 115 120 145 115 172 208 165 172 208 165 120 145 115 120 145 115 151 169 177 151 169 177 216 242 254 216 242 254 216 242 254 216 242 254 151 169 177 151 169 177 151 169 177 151 169 177 137 164 178 137 164 178 137 164 178 137 164 178 137 164 178 128 158 178 128 158 178 184 227 255 184 227 255 184 227 255 197 235 255 197 235 255 137 164 178 128 158 178 128 158 178 197 235 255 137 164 178 128 158 178 184 227 255 128 158 178 128 158 178 184 227 255 184 227 255 197 235 255 197 235 255 197 235 255 137 164 178 137 164 178 137 164 178 197 235 255 137 164 178 137 164 178 137 164 178 197 235 255 197 235 255 197 235 255 197 235 255 197 235 255 197 235 255 197 235 255 137 164 178 137 164 178 197 235 255 197 235 255 197 235 255 197 235 255 197 235 255 197 235 255 197 235 255 197 235 255 128 158 178 184 227 255 184 227 255 184 227 255 184 227 255 184 227 255 184 227 255 184 227 255 184 227 255 184 227 255 184 227 255 184 227 255 184 227 255 184 227 255

160 210 247 112 147 172 120 152 175 112 147 172 120 152 175 120 152 175 120 152 175 120 152 175 172 218 250 120 152 175 120 152 175 120 152 175 184 227 255 128 158 178 128 158 178 128 158 178 128 158 178 128 158 178 128 158 178 128 158 178 128 158 178 184 227 255 184 227 255 197 235 255 197 235 255 137 164 178 137 164 178 128 158 178 128 158 178 128 158 178 184 227 255 128 158 178 197 235 255 197 235 255 137 164 178 137 164 178 128 158 178 128 158 178 128 158 178 128 158 178 184 227 255 184 227 255 184 227 255 184 227 255 128 158 178 184 227 255 184 227 255 184 227 255 184 227 255 184 227 255 184 227 255 184 227 255 184 227 255 184 227 255 184 227 255 184 227 255 184 227 255 184 227 255 184 227 255 184 227 255 184 227 255 184 227 255 184 227 255 172 218 250 120 152 175 184 227 255 184 227 255 184 227 255 184 227 255 128 158 178 128 158 178 128 158 178 128 158 178 184 227 255 197 235 255 197 235 255 197 235 255 197 235 255 216 242 254 216 242 254 216 242 254 216 242 254 216 242 254 216 242 254 216 242 254 172 208 165 172 208 165 172 208 165 172 208 165 172 208 165 147 191 139 102 133 97 147 191 139 147 191 139 147 191 139 147 191 139 147 191 139 147 191 139 147 191 139 102 133 97 167 197 142 167 197 142 167 197 142 167 197 142 167 197 142 132 142 105 132 142 105 189 204 150 189 204 150 116 137 99 189 204 150 189 204 150 116 137 99 189 204 150 189 204 150 189 204 150 209 215 171 209 215 171 209 215 171 209 215 171 224 228 180 224 228 180 224 228 180 224 228 180 238 235 191 238 235 191 238 235 191 238 235 191 238 235 191 166 164 133 238 235 191 231 224 182 166 164 133 238 235 191 238 235 191 238 235 191 238 235 191 238 235 191 238 235 191 238 235 191 238 235 191 238 235 191 238 235 191 238 235 191 238 235 191 238 235 191 238 235 191 166 164 133 166 164 133 156 159 126 156 159 126 156 159 126 156 159 126 146 150 119 156 159 126 146 150 119 146 150 119 146 150 119 209 215 171 209 215 171 146 150 119 146 150 119 146 150 119 132 142 105 132 142 105 132 142 105 132 142 105 116 137 99 116 137 99 116 137 99 167 197 142 116 137 99 116 137 99 102 133 97 102 133 97 102 133 97 147 191 139 120 145 115 120 145 115 172 208 165 120 145 115 120 145 115 120 145 115 151 169 177 151 169 177 151 169 177 216 242 254 151 169 177 151 169 177 151 169 177 151 169 177 216 242 254 137 164 178 137 164 178 137 164 178 137 164 178 137 164 178 128 158 178 128 158 178 128 158 178 128 158 178 128 158 178 197 235 255 197 235 255 197 235 255 128 158 178 128 158 178 184 227 255 197 235 255 197 235 255 197 235 255 197 235 255 184 227 255 184 227 255 184 227 255 184 227 255 197 235 255 197 235 255 197 235 255 137 164 178 137 164 178 197 235 255 137 164 178 137 164 178 137 164 178 137 164 178 197 235 255 137 164 178 197 235 255 197 235 255 197 235 255 197 235 255 197 235 255 197 235 255 197 235 255 197 235 255 197 235 255 197 235 255 197 235 255 197 235 255 197 235 255 197 235 255 197 235 255 197 235 255 197 235 255 184 227 255 184 227 255 184 227 255 184 227 255 184 227 255 184 227 255 184 227 255 184 227 255 184 227 255 184 227 255 184 227 255 184 227 255

160 210 247 112 147 172 112 147 172 112 147 172 160 210 247 112 147 172 112 147 172 120 152 175 120 152 175 120 152 175 120 152 175 120 152 175 120 152 175 120 152 175 120 152 175 120 152 175 120 152 175 120 152 175 120 152 175 128 158 178 128 158 178 128 158 178 128 158 178 184 227 255 128 158 178 137 164 178 128 158 178 128 158 178 128 158 178 128 158 178 184 227 255 197 235 255 197 235 255 137 164 178 137 164 178 137 164 178 128 158 178 128 158 178 128 158 178 128 158 178 184 227 255 184 227 255 184 227 255 184 227 255 184 227 255 128 158 178 184 227 255 184 227 255 184 227 255 184 227 255 184 227 255 184 227 255 184 227 255 184 227 255 184 227 255 184 227 255 184 227 255 184 227 255 184 227 255 128 158 178 184 227 255 184 227 255 120 152 175 120 152 175 120 152 175 120 152 175 184 227 255 184 227 255 128 158 178 128 158 178 128 158 178 184 227 255 184 227 255 184 227 255 197 235 255 197 235 255 197 235 255 197 235 255 216 242 254 216 242 254 216 242 254 216 242 254 151 169 177 151 169 177 216 242 254 216 242 254 172 208 165 120 145 115 120 145 115 172 208 165 172 208 165 147 191 139 147 191 139 147 191 139 147 191 139 147 191 139 147 191 139 147 191 139 147 191 139 167 197 142 167 197 142 116 137 99 167 197 142 167 197 142 167 197 142 167 197 142 116 137 99 189 204 150 132 142 105 132 142 105 116 137 99 116 137 99 189 204 150 189 204 150 189 204 150 189 204 150 209 215 171 209 215 171 209 215 171 209 215 171 224 228 180 224 228 180 224 228 180 238 235 191 238 235 191 238 235 191 238 235 191 231 224 182 238 235 191 238 235 191 238 235 191 231 224 182 231 224 182 238 235 191 238 235 191 238 235 191 166 164 133 166 164 133 238 235 191 238 235 191 238 235 191 238 235 191 238 235 191 238 235 191 238 235 191 166 164 133 166 164 133 166 164 133 156 159 126 156 159 126 156 159 126 156 159 126 224 228 180 146 150 119 146 150 119 146 150 119 146 150 119 146 150 119 146 150 119 146 150 119 146 150 119 146 150 119 146 150 119 132 142 105 132 142 105 132 142 105 116 137 99 116 137 99 116 137 99 116 137 99 102 133 97 102 133 97 102 133 97 102 133 97 102 133 97 102 133 97 102 133 97 102 133 97 120 145 115 120 145 115 120 145 115 120 145 115 172 208 165 151 169 177 151 169 177 216 242 254 216 242 254 151 169 177 151 169 177 151 169 177 151 169 177 137 164 178 137 164 178 137 164 178 137 164 178 137 164 178 128 158 178 128 158 178 128 158 178 128 158 178 184 227 255 184 227 255 184 227 255 128 158 178 128 158 178 128 158 178 128 158 178 197 235 255 197 235 255 137 164 178 197 235 255 197 235 255 128 158 178 184 227 255 197 235 255 197 235 255 197 235 255 137 164 178 197 235 255 137 164 178 137 164 178 197 235 255 137 164 178 197 235 255 197 235 255 197 235 255 197 235 255 137 164 178 197 235 255 197 235 255 137 164 178 137 164 178 197 235 255 197 235 255 137 164 178 197 235 255 197 235 255 197 235 255 197 235 255 197 235 255 216 242 254 197 235 255 197 235 255 197 235 255 197 235 255 197 235 255 184 227 255 184 227 255 184 227 255 184 227 255 184 227 255 184 227 255 184 227 255 184 227 255 184 227 255 184 227 255 184 227 255

150 201 240 112 147 172 112 147 172 112 147 172 112 147 172 112 147 172 160 210 247 172 218 250 112 147 172 112 147 172 112 147 172 120 152 175 120 152 175 120 152 175 120 152 175 120 152 175 120 152 175 120 152 175 120 152 175 120 152 175 120 152 175 120 152 175 184 227 255 128 158 178 184 227 255 128 158 178 128 158 178 128 158 178 128 158 178 128 158 178 184 227 255 197 235 255 197 235 255 137 164 178 128 158 178 128 158 178 128 158 178 128 158 178 128 158 178 184 227 255 184 227 255 128 158 178 128 158 178 184 227 255 184 227 255 128 158 178 184 227 255 184 227 255 184 227 255 184 227 255 184 227 255 128 158 178 184 227 255 184 227 255 184 227 255 128 158 178 184 227 255 184 227 255 184 227 255 184 227 255 184 227 255 128 158 178 128 158 178 184 227 255 120 152 175 172 218 250 184 227 255 184 227 255 128 158 178 128 158 178 128 158 178 184 227 255 184 227 255 184 227 255 197 235 255 197 235 255 197 235 255 197 235 255 216 242 254 216 242 254 216 242 254 216 242 254 151 169 177 216 242 254 216 242 254 216 242 254 151 169 177 172 208 165 172 208 165 172 208 165 172 208 165 172 208 165 147 191 139 147 191 139 147 191 139 147 191 139 147 191 139 147 191 139 147 191 139 147 191 139 102 133 97 167 197 142 167 197 142 167 197 142 189 204 150 189 204 150 167 197 142 167 197 142 132 142 105 116 137 99 116 137 99 167 197 142 116 137 99 189 204 150 189 204 150 189 204 150 209 215 171 209 215 171 209 215 171 224 228 180 224 228 180 224 228 180 224 228 180 238 235 191 238 235 191 238 235 191 231 224 182 231 224 182 231 224 182 231 224 182 231 224 182 231 224 182 231 224 182 166 164 133 166 164 133 166 164 133 231 224 182 238 235 191 238 235 191 166 164 133 166 164 133 166 164 133 238 235 191 238 235 191 231 224 182 166 164 133 166 164 133 166 164 133 238 235 191 224 228 180 224 228 180 156 159 126 224 228 180 156 159 126 146 150 119 146 150 119 146 150 119 209 215 171 146 150 119 209 215 171 146 150 119 146 150 119 146 150 119 132 142 105 132 142 105 132 142 105 116 137 99 116 137 99 116 137 99 102 133 97 102 133 97 102 133 97 102 133 97 102 133 97 102 133 97 102 133 97 147 191 139 120 145 115 120 145 115 120 145 115 172 208 165 120 145 115 120 145 115 151 169 177 216 242 254 216 242 254 151 169 177 151 169 177 216 242 254 216 242 254 151 169 177 216 242 254 216 242 254 197 235 255 137 164 178 137 164 178 128 158 178 128 158 178 184 227 255 184 227 255 184 227 255 184 227 255 128 158 178 184 227 255 128 158 178 128 158 178 128 158 178 197 235 255 197 235 255 197 235 255 197 235 255 197 235 255 197 235 255 197 235 255 197 235 255 128 158 178 128 158 178 128 158 178 197 235 255 197 235 255 197 235 255 197 235 255 197 235 255 197 235 255 197 235 255 197 235 255 197 235 255 137 164 178 197 235 255 197 235 255 197 235 255 216 242 254 216 242 254 216 242 254 216 242 254 216 242 254 216 242 254 216 242 254 216 242 254 216 242 254 216 242 254 216 242 254 216 242 254 137 164 178 137 164 178 197 235 255 197 235 255 128 158 178 128 158 178 184 227 255 184 227 255 197 235 255 197 235 255 184 227 255 197 235 255 197 235 255 197 235 255

150 201 240 150 201 240 112 147 172 112 147 172 160 210 247 112 147 172 112 147 172 112 147 172 112 147 172 112 147 172 160 210 247 172 218 250 112 147 172 120 152 175 172 218 250 120 152 175 120 152 175 172 218 250 120 152 175 120 152 175 172 218 250 172 218 250 184 227 255 184 227 255 184 227 255 128 158 178 128 158 178 128 158 178 128 158 178 128 158 178 128 158 178 128 158 178 128 158 178 128 158 178 128 158 178 128 158 178 128 158 178 128 158 178 128 158 178 184 227 255 128 158 178 128 158 178 120 152 175 184 227 255 184 227 255 128 158 178 184 227 255 184 227 255 184 227 255 128 158 178 184 227 255 128 158 178 128 158 178 128 158 178 184 227 255 184 227 255 184 227 255 184 227 255 128 158 178 184 227 255 184 227 255 184 227 255 184 227 255 184 227 255 184 227 255 184 227 255 184 227 255 184 227 255 120 152 175 184 227 255 184 227 255 184 227 255 184 227 255 184 227 255 197 235 255 197 235 255 137 164 178 137 164 178 137 164 178 216 242 254 216 242 254 216 242 254 151 169 177 216 242 254 151 169 177 151 169 177 151 169 177 216 242 254 151 169 177 172 208 165 172 208 165 172 208 165 147 191 139 102 133 97 147 191 139 147 191 139 147 191 139 147 191 139 147 191 139 102 133 97 147 191 139 167 197 142 167 197 142 167 197 142 189 204 150 132 142 105 116 137 99 116 137 99 116 137 99 116 137 99 116 137 99 167 197 142 116 137 99 189 204 150 189 204 150 189 204 150 189 204 150 209 215 171 209 215 171 224 228 180 224 228 180 224 228 180 224 228 180 238 235 191 238 235 191 166 164 133 238 235 191 166 164 133 161 156 127 161 156 127 231 224 182 231 224 182 161 156 127 231 224 182 231 224 182 238 235 191 231 224 182 166 164 133 238 235 191 166 164 133 238 235 191 166 164 133 238 235 191 166 164 133 238 235 191 166 164 133 238 235 191 238 235 191 238 235 191 156 159 126 156 159 126 156 159 126 156 159 126 156 159 126 146 150 119 146 150 119 146 150 119 146 150 119 146 150 119 146 150 119 146 150 119 146 150 119 132 142 105 132 142 105 132 142 105 116 137 99 116 137 99 116 137 99 116 137 99 102 133 97 102 133 97 102 133 97 102 133 97 102 133 97 102 133 97 102 133 97 102 133 97 120 145 115 120 145 115 120 145 115 120 145 115 151 169 177 151 169 177 151 169 177 151 169 177 151 169 177 151 169 177 151 169 177 151 169 177 151 169 177 137 164 178 151 169 177 137 164 178 137 164 178 137 164 178 137 164 178 197 235 255 184 227 255 184 227 255 184 227 255 184 227 255 184 227 255 128 158 178 184 227 255 184 227 255 184 227 255 184 227 255 197 235 255 197 235 255 197 235 255 197 235 255 137 164 178 137 164 178 137 164 178 128 158 178 128 158 178 128 158 178 197 235 255 197 235 255 137 164 178 197 235 255 137 164 178 197 235 255 137 164 178 137 164 178 137 164 178 197 235 255 137 164 178 197 235 255 197 235 255 216 242 254 216 242 254 216 242 254 216 242 254 216 242 254 216 242 254 216 242 254 216 242 254 216 242 254 216 242 254 216 242 254 151 169 177 216 242 254 137 164 178 137 164 178 197 235 255 197 235 255 137 164 178 197 235 255 197 235 255 197 235 255 197 235 255 197 235 255 197 235 255 197 235 255 197 235 255 197 235 255

150 201 240 150 201 240 105 140 168 160 210 247 112 147 172 112 147 172 112 147 172 112 147 172 112 147 172 112 147 172 160 210 247 160 210 247 112 147 172 172 218 250 172 218 250 120 152 175 172 218 250 172 218 250 172 218 250 172 218 250 172 218 250 172 218 250 172 218 250 128 158 178 184 227 255 128 158 178 128 158 178 184 227 255 128 158 178 128 158 178 128 158 178 184 227 255 184 227 255 128 158 178 128 158 178 128 158 178 128 158 178 128 158 178 128 158 178 184 227 255 184 227 255 120 152 175 120 152 175 184 227 255 184 227 255 184 227 255 184 227 255 184 227 255 184 227 255 184 227 255 128 158 178 128 158 178 128 158 178 184 227 255 184 227 255 184 227 255 184 227 255 128 158 178 184 227 255 184 227 255 184 227 255 184 227 255 184 227 255 184 227 255 184 227 255 184 227 255 184 227 255 184 227 255 128 158 178 184 227 255 184 227 255 184 227 255 184 227 255 184 227 255 197 235 255 197 235 255 137 164 178 197 235 255 197 235 255 197 235 255 216 242 254 151 169 177 151 169 177 216 242 254 151 169 177 151 169 177 216 242 254 216 242 254 216 242 254 172 208 165 172 208 165 172 208 165 147 191 139 147 191 139 147 191 139 102 133 97 102 133 97 102 133 97 147 191 139 102 133 97 147 191 139 167 197 142 167 197 142 167 197 142 189 204 150 189 204 150 116 137 99 116 137 99 116 137 99 116 137 99 167 197 142 167 197 142 189 204 150 189 204 150 189 204 150 189 204 150 189 204 150 209 215 171 209 215 171 209 215 171 224 228 180 224 228 180 224 228 180 238 235 191 238 235 191 238 235 191 238 235 191 231 224 182 231 224 182 231 224 182 231 224 182 161 156 127 231 224 182 231 224 182 231 224 182 166 164 133 231 224 182 166 164 133 238 235 191 166 164 133 166 164 133 166 164 133 238 235 191 238 235 191 238 235 191 166 164 133 238 235 191 166 164 133 238 235 191 156 159 126 224 228 180 156 159 126 156 159 126 156 159 126 146 150 119 146 150 119 146 150 119 146 150 119 146 150 119 209 215 171 146 150 119 132 142 105 132 142 105 132 142 105 132 142 105 116 137 99 116 137 99 116 137 99 102 133 97 102 133 97 102 133 97 102 133 97 102 133 97 102 133 97 102 133 97 102 133 97 102 133 97 120 145 115 120 145 115 120 145 115 151 169 177 151 169 177 151 169 177 151 169 177 151 169 177 151 169 177 151 169 177 151 169 177 151 169 177 137 164 178 151 169 177 197 235 255 137 164 178 137 164 178 137 164 178 137 164 178 197 235 255 197 235 255 197 235 255 184 227 255 197 235 255 184 227 255 184 227 255 184 227 255 184 227 255 184 227 255 197 235 255 197 235 255 197 235 255 128 158 178 137 164 178 128 158 178 197 235 255 197 235 255 128 158 178 184 227 255 184 227 255 184 227 255 197 235 255 137 164 178 197 235 255 137 164 178 137 164 178 137 164 178 197 235 255 197 235 255 197 235 255 197 235 255 197 235 255 197 235 255 216 242 254 216 242 254 216 242 254 216 242 254 216 242 254 216 242 254 216 242 254 216 242 254 216 242 254 216 242 254 216 242 254 151 169 177 216 242 254 216 242 254 137 164 178 197 235 255 197 235 255 197 235 255 197 235 255 197 235 255 197 235 255 197 235 255 137 164 178 197 235 255 197 235 255 197 235 255 197 235 255

150 201 240 105 140 168 105 140 168 105 140 168 160 210 247 160 210 247 160 210 247 112 147 172 160 210 247 112 147 172 112 147 172 112 147 172 112 147 172 172 218 250 172 218 250 120 152 175 172 218 250 172 218 250 120 152 175 120 152 175 172 218 250 172 218 250 172 218 250 172 218 250 184 227 255 128 158 178 184 227 255 128 158 178 128 158 178 128 158 178 128 158 178 128 158 178 128 158 178 128 158 178 128 158 178 128 158 178 128 158 178 128 158 178 128 158 178 128 158 178 128 158 178 128 158 178 172 218 250 184 227 255 184 227 255 184 227 255 128 158 178 128 158 178 184 227 255 128 158 178 128 158 178 184 227 255 184 227 255 184 227 255 184 227 255 128 158 178 184 227 255 128 158 178 184 227 255 128 158 178 184 227 255 184 227 255 184 227 255 184 227 255 184 227 255 184 227 255 128 158 178 184 227 255 184 227 255 184 227 255 184 227 255 184 227 255 184 227 255 197 235 255 197 235 255 197 235 255 197 235 255 197 235 255 137 164 178 197 235 255 197 235 255 151 169 177 151 169 177 151 169 177 151 169 177 216 242 254 216 242 254 216 242 254 216 242 254 172 208 165 172 208 165 172 208 165 172 208 165 102 133 97 147 191 139 102 133 97 147 191 139 147 191 139 147 191 139 102 133 97 147 191 139 167 197 142 167 197 142 167 197 142 167 197 142 116 137 99 116 137 99 116 137 99 167 197 142 167 197 142 167 197 142 167 197 142 116 137 99 189 204 150 189 204 150 189 204 150 209 215 171 209 215 171 209 215 171 209 215 171 209 215 171 224 228 180 224 228 180 238 235 191 238 235 191 238 235 191 166 164 133 238 235 191 231 224 182 231 224 182 231 224 182 231 224 182 231 224 182 161 156 127 231 224 182 166 164 133 238 235 191 166 164 133 238 235 191 166 164 133 166 164 133 238 235 191 238 235 191 238 235 191 166 164 133 166 164 133 238 235 191 166 164 133 238 235 191 166 164 133 156 159 126 156 159 126 146 150 119 146 150 119 146 150 119 146 150 119 146 150 119 146 150 119 146 150 119 132 142 105 132 142 105 132 142 105 132 142 105 132 142 105 116 137 99 116 137 99 116 137 99 102 133 97 102 133 97 102 133 97 102 133 97 102 133 97 120 145 115 102 133 97 120 145 115 120 145 115 120 145 115 120 145 115 120 145 115 151 169 177 151 169 177 151 169 177 151 169 177 151 169 177 151 169 177 151 169 177 137 164 178 137 164 178 137 164 178 137 164 178 137 164 178 137 164 178 137 164 178 137 164 178 137 164 178 137 164 178 137 164 178 137 164 178 128 158 178 128 158 178 128 158 178 128 158 178 128 158 178 128 158 178 184 227 255 184 227 255 197 235 255 197 235 255 137 164 178 137 164 178 197 235 255 197 235 255 197 235 255 137 164 178 197 235 255 197 235 255 184 227 255 197 235 255 197 235 255 197 235 255 128 158 178 197 235 255 197 235 255 197 235 255 197 235 255 197 235 255 197 235 255 197 235 255 197 235 255 197 235 255 216 242 254 216 242 254 216 242 254 216 242 254 216 242 254 172 208 165 216 242 254 216 242 254 216 242 254 216 242 254 172 208 165 151 169 177 216 242 254 216 242 254 216 242 254 216 242 254 197 235 255 197 235 255 197 235 255 197 235 255 197 235 255 137 164 178 137 164 178 197 235 255 197 235 255 197 235 255 197 235 255

150 201 240 105 140 168 150 201 240 150 201 240 150 201 240 160 210 247 160 210 247 112 147 172 160 210 247 160 210 247 112 147 172 160 210 247 160 210 247 160 210 247 172 218 250 120 152 175 172 218 250 120 152 175 120 152 175 120 152 175 120 152 175 120 152 175 120 152 175 172 218 250 184 227 255 184 227 255 184 227 255 120 152 175 128 158 178 120 152 175 120 152 175 120 152 175 128 158 178 128 158 178 128 158 178 128 158 178 128 158 178 120 152 175 120 152 175 184 227 255 184 227 255 184 227 255 128 158 178 184 227 255 184 227 255 184 227 255 184 227 255 184 227 255 184 227 255 128 158 178 184 227 255 128 158 178 128 158 178 184 227 255 128 158 178 184 227 255 184 227 255 128 158 178 184 227 255 184 227 255 184 227 255 184 227 255 197 235 255 184 227 255 184 227 255 184 227 255 184 227 255 184 227 255 184 227 255 184 227 255 184 227 255 184 227 255 184 227 255 184 227 255 197 235 255 197 235 255 197 235 255 197 235 255 197 235 255 197 235 255 197 235 255 197 235 255 137 164 178 137 164 178 151 169 177 216 242 254 216 242 254 216 242 254 216 242 254 172 208 165 172 208 165 172 208 165 172 208 165 147 191 139 147 191 139 102 133 97 147 191 139 147 191 139 147 191 139 102 133 97 147 191 139 167 197 142 167 197 142 167 197 142 167 197 142 167 197 142 116 137 99 167 197 142 167 197 142 167 197 142 116 137 99 167 197 142 116 137 99 189 204 150 189 204 150 189 204 150 209 215 171 209 215 171 209 215 171 209 215 171 209 215 171 224 228 180 224 228 180 224 228 180 238 235 191 238 235 191 238 235 191 231 224 182 231 224 182 231 224 182 231 224 182 231 224 182 231 224 182 161 156 127 161 156 127 166 164 133 231 224 182 238 235 191 166 164 133 166 164 133 238 235 191 238 235 191 238 235 191 238 235 191 238 235 191 166 164 133 166 164 133 166 164 133 238 235 191 156 159 126 156 159 126 156 159 126 156 159 126 146 150 119 146 150 119 146 150 119 146 150 119 132 142 105 132 142 105 132 142 105 132 142 105 132 142 105 116 137 99 116 137 99 116 137 99 116 137 99 102 133 97 102 133 97 102 133 97 102 133 97 102 133 97 120 145 115 120 145 115 120 145 115 120 145 115 120 145 115 120 145 115 120 145 115 120 145 115 151 169 177 151 169 177 151 169 177 151 169 177 151 169 177 151 169 177 137 164 178 137 164 178 197 235 255 137 164 178 137 164 178 197 235 255 197 235 255 137 164 178 137 164 178 137 164 178 137 164 178 128 158 178 128 158 178 128 158 178 128 158 178 184 227 255 128 158 178 128 158 178 128 158 178 184 227 255 184 227 255 197 235 255 197 235 255 197 235 255 197 235 255 197 235 255 197 235 255 197 235 255 197 235 255 197 235 255 197 235 255 197 235 255 184 227 255 197 235 255 128 158 178 128 158 178 184 227 255 197 235 255 137 164 178 137 164 178 197 235 255 197 235 255 197 235 255 216 242 254 216 242 254 216 242 254 216 242 254 216 242 254 216 242 254 216 242 254 172 208 165 172 208 165 172 208 165 172 208 165 172 208 165 172 208 165 120 145 115 172 208 165 216 242 254 216 242 254 216 242 254 216 242 254 216 242 254 216 242 254 197 235 255 197 235 255 197 235 255 197 235 255 197 235 255 197 235 255 197 235 255 197 235 255

150 201 240 150 201 240 150 201 240 150 201 240 150 201 240 150 201 240 160 210 247 160 210 247 160 210 247 112 147 172 112 147 172 160 210 247 112 147 172 160 210 247 112 147 172 112 147 172 172 218 250 120 152 175 120 152 175 120 152 175 120 152 175 172 218 250 172 218 250 172 218 250 172 218 250 120 152 175 120 152 175 120 152 175 120 152 175 184 227 255 172 218 250 172 218 250 184 227 255 184 227 255 184 227 255 184 227 255 128 158 178 120 152 175 120 152 175 184 227 255 120 152 175 120 152 175 120 152 175 120 152 175 120 152 175 128 158 178 128 158 178 184 227 255 184 227 255 184 227 255 184 227 255 128 158 178 128 158 178 128 158 178 128 158 178 184 227 255 184 227 255 128 158 178 184 227 255 184 227 255 184 227 255 184 227 255 184 227 255 128 158 178 128 158 178 128 158 178 184 227 255 128 158 178 184 227 255 184 227 255 184 227 255 184 227 255 184 227 255 184 227 255 197 235 255 197 235 255 197 235 255 197 235 255 197 235 255 197 235 255 197 235 255 137 164 178 137 164 178 197 235 255 197 235 255 216 242 254 216 242 254 216 242 254 151 169 177 151 169 177 172 208 165 120 145 115 172 208 165 172 208 165 147 191 139 102 133 97 147 191 139 147 191 139 147 191 139 102 133 97 147 191 139 102 133 97 102 133 97 167 197 142 167 197 142 116 137 99 116 137 99 116 137 99 167 197 142 167 197 142 167 197 142 167 197 142 116 137 99 189 204 150 189 204 150 189 204 150 189 204 150 146 150 119 209 215 171 209 215 171 209 215 171 224 228 180 224 228 180 224 228 180 238 235 191 238 235 191 238 235 191 231 224 182 231 224 182 161 156 127 161 156 127 161 156 127 161 156 127 161 156 127 166 164 133 161 156 127 238 235 191 166 164 133 166 164 133 166 164 133 238 235 191 238 235 191 238 235 191 166 164 133 166 164 133 238 235 191 166 164 133 166 164 133 156 159 126 156 159 126 156 159 126 156 159 126 156 159 126 146 150 119 146 150 119 146 150 119 132 142 105 132 142 105 132 142 105 132 142 105 132 142 105 116 137 99 116 137 99 116 137 99 116 137 99 116 137 99 102 133 97 102 133 97 102 133 97 102 133 97 120 145 115 120 145 115 120 145 115 120 145 115 120 145 115 120 145 115 120 145 115 120 145 115 151 169 177 151 169 177 151 169 177 151 169 177 137 164 178 151 169 177 137 164 178 137 164 178 137 164 178 197 235 255 137 164 178 137 164 178 137 164 178 137 164 178 137 164 178 137 164 178 128 158 178 128 158 178 128 158 178 128 158 178 128 158 178 184 227 255 184 227 255 128 158 178 184 227 255 184 227 255 184 227 255 184 227 255 184 227 255 197 235 255 197 235 255 197 235 255 197 235 255 137 164 178 137 164 178 197 235 255 137 164 178 137 164 178 197 235 255 128 158 178 128 158 178 128 158 178 128 158 178 184 227 255 197 235 255 137 164 178 197 235 255 197 235 255 197 235 255 197 235 255 216 242 254 216 242 254 216 242 254 216 242 254 172 208 165 172 208 165 172 208 165 172 208 165 172 208 165 172 208 165 172 208 165 172 208 165 172 208 165 120 145 115 172 208 165 172 208 165 151 169 177 151 169 177 216 242 254 216 242 254 216 242 254 216 242 254 197 235 255 197 235 255 197 235 255 197 235 255 197 235 255 197 235 255 197 235 255

150 201 240 105 140 168 150 201 240 150 201 240 160 210 247 150 201 240 160 210 247 160 210 247 160 210 247 160 210 247 160 210 247 160 210 247 160 210 247 160 210 247 160 210 247 160 210 247 172 218 250 112 147 172 120 152 175 172 218 250 172 218 250 172 218 250 172 218 250 172 218 250 172 218 250 120 152 175 120 152 175 120 152 175 120 152 175 172 218 250 184 227 255 172 218 250 184 227 255 184 227 255 184 227 255 184 227 255 128 158 178 184 227 255 184 227 255 172 218 250 120 152 175 120 152 175 172 218 250 120 152 175 172 218 250 184 227 255 184 227 255 184 227 255 184 227 255 128 158 178 184 227 255 128 158 178 128 158 178 184 227 255 184 227 255 184 227 255 184 227 255 128 158 178 184 227 255 128 158 178 184 227 255 184 227 255 197 235 255 184 227 255 184 227 255 184 227 255 184 227 255 184 227 255 184 227 255 184 227 255 184 227 255 184 227 255 184 227 255 184 227 255 197 235 255 197 235 255 197 235 255 197 235 255 197 235 255 197 235 255 197 235 255 197 235 255 197 235 255 216 242 254 216 242 254 216 242 254 216 242 254 216 242 254 151 169 177 216 242 254 172 208 165 172 208 165 172 208 165 172 208 165 147 191 139 147 191 139 147 191 139 147 191 139 102 133 97 147 191 139 147 191 139 147 191 139 147 191 139 102 133 97 167 197 142 116 137 99 116 137 99 167 197 142 167 197 142 167 197 142 167 197 142 189 204 150 116 137 99 189 204 150 189 204 150 189 204 150 189 204 150 189 204 150 209 215 171 209 215 171 209 215 171 224 228 180 224 228 180 224 228 180 238 235 191 238 235 191 238 235 191 238 235 191 231 224 182 231 224 182 161 156 127 231 224 182 161 156 127 231 224 182 231 224 182 231 224 182 231 224 182 166 164 133 166 164 133 166 164 133 238 235 191 238 235 191 238 235 191 238 235 191 166 164 133 166 164 133 238 235 191 166 164 133 156 159 126 156 159 126 156 159 126 156 159 126 156 159 126 146 150 119 146 150 119 146 150 119 132 142 105 132 142 105 132 142 105 132 142 105 116 137 99 116 137 99 116 137 99 116 137 99 116 137 99 116 137 99 102 133 97 102 133 97 102 133 97 102 133 97 147 191 139 147 191 139 120 145 115 120 145 115 120 145 115 120 145 115 151 169 177 151 169 177 151 169 177 151 169 177 151 169 177 137 164 178 137 164 178 137 164 178 137 164 178 137 164 178 197 235 255 197 235 255 137 164 178 137 164 178 137 164 178 137 164 178 137 164 178 137 164 178 137 164 178 184 227 255 128 158 178 184 227 255 184 227 255 184 227 255 197 235 255 197 235 255 184 227 255 184 227 255 184 227 255 184 227 255 184 227 255 184 227 255 197 235 255 137 164 178 137 164 178 137 164 178 137 164 178 197 235 255 137 164 178 128 158 178 197 235 255 128 158 178 128 158 178 184 227 255 128 158 178 184 227 255 197 235 255 197 235 255 197 235 255 197 235 255 197 235 255 197 235 255 216 242 254 216 242 254 216 242 254 216 242 254 172 208 165 172 208 165 172 208 165 172 208 165 172 208 165 172 208 165 172 208 165 172 208 165 172 208 165 120 145 115 120 145 115 151 169 177 151 169 177 151 169 177 216 242 254 216 242 254 216 242 254 216 242 254 151 169 177 216 242 254 216 242 254 197 235 255 197 235 255 137 164 178 137 164 178

140 192 234 105 140 168 150 201 240 150 201 240 150 201 240 160 210 247 160 210 247 160 210 247 160 210 247 160 210 247 160 210 247 112 147 172 160 210 247 160 210 247 112 147 172 160 210 247 172 218 250 112 147 172 112 147 172 112 147 172 172 218 250 120 152 175 172 218 250 172 218 250 172 218 250 120 152 175 120 152 175 120 152 175 120 152 175 172 218 250 120 152 175 184 227 255 184 227 255 184 227 255 184 227 255 128 158 178 128 158 178 128 158 178 128 158 178 184 227 255 120 152 175 172 218 250 172 218 250 120 152 175 120 152 175 172 218 250 120 152 175 184 227 255 184 227 255 128 158 178 184 227 255 128 158 178 184 227 255 184 227 255 184 227 255 184 227 255 184 227 255 184 227 255 184 227 255 128 158 178 128 158 178 184 227 255 128 158 178 128 158 178 128 158 178 184 227 255 128 158 178 184 227 255 128 158 178 184 227 255 184 227 255 184 227 255 184 227 255 184 227 255 184 227 255 197 235 255 197 235 255 137 164 178 197 235 255 197 235 255 197 235 255 197 235 255 137 164 178 197 235 255 137 164 178 137 164 178 151 169 177 216 242 254 216 242 254 216 242 254 172 208 165 172 208 165 172 208 165 172 208 165 172 208 165 147 191 139 147 191 139 102 133 97 102 133 97 147 191 139 102 133 97 147 191 139 147 191 139 102 133 97 102 133 97 102 133 97 116 137 99 167 197 142 167 197 142 167 197 142 167 197 142 189 204 150 189 204 150 189 204 150 189 204 150 132 142 105 189 204 150 189 204 150 209 215 171 209 215 171 209 215 171 209 215 171 224 228 180 224 228 180 238 235 191 238 235 191 238 235 191 238 235 191 231 224 182 161 156 127 161 156 127 161 156 127 166 164 133 231 224 182 161 156 127 161 156 127 231 224 182 166 164 133 238 235 191 238 235 191 238 235 191 166 164 133 166 164 133 166 164 133 166 164 133 238 235 191 166 164 133 166 164 133 156 159 126 156 159 126 156 159 126 156 159 126 156 159 126 146 150 119 146 150 119 146 150 119 146 150 119 132 142 105 132 142 105 116 137 99 116 137 99 116 137 99 116 137 99 116 137 99 116 137 99 102 133 97 102 133 97 102 133 97 147 191 139 147 191 139 147 191 139 120 145 115 120 145 115 120 145 115 120 145 115 120 145 115 151 169 177 151 169 177 151 169 177 151 169 177 137 164 178 137 164 178 137 164 178 137 164 178 137 164 178 197 235 255 197 235 255 137 164 178 137 164 178 137 164 178 137 164 178 137 164 178 137 164 178 128 158 178 128 158 178 128 158 178 184 227 255 184 227 255 184 227 255 184 227 255 197 235 255 197 235 255 128 158 178 184 227 255 184 227 255 197 235 255 184 227 255 184 227 255 128 158 178 128 158 178 197 235 255 137 164 178 128 158 178 128 158 178 128 158 178 128 158 178 128 158 178 128 158 178 128 158 178 184 227 255 128 158 178 184 227 255 197 235 255 197 235 255 197 235 255 197 235 255 197 235 255 216 242 254 216 242 254 216 242 254 216 242 254 172 208 165 172 208 165 172 208 165 172 208 165 172 208 165 172 208 165 172 208 165 172 208 165 172 208 165 172 208 165 172 208 165 120 145 115 172 208 165 172 208 165 216 242 254 216 242 254 216 242 254 151 169 177 151 169 177 216 242 254 216 242 254 216 242 254 137 164 178 197 235 255 137 164 178 137 164 178

140 192 234 140 192 234 150 201 240 150 201 240 150 201 240 150 201 240 105 140 168 112 147 172 160 210 247 112 147 172 112 147 172 160 210 247 160 210 247 160 210 247 112 147 172 160 210 247 160 210 247 112 147 172 112 147 172 160 210 247 172 218 250 112 147 172 172 218 250 172 218 250 172 218 250 120 152 175 120 152 175 120 152 175 172 218 250 120 152 175 120 152 175 172 218 250 184 227 255 128 158 178 128 158 178 128 158 178 128 158 178 120 152 175 184 227 255 184 227 255 120 152 175 172 218 250 172 218 250 120 152 175 172 218 250 172 218 250 172 218 250 184 227 255 184 227 255 184 227 255 184 227 255 184 227 255 184 227 255 184 227 255 184 227 255 184 227 255 197 235 255 184 227 255 128 158 178 184 227 255 184 227 255 184 227 255 128 158 178 184 227 255 197 235 255 184 227 255 128 158 178 128 158 178 128 158 178 128 158 178 184 227 255 184 227 255 197 235 255 184 227 255 197 235 255 197 235 255 197 235 255 197 235 255 197 235 255 197 235 255 197 235 255 137 164 178 197 235 255 137 164 178 137 164 178 137 164 178 216 242 254 216 242 254 216 242 254 216 242 254 172 208 165 172 208 165 172 208 165 172 208 165 147 191 139 147 191 139 147 191 139 102 133 97 147 191 139 147 191 139 147 191 139 147 191 139 147 191 139 102 133 97 102 133 97 102 133 97 102 133 97 167 197 142 167 197 142 167 197 142 167 197 142 189 204 150 189 204 150 189 204 150 189 204 150 189 204 150 189 204 150 189 204 150 209 215 171 209 215 171 209 215 171 209 215 171 224 228 180 224 228 180 238 235 191 238 235 191 238 235 191 238 235 191 231 224 182 231 224 182 161 156 127 231 224 182 231 224 182 231 224 182 231 224 182 166 164 133 231 224 182 166 164 133 166 164 133 238 235 191 238 235 191 238 235 191 238 235 191 166 164 133 166 164 133 156 159 126 166 164 133 156 159 126 156 159 126 156 159 126 156 159 126 156 159 126 156 159 126 146 150 119 146 150 119 146 150 119 146 150 119 132 142 105 116 137 99 116 137 99 116 137 99 116 137 99 116 137 99 116 137 99 102 133 97 102 133 97 102 133 97 102 133 97 147 191 139 102 133 97 102 133 97 120 145 115 120 145 115 120 145 115 120 145 115 120 145 115 151 169 177 151 169 177 216 242 254 151 169 177 151 169 177 197 235 255 137 164 178 197 235 255 137 164 178 197 235 255 197 235 255 137 164 178 137 164 178 137 164 178 137 164 178 197 235 255 137 164 178 137 164 178 128 158 178 184 227 255 184 227 255 128 158 178 184 227 255 184 227 255 197 235 255 128 158 178 128 158 178 197 235 255 197 235 255 197 235 255 197 235 255 197 235 255 184 227 255 184 227 255 197 235 255 137 164 178 128 158 178 128 158 178 128 158 178 128 158 178 184 227 255 184 227 255 184 227 255 184 227 255 184 227 255 197 235 255 197 235 255 197 235 255 197 235 255 197 235 255 216 242 254 216 242 254 216 242 254 216 242 254 216 242 254 172 208 165 172 208 165 172 208 165 172 208 165 172 208 165 172 208 165 172 208 165 172 208 165 147 191 139 147 191 139 172 208 165 120 145 115 172 208 165 172 208 165 151 169 177 172 208 165 216 242 254 172 208 165 216 242 254 216 242 254 216 242 254 216 242 254 137 164 178 197 235 255 137 164 178 197 235 255

140 192 234 140 192 234 150 201 240 150 201 240 150 201 240 105 140 168 150 201 240 150 201 240 105 140 168 112 147 172 112 147 172 160 210 247 112 147 172 112 147 172 112 147 172 112 147 172 112 147 172 112 147 172 112 147 172 112 147 172 112 147 172 112 147 172 160 210 247 172 218 250 172 218 250 120 152 175 120 152 175 172 218 250 120 152 175 120 152 175 172 218 250 172 218 250 172 218 250 120 152 175 120 152 175 120 152 175 120 152 175 120 152 175 120 152 175 120 152 175 120 152 175 120 152 175 120 152 175 120 152 175 172 218 250 120 152 175 120 152 175 172 218 250 128 158 178 128 158 178 184 227 255 128 158 178 128 158 178 128 158 178 184 227 255 184 227 255 184 227 255 128 158 178 128 158 178 128 158 178 184 227 255 184 227 255 184 227 255 184 227 255 128 158 178 128 158 178 128 158 178 184 227 255 128 158 178 184 227 255 184 227 255 184 227 255 197 235 255 197 235 255 197 235 255 197 235 255 197 235 255 197 235 255 197 235 255 137 164 178 197 235 255 137 164 178 137 164 178 137 164 178 137 164 178 197 235 255 197 235 255 216 242 254 216 242 254 216 242 254 172 208 165 172 208 165 172 208 165 120 145 115 147 191 139 147 191 139 102 133 97 102 133 97 147 191 139 147 191 139 147 191 139 102 133 97 147 191 139 102 133 97 147 191 139 147 191 139 147 191 139 167 197 142 167 197 142 167 197 142 167 197 142 167 197 142 189 204 150 189 204 150 189 204 150 189 204 150 189 204 150 189 204 150 209 215 171 209 215 171 209 215 171 209 215 171 224 228 180 224 228 180 238 235 191 166 164 133 238 235 191 238 235 191 231 224 182 161 156 127 231 224 182 231 224 182 166 164 133 166 164 133 166 164 133 166 164 133 166 164 133 166 164 133 166 164 133 238 235 191 166 164 133 166 164 133 166 164 133 166 164 133 166 164 133 156 159 126 156 159 126 156 159 126 156 159 126 156 159 126 146 150 119 156 159 126 146 150 119 146 150 119 146 150 119 146 150 119 146 150 119 132 142 105 116 137 99 116 137 99 116 137 99 116 137 99 102 133 97 102 133 97 102 133 97 102 133 97 102 133 97 102 133 97 102 133 97 102 133 97 120 145 115 120 145 115 120 145 115 120 145 115 120 145 115 151 169 177 151 169 177 151 169 177 151 169 177 151 169 177 137 164 178 137 164 178 197 235 255 197 235 255 137 164 178 197 235 255 197 235 255 137 164 178 137 164 178 197 235 255 197 235 255 197 235 255 137 164 178 197 235 255 128 158 178 184 227 255 184 227 255 197 235 255 184 227 255 197 235 255 197 235 255 137 164 178 184 227 255 197 235 255 197 235 255 137 164 178 128 158 178 137 164 178 197 235 255 197 235 255 197 235 255 197 235 255 197 235 255 184 227 255 184 227 255 184 227 255 184 227 255 184 227 255 197 235 255 197 235 255 197 235 255 197 235 255 197 235 255 197 235 255 197 235 255 216 242 254 216 242 254 216 242 254 216 242 254 216 242 254 216 242 254 172 208 165 172 208 165 120 145 115 172 208 165 172 208 165 172 208 165 172 208 165 172 208 165 147 191 139 147 191 139 102 133 97 120 145 115 172 208 165 172 208 165 172 208 165 172 208 165 172 208 165 216 242 254 151 169 177 216 242 254 216 242 254 216 242 254 216 242 254 216 242 254 216 242 254 216 242 254

140 192 234 140 192 234 140 192 234 150 201 240 150 201 240 105 140 168 150 201 240 105 140 168 105 140 168 105 140 168 160 210 247 160 210 247 112 147 172 112 147 172 112 147 172 112 147 172 112 147 172 112 147 172 112 147 172 112 147 172 160 210 247 112 147 172 160 210 247 112 147 172 120 152 175 120 152 175 112 147 172 172 218 250 120 152 175 120 152 175 120 152 175 120 152 175 120 152 175 120 152 175 120 152 175 120 152 175 120 152 175 120 152 175 120 152 175 120 152 175 172 218 250 172 218 250 120 152 175 120 152 175 120 152 175 120 152 175 172 218 250 172 218 250 120 152 175 120 152 175 128 158 178 128 158 178 128 158 178 128 158 178 128 158 178 184 227 255 128 158 178 128 158 178 128 158 178 184 227 255 184 227 255 128 158 178 184 227 255 128 158 178 128 158 178 128 158 178 184 227 255 184 227 255 184 227 255 184 227 255 197 235 255 197 235 255 197 235 255 137 164 178 197 235 255 197 235 255 197 235 255 197 235 255 197 235 255 197 235 255 197 235 255 137 164 178 137 164 178 137 164 178 137 164 178 197 235 255 197 235 255 216 242 254 216 242 254 216 242 254 172 208 165 172 208 165 120 145 115 172 208 165 147 191 139 147 191 139 147 191 139 147 191 139 147 191 139 147 191 139 147 191 139 102 133 97 102 133 97 102 133 97 147 191 139 147 191 139 167 197 142 167 197 142 167 197 142 167 197 142 167 197 142 116 137 99 189 204 150 189 204 150 189 204 150 189 204 150 189 204 150 209 215 171 209 215 171 209 215 171 209 215 171 224 228 180 224 228 180 224 228 180 238 235 191 238 235 191 238 235 191 238 235 191 238 235 191 166 164 133 231 224 182 166 164 133 231 224 182 166 164 133 238 235 191 166 164 133 166 164 133 238 235 191 238 235 191 238 235 191 238 235 191 166 164 133 166 164 133 166 164 133 156 159 126 156 159 126 156 159 126 156 159 126 156 159 126 146 150 119 146 150 119 146 150 119 146 150 119 146 150 119 146 150 119 146 150 119 132 142 105 132 142 105 116 137 99 116 137 99 116 137 99 116 137 99 102 133 97 102 133 97 102 133 97 102 133 97 102 133 97 120 145 115 120 145 115 120 145 115 120 145 115 120 145 115 120 145 115 120 145 115 120 145 115 151 169 177 151 169 177 151 169 177 216 242 254 151 169 177 137 164 178 197 235 255 197 235 255 197 235 255 197 235 255 197 235 255 137 164 178 137 164 178 137 164 178 197 235 255 197 235 255 197 235 255 197 235 255 137 164 178 128 158 178 197 235 255 197 235 255 184 227 255 197 235 255 197 235 255 197 235 255 197 235 255 197 235 255 184 227 255 128 158 178 128 158 178 137 164 178 197 235 255 197 235 255 197 235 255 197 235 255 137 164 178 128 158 178 128 158 178 197 235 255 197 235 255 197 235 255 197 235 255 197 235 255 197 235 255 197 235 255 197 235 255 197 235 255 197 235 255 197 235 255 216 242 254 216 242 254 216 242 254 216 242 254 216 242 254 172 208 165 172 208 165 172 208 165 172 208 165 172 208 165 172 208 165 172 208 165 172 208 165 172 208 165 147 191 139 102 133 97 102 133 97 120 145 115 172 208 165 172 208 165 120 145 115 120 145 115 120 145 115 172 208 165 172 208 165 172 208 165 151 169 177 216 242 254 216 242 254 216 242 254 216 242 254 216 242 254

140 192 234 140 192 234 140 192 234 150 201 240 150 201 240 105 140 168 150 201 240 105 140 168 150 201 240 105 140 168 105 140 168 105 140 168 105 140 168 105 140 168 112 147 172 112 147 172 112 147 172 105 140 168 112 147 172 112 147 172 112 147 172 112 147 172 112 147 172 112 147 172 112 147 172 112 147 172 112 147 172 160 210 247 172 218 250 172 218 250 172 218 250 120 152 175 120 152 175 120 152 175 120 152 175 120 152 175 120 152 175 120 152 175 120 152 175 120 152 175 120 152 175 120 152 175 120 152 175 120 152 175 172 218 250 120 152 175 120 152 175 172 218 250 172 218 250 172 218 250 120 152 175 120 152 175 120 152 175 128 158 178 128 158 178 128 158 178 128 158 178 128 158 178 128 158 178 184 227 255 184 227 255 128 158 178 184 227 255 128 158 178 128 158 178 184 227 255 184 227 255 184 227 255 184 227 255 184 227 255 184 227 255 197 235 255 197 235 255 197 235 255 197 235 255 197 235 255 197 235 255 197 235 255 197 235 255 197 235 255 197 235 255 137 164 178 137 164 178 197 235 255 197 235 255 197 235 255 197 235 255 216 242 254 216 242 254 216 242 254 172 208 165 172 208 165 172 208 165 172 208 165 172 208 165 147 191 139 147 191 139 147 191 139 147 191 139 147 191 139 147 191 139 102 133 97 147 191 139 147 191 139 147 191 139 147 191 139 147 191 139 167 197 142 167 197 142 167 197 142 167 197 142 167 197 142 167 197 142 132 142 105 189 204 150 189 204 150 189 204 150 209 215 171 209 215 171 209 215 171 209 215 171 224 228 180 224 228 180 224 228 180 238 235 191 166 164 133 238 235 191 238 235 191 238 235 191 166 164 133 166 164 133 166 164 133 238 235 191 166 164 133 166 164 133 166 164 133 166 164 133 166 164 133 166 164 133 166 164 133 166 164 133 166 164 133 166 164 133 156 159 126 156 159 126 156 159 126 156 159 126 156 159 126 156 159 126 146 150 119 146 150 119 146 150 119 146 150 119 146 150 119 146 150 119 132 142 105 132 142 105 132 142 105 116 137 99 116 137 99 116 137 99 116 137 99 102 133 97 102 133 97 102 133 97 102 133 97 147 191 139 120 145 115 120 145 115 120 145 115 120 145 115 120 145 115 120 145 115 120 145 115 151 169 177 151 169 177 151 169 177 151 169 177 151 169 177 137 164 178 137 164 178 197 235 255 197 235 255 137 164 178 137 164 178 137 164 178 197 235 255 137 164 178 137 164 178 197 235 255 197 235 255 197 235 255 197 235 255 137 164 178 197 235 255 197 235 255 197 235 255 197 235 255 197 235 255 197 235 255 197 235 255 197 235 255 197 235 255 128 158 178 128 158 178 197 235 255 197 235 255 197 235 255 197 235 255 197 235 255 197 235 255 137 164 178 197 235 255 197 235 255 197 235 255 197 235 255 197 235 255 197 235 255 197 235 255 197 235 255 197 235 255 197 235 255 216 242 254 216 242 254 216 242 254 216 242 254 216 242 254 216 242 254 216 242 254 216 242 254 172 208 165 172 208 165 172 208 165 172 208 165 172 208 165 172 208 165 172 208 165 172 208 165 172 208 165 172 208 165 120 145 115 120 145 115 120 145 115 120 145 115 120 145 115 120 145 115 172 208 165 172 208 165 172 208 165 172 208 165 172 208 165 172 208 165 216 242 254 216 242 254 216 242 254 216 242 254 216 242 254

140 192 234 140 192 234 140 192 234 140 192 234 150 201 240 150 201 240 150 201 240 105 140 168 105 140 168 105 140 168 105 140 168 150 201 240 150 201 240 105 140 168 105 140 168 105 140 168 105 140 168 105 140 168 160 210 247 112 147 172 112 147 172 160 210 247 160 210 247 112 147 172 112 147 172 112 147 172 112 147 172 160 210 247 172 218 250 120 152 175 120 152 175 112 147 172 172 218 250 120 152 175 172 218 250 120 152 175 120 152 175 120 152 175 112 147 172 120 152 175 172 218 250 120 152 175 120 152 175 120 152 175 112 147 172 112 147 172 112 147 172 120 152 175 172 218 250 120 152 175 120 152 175 120 152 175 120 152 175 120 152 175 184 227 255 184 227 255 184 227 255 128 158 178 128 158 178 120 152 175 128 158 178 128 158 178 184 227 255 184 227 255 184 227 255 128 158 178 128 158 178 184 227 255 184 227 255 184 227 255 197 235 255 197 235 255 197 235 255 197 235 255 197 235 255 197 235 255 197 235 255 197 235 255 197 235 255 197 235 255 137 164 178 137 164 178 197 235 255 197 235 255 197 235 255 197 235 255 197 235 255 216 242 254 216 242 254 216 242 254 172 208 165 172 208 165 172 208 165 172 208 165 147 191 139 147 191 139 147 191 139 147 191 139 147 191 139 147 191 139 147 191 139 147 191 139 147 191 139 147 191 139 147 191 139 147 191 139 147 191 139 167 197 142 167 197 142 116 137 99 116 137 99 167 197 142 167 197 142 167 197 142 189 204 150 189 204 150 189 204 150 189 204 150 209 215 171 209 215 171 209 215 171 209 215 171 224 228 180 224 228 180 224 228 180 238 235 191 238 235 191 166 164 133 166 164 133 238 235 191 238 235 191 238 235 191 238 235 191 166 164 133 238 235 191 166 164 133 238 235 191 166 164 133 166 164 133 166 164 133 166 164 133 238 235 191 166 164 133 156 159 126 156 159 126 156 159 126 156 159 126 156 159 126 146 150 119 146 150 119 146 150 119 146 150 119 146 150 119 146 150 119 146 150 119 132 142 105 132 142 105 132 142 105 116 137 99 116 137 99 116 137 99 102 133 97 102 133 97 102 133 97 102 133 97 102 133 97 102 133 97 120 145 115 120 145 115 120 145 115 120 145 115 120 145 115 120 145 115 151 169 177 151 169 177 151 169 177 151 169 177 151 169 177 151 169 177 137 164 178 197 235 255 216 242 254 216 242 254 137 164 178 137 164 178 137 164 178 137 164 178 137 164 178 197 235 255 197 235 255 197 235 255 137 164 178 197 235 255 137 164 178 197 235 255 197 235 255 197 235 255 197 235 255 197 235 255 197 235 255 197 235 255 197 235 255 137 164 178 137 164 178 184 227 255 184 227 255 197 235 255 197 235 255 197 235 255 197 235 255 137 164 178 137 164 178 197 235 255 197 235 255 197 235 255 197 235 255 197 235 255 197 235 255 197 235 255 197 235 255 197 235 255 197 235 255 216 242 254 216 242 254 216 242 254 216 242 254 216 242 254 216 242 254 216 242 254 216 242 254 172 208 165 172 208 165 172 208 165 172 208 165 172 208 165 172 208 165 172 208 165 172 208 165 120 145 115 147 191 139 172 208 165 120 145 115 172 208 165 120 145 115 172 208 165 172 208 165 172 208 165 172 208 165 172 208 165 172 208 165 120 145 115 172 208 165 172 208 165 172 208 165 172 208 165 151 169 177 216 242 254

140 192 234 140 192 234 140 192 234 140 192 234 150 201 240 105 140 168 105 140 168 105 140 168 150 201 240 150 201 240 150 201 240 150 201 240 105 140 168 105 140 168 105 140 168 105 140 168 105 140 168 150 201 240 150 201 240 160 210 247 105 140 168 160 210 247 160 210 247 112 147 172 112 147 172 112 147 172 112 147 172 112 147 172 160 210 247 112 147 172 112 147 172 112 147 172 160 210 247 112 147 172 112 147 172 112 147 172 112 147 172 112 147 172 112 147 172 160 210 247 112 147 172 112 147 172 112 147 172 112 147 172 112 147 172 112 147 172 112 147 172 172 218 250 120 152 175 120 152 175 120 152 175 120 152 175 120 152 175 120 152 175 120 152 175 120 152 175 120 152 175 128 158 178 120 152 175 120 152 175 184 227 255 184 227 255 184 227 255 184 227 255 128 158 178 128 158 178 184 227 255 184 227 255 184 227 255 128 158 178 197 235 255 197 235 255 137 164 178 137 164 178 137 164 178 197 235 255 197 235 255 137 164 178 197 235 255 137 164 178 137 164 178 137 164 178 197 235 255 137 164 178 197 235 255 197 235 255 197 235 255 216 242 254 216 242 254 216 242 254 172 208 165 172 208 165 172 208 165 172 208 165 172 208 165 147 191 139 147 191 139 147 191 139 147 191 139 147 191 139 147 191 139 102 133 97 102 133 97 102 133 97 102 133 97 102 133 97 147 191 139 147 191 139 167 197 142 116 137 99 116 137 99 167 197 142 167 197 142 189 204 150 189 204 150 189 204 150 189 204 150 209 215 171 209 215 171 209 215 171 209 215 171 209 215 171 224 228 180 224 228 180 224 228 180 238 235 191 166 164 133 166 164 133 238 235 191 238 235 191 166 164 133 238 235 191 166 164 133 238 235 191 238 235 191 238 235 191 238 235 191 166 164 133 166 164 133 166 164 133 156 159 126 166 164 133 166 164 133 156 159 126 224 228 180 224 228 180 156 159 126 156 159 126 146 150 119 146 150 119 146 150 119 146 150 119 146 150 119 146 150 119 132 142 105 132 142 105 132 142 105 132 142 105 116 137 99 116 137 99 116 137 99 102 133 97 102 133 97 102 133 97 102 133 97 102 133 97 120 145 115 120 145 115 120 145 115 120 145 115 120 145 115 120 145 115 120 145 115 151 169 177 151 169 177 151 169 177 216 242 254 216 242 254 151 169 177 216 242 254 216 242 254 216 242 254 137 164 178 137 164 178 137 164 178 137 164 178 137 164 178 137 164 178 197 235 255 197 235 255 137 164 178 197 235 255 137 164 178 137 164 178 197 235 255 137 164 178 197 235 255 197 235 255 197 235 255 197 235 255 197 235 255 137 164 178 137 164 178 197 235 255 197 235 255 128 158 178 184 227 255 137 164 178 137 164 178 137 164 178 197 235 255 137 164 178 197 235 255 197 235 255 197 235 255 197 235 255 197 235 255 197 235 255 197 235 255 197 235 255 216 242 254 216 242 254 216 242 254 216 242 254 216 242 254 216 242 254 216 242 254 216 242 254 216 242 254 172 208 165 172 208 165 120 145 115 172 208 165 172 208 165 172 208 165 172 208 165 147 191 139 147 191 139 147 191 139 147 191 139 147 191 139 147 191 139 147 191 139 172 208 165 172 208 165 172 208 165 172 208 165 172 208 165 172 208 165 120 145 115 172 208 165 172 208 165 172 208 165 120 145 115 172 208 165 120 145 115 216 242 254

140 192 234 140 192 234 98 134 163 140 192 234 140 192 234 98 134 163 105 140 168 150 201 240 150 201 240 150 201 240 150 201 240 150 201 240 105 140 168 105 140 168 105 140 168 105 140 168 105 140 168 150 201 240 150 201 240 105 140 168 105 140 168 105 140 168 112 147 172 105 140 168 160 210 247 160 210 247 160 210 247 112 147 172 160 210 247 112 147 172 160 210 247 160 210 247 160 210 247 112 147 172 112 147 172 112 147 172 112 147 172 160 210 247 112 147 172 112 147 172 112 147 172 112 147 172 112 147 172 112 147 172 112 147 172 112 147 172 112 147 172 112 147 172 172 218 250 112 147 172 172 218 250 120 152 175 120 152 175 120 152 175 120 152 175 120 152 175 120 152 175 120 152 175 120 152 175 184 227 255 184 227 255 184 227 255 184 227 255 184 227 255 128 158 178 184 227 255 184 227 255 184 227 255 184 227 255 128 158 178 197 235 255 197 235 255 197 235 255 197 235 255 197 235 255 197 235 255 137 164 178 137 164 178 137 164 178 137 164 178 137 164 178 137 164 178 197 235 255 137 164 178 197 235 255 197 235 255 197 235 255 216 242 254 216 242 254 216 242 254 216 242 254 172 208 165 172 208 165 172 208 165 172 208 165 120 145 115 147 191 139 147 191 139 147 191 139 147 191 139 147 191 139 102 133 97 102 133 97 102 133 97 147 191 139 147 191 139 147 191 139 147 191 139 167 197 142 116 137 99 167 197 142 167 197 142 167 197 142 167 197 142 189 204 150 189 204 150 189 204 150 189 204 150 209 215 171 209 215 171 209 215 171 209 215 171 224 228 180 224 228 180 224 228 180 238 235 191 238 235 191 238 235 191 238 235 191 166 164 133 166 164 133 238 235 191 238 235 191 238 235 191 166 164 133 238 235 191 166 164 133 166 164 133 166 164 133 166 164 133 238 235 191 238 235 191 238 235 191 156 159 126 156 159 126 156 159 126 156 159 126 156 159 126 146 150 119 146 150 119 146 150 119 209 215 171 146 150 119 132 142 105 132 142 105 132 142 105 132 142 105 116 137 99 116 137 99 116 137 99 116 137 99 102 133 97 102 133 97 102 133 97 147 191 139 120 145 115 120 145 115 120 145 115 120 145 115 120 145 115 151 169 177 151 169 177 151 169 177 151 169 177 216 242 254 216 242 254 216 242 254 151 169 177 151 169 177 216 242 254 216 242 254 216 242 254 151 169 177 137 164 178 197 235 255 197 235 255 137 164 178 137 164 178 197 235 255 137 164 178 197 235 255 197 235 255 137 164 178 197 235 255 197 235 255 197 235 255 197 235 255 137 164 178 197 235 255 197 235 255 197 235 255 137 164 178 137 164 178 128 158 178 128 158 178 128 158 178 184 227 255 197 235 255 197 235 255 128 158 178 137 164 178 137 164 178 197 235 255 197 235 255 197 235 255 197 235 255 197 235 255 197 235 255 216 242 254 216 242 254 216 242 254 216 242 254 216 242 254 216 242 254 216 242 254 216 242 254 216 242 254 172 208 165 172 208 165 172 208 165 172 208 165 172 208 165 172 208 165 172 208 165 147 191 139 172 208 165 147 191 139 147 191 139 147 191 139 147 191 139 147 191 139 147 191 139 147 191 139 102 133 97 147 191 139 172 208 165 172 208 165 172 208 165 172 208 165 120 145 115 172 208 165 172 208 165 120 145 115 120 145 115 172 208 165 120 145 115 172 208 165

140 192 234 98 134 163 98 134 163 98 134 163 140 192 234 140 192 234 140 192 234 150 201 240 150 201 240 105 140 168 105 140 168 105 140 168 105 140 168 105 140 168 105 140 168 105 140 168 150 201 240 150 201 240 150 201 240 150 201 240 150 201 240 105 140 168 105 140 168 105 140 168 160 210 247 112 147 172 160 210 247 112 147 172 160 210 247 112 147 172 112 147 172 112 147 172 112 147 172 112 147 172 112 147 172 112 147 172 112 147 172 112 147 172 112 147 172 112 147 172 112 147 172 112 147 172 112 147 172 112 147 172 112 147 172 112 147 172 160 210 247 112 147 172 160 210 247 112 147 172 160 210 247 120 152 175 120 152 175 112 147 172 120 152 175 172 218 250 172 218 250 172 218 250 172 218 250 172 218 250 184 227 255 128 158 178 184 227 255 128 158 178 184 227 255 184 227 255 184 227 255 128 158 178 184 227 255 128 158 178 184 227 255 128 158 178 137 164 178 137 164 178 137 164 178 137 164 178 137 164 178 197 235 255 137 164 178 137 164 178 128 158 178 137 164 178 137 164 178 137 164 178 197 235 255 197 235 255 197 235 255 197 235 255 216 242 254 216 242 254 216 242 254 216 242 254 172 208 165 172 208 165 172 208 165 172 208 165 147 191 139 147 191 139 147 191 139 147 191 139 102 133 97 102 133 97 102 133 97 147 191 139 147 191 139 147 191 139 147 191 139 167 197 142 167 197 142 167 197 142 167 197 142 167 197 142 167 197 142 189 204 150 189 204 150 189 204 150 189 204 150 189 204 150 189 204 150 209 215 171 209 215 171 146 150 119 209 215 171 224 228 180 224 228 180 224 228 180 238 235 191 238 235 191 238 235 191 166 164 133 238 235 191 166 164 133 166 164 133 166 164 133 166 164 133 166 164 133 166 164 133 166 164 133 166 164 133 166 164 133 238 235 191 156 159 126 166 164 133 166 164 133 238 235 191 156 159 126 156 159 126 156 159 126 146 150 119 146 150 119 146 150 119 146 150 119 146 150 119 132 142 105 132 142 105 132 142 105 116 137 99 116 137 99 116 137 99 116 137 99 102 133 97 102 133 97 102 133 97 102 133 97 102 133 97 102 133 97 120 145 115 120 145 115 120 145 115 120 145 115 151 169 177 216 242 254 151 169 177 151 169 177 151 169 177 216 242 254 216 242 254 216 242 254 216 242 254 216 242 254 137 164 178 151 169 177 151 169 177 216 242 254 137 164 178 137 164 178 137 164 178 197 235 255 197 235 255 197 235 255 197 235 255 197 235 255 197 235 255 197 235 255 137 164 178 137 164 178 137 164 178 137 164 178 197 235 255 197 235 255 197 235 255 137 164 178 137 164 178 137 164 178 184 227 255 128 158 178 184 227 255 184 227 255 128 158 178 128 158 178 197 235 255 197 235 255 197 235 255 197 235 255 197 235 255 197 235 255 216 242 254 216 242 254 216 242 254 216 242 254 216 242 254 216 242 254 216 242 254 216 242 254 216 242 254 216 242 254 216 242 254 151 169 177 172 208 165 172 208 165 172 208 165 172 208 165 172 208 165 172 208 165 172 208 165 147 191 139 147 191 139 102 133 97 147 191 139 147 191 139 147 191 139 102 133 97 102 133 97 102 133 97 147 191 139 120 145 115 120 145 115 172 208 165 172 208 165 172 208 165 120 145 115 120 145 115 120 145 115 172 208 165 172 208 165 172 208 165 172 208 165

140 192 234 98 134 163 98 134 163 140 192 234 140 192 234 98 134 163 98 134 163 140 192 234 150 201 240 105 140 168 105 140 168 150 201 240 105 140 168 105 140 168 150 201 240 150 201 240 150 201 240 150 201 240 105 140 168 150 201 240 105 140 168 105 140 168 105 140 168 105 140 168 160 210 247 160 210 247 112 147 172 105 140 168 105 140 168 105 140 168 112 147 172 112 147 172 112 147 172 112 147 172 112 147 172 112 147 172 112 147 172 160 210 247 112 147 172 112 147 172 112 147 172 160 210 247 160 210 247 112 147 172 112 147 172 112 147 172 112 147 172 112 147 172 112 147 172 112 147 172 160 210 247 160 210 247 112 147 172 112 147 172 160 210 247 172 218 250 172 218 250 120 152 175 172 218 250 172 218 250 184 227 255 120 152 175 120 152 175 184 227 255 184 227 255 128 158 178 128 158 178 184 227 255 128 158 178 128 158 178 184 227 255 184 227 255 197 235 255 197 235 255 137 164 178 137 164 178 197 235 255 137 164 178 197 235 255 137 164 178 128 158 178 197 235 255 197 235 255 197 235 255 197 235 255 197 235 255 197 235 255 197 235 255 216 242 254 216 242 254 216 242 254 151 169 177 172 208 165 172 208 165 172 208 165 172 208 165 147 191 139 147 191 139 147 191 139 147 191 139 102 133 97 102 133 97 102 133 97 147 191 139 147 191 139 147 191 139 147 191 139 147 191 139 102 133 97 167 197 142 167 197 142 167 197 142 167 197 142 167 197 142 189 204 150 189 204 150 189 204 150 189 204 150 189 204 150 209 215 171 209 215 171 209 215 171 209 215 171 224 228 180 224 228 180 238 235 191 238 235 191 238 235 191 238 235 191 166 164 133 238 235 191 238 235 191 238 235 191 166 164 133 166 164 133 166 164 133 166 164 133 166 164 133 166 164 133 156 159 126 238 235 191 238 235 191 224 228 180 238 235 191 238 235 191 156 159 126 156 159 126 156 159 126 146 150 119 146 150 119 146 150 119 146 150 119 132 142 105 132 142 105 132 142 105 116 137 99 116 137 99 116 137 99 116 137 99 116 137 99 102 133 97 102 133 97 102 133 97 147 191 139 102 133 97 120 145 115 120 145 115 120 145 115 120 145 115 120 145 115 172 208 165 151 169 177 151 169 177 216 242 254 216 242 254 216 242 254 172 208 165 151 169 177 151 169 177 151 169 177 137 164 178 216 242 254 216 242 254 137 164 178 216 242 254 197 235 255 197 235 255 137 164 178 137 164 178 137 164 178 197 235 255 197 235 255 197 235 255 197 235 255 137 164 178 128 158 178 128 158 178 128 158 178 197 235 255 197 235 255 137 164 178 128 158 178 128 158 178 128 158 178 128 158 178 128 158 178 128 158 178 128 158 178 128 158 178 184 227 255 184 227 255 197 235 255 197 235 255 197 235 255 197 235 255 197 235 255 216 242 254 216 242 254 216 242 254 151 169 177 216 242 254 216 242 254 216 242 254 216 242 254 216 242 254 216 242 254 216 242 254 216 242 254 172 208 165 172 208 165 172 208 165 172 208 165 172 208 165 172 208 165 172 208 165 147 191 139 147 191 139 102 133 97 102 133 97 102 133 97 147 191 139 102 133 97 102 133 97 120 145 115 120 145 115 120 145 115 147 191 139 172 208 165 172 208 165 120 145 115 172 208 165 172 208 165 172 208 165 172 208 165 172 208 165 172 208 165 147 191 139

140 192 234 98 134 163 98 134 163 140 192 234 98 134 163 140 192 234 140 192 234 140 192 234 150 201 240 105 140 168 150 201 240 150 201 240 105 140 168 150 201 240 105 140 168 105 140 168 105 140 168 105 140 168 105 140 168 150 201 240 105 140 168 105 140 168 105 140 168 150 201 240 150 201 240 105 140 168 105 140 168 105 140 168 105 140 168 105 140 168 150 201 240 105 140 168 112 147 172 112 147 172 105 140 168 105 140 168 112 147 172 112 147 172 112 147 172 105 140 168 112 147 172 160 210 247 112 147 172 105 140 168 105 140 168 105 140 168 160 210 247 112 147 172 112 147 172 160 210 247 112 147 172 112 147 172 112 147 172 112 147 172 112 147 172 160 210 247 172 218 250 120 152 175 120 152 175 172 218 250 120 152 175 128 158 178 184 227 255 184 227 255 120 152 175 128 158 178 128 158 178 184 227 255 128 158 178 184 227 255 184 227 255 184 227 255 184 227 255 128 158 178 128 158 178 128 158 178 197 235 255 197 235 255 137 164 178 137 164 178 128 158 178 197 235 255 197 235 255 197 235 255 197 235 255 197 235 255 197 235 255 216 242 254 216 242 254 216 242 254 216 242 254 216 242 254 172 208 165 172 208 165 172 208 165 172 208 165 147 191 139 102 133 97 147 191 139 147 191 139 147 191 139 147 191 139 147 191 139 147 191 139 147 191 139 147 191 139 147 191 139 102 133 97 102 133 97 167 197 142 167 197 142 167 197 142 167 197 142 189 204 150 189 204 150 189 204 150 189 204 150 189 204 150 209 215 171 209 215 171 209 215 171 209 215 171 224 228 180 224 228 180 224 228 180 238 235 191 238 235 191 166 164 133 238 235 191 166 164 133 238 235 191 238 235 191 238 235 191 166 164 133 238 235 191 238 235 191 166 164 133 166 164 133 166 164 133 238 235 191 238 235 191 238 235 191 238 235 191 224 228 180 156 159 126 156 159 126 156 159 126 156 159 126 146 150 119 146 150 119 146 150 119 146 150 119 132 142 105 132 142 105 132 142 105 132 142 105 116 137 99 116 137 99 116 137 99 102 133 97 102 133 97 102 133 97 102 133 97 102 133 97 102 133 97 120 145 115 120 145 115 120 145 115 120 145 115 120 145 115 151 169 177 151 169 177 216 242 254 216 242 254 216 242 254 216 242 254 216 242 254 151 169 177 151 169 177 151 169 177 151 169 177 216 242 254 216 242 254 151 169 177 216 242 254 137 164 178 137 164 178 137 164 178 197 235 255 137 164 178 197 235 255 197 235 255 137 164 178 137 164 178 137 164 178 197 235 255 128 158 178 128 158 178 128 158 178 137 164 178 137 164 178 137 164 178 184 227 255 128 158 178 128 158 178 128 158 178 128 158 178 184 227 255 128 158 178 184 227 255 184 227 255 197 235 255 197 235 255 197 235 255 197 235 255 197 235 255 197 235 255 137 164 178 151 169 177 151 169 177 216 242 254 216 242 254 216 242 254 216 242 254 216 242 254 151 169 177 216 242 254 151 169 177 151 169 177 172 208 165 172 208 165 172 208 165 172 208 165 172 208 165 172 208 165 147 191 139 102 133 97 102 133 97 120 145 115 147 191 139 147 191 139 102 133 97 120 145 115 120 145 115 120 145 115 147 191 139 120 145 115 147 191 139 172 208 165 172 208 165 120 145 115 120 145 115 172 208 165 172 208 165 172 208 165 172 208 165 172 208 165

132 184 227 92 128 158 98 134 163 140 192 234 140 192 234 140 192 234 140 192 234 140 192 234 98 134 163 98 134 163 98 134 163 98 134 163 105 140 168 105 140 168 105 140 168 150 201 240 150 201 240 150 201 240 150 201 240 150 201 240 150 201 240 105 140 168 150 201 240 150 201 240 105 140 168 150 201 240 105 140 168 105 140 168 105 140 168 105 140 168 105 140 168 105 140 168 105 140 168 105 140 168 105 140 168 105 140 168 150 201 240 105 140 168 112 147 172 160 210 247 150 201 240 105 140 168 105 140 168 105 140 168 105 140 168 105 140 168 160 210 247 105 140 168 160 210 247 160 210 247 160 210 247 160 210 247 160 210 247 112 147 172 112 147 172 160 210 247 112 147 172 172 218 250 172 218 250 172 218 250 172 218 250 172 218 250 120 152 175 120 152 175 120 152 175 120 152 175 184 227 255 184 227 255 120 152 175 184 227 255 184 227 255 184 227 255 184 227 255 128 158 178 128 158 178 197 235 255 197 235 255 137 164 178 197 235 255 197 235 255 197 235 255 197 235 255 197 235 255 197 235 255 197 235 255 197 235 255 197 235 255 197 235 255 216 242 254 216 242 254 216 242 254 216 242 254 172 208 165 172 208 165 172 208 165 172 208 165 147 191 139 147 191 139 102 133 97 147 191 139 147 191 139 147 191 139 147 191 139 147 191 139 147 191 139 147 191 139 147 191 139 147 191 139 167 197 142 167 197 142 167 197 142 167 197 142 167 197 142 167 197 142 189 204 150 189 204 150 189 204 150 209 215 171 189 204 150 209 215 171 209 215 171 209 215 171 224 228 180 224 228 180 224 228 180 224 228 180 238 235 191 166 164 133 238 235 191 166 164 133 238 235 191 166 164 133 238 235 191 166 164 133 166 164 133 166 164 133 238 235 191 238 235 191 238 235 191 238 235 191 238 235 191 238 235 191 238 235 191 238 235 191 224 228 180 156 159 126 156 159 126 156 159 126 146 150 119 146 150 119 146 150 119 132 142 105 132 142 105 132 142 105 132 142 105 116 137 99 116 137 99 116 137 99 116 137 99 102 133 97 102 133 97 102 133 97 102 133 97 102 133 97 120 145 115 120 145 115 120 145 115 151 169 177 151 169 177 151 169 177 151 169 177 151 169 177 216 242 254 216 242 254 151 169 177 151 169 177 151 169 177 151 169 177 151 169 177 151 169 177 151 169 177 216 242 254 216 242 254 137 164 178 216 242 254 137 164 178 137 164 178 137 164 178 137 164 178 137 164 178 197 235 255 197 235 255 137 164 178 137 164 178 137 164 178 137 164 178 128 158 178 184 227 255 184 227 255 197 235 255 197 235 255 128 158 178 197 235 255 184 227 255 184 227 255 128 158 178 128 158 178 184 227 255 184 227 255 184 227 255 184 227 255 197 235 255 197 235 255 197 235 255 197 235 255 197 235 255 137 164 178 137 164 178 216 242 254 216 242 254 216 242 254 216 242 254 216 242 254 216 242 254 216 242 254 216 242 254 216 242 254 216 242 254 216 242 254 172 208 165 172 208 165 172 208 165 172 208 165 172 208 165 172 208 165 147 191 139 147 191 139 147 191 139 147 191 139 147 191 139 147 191 139 102 133 97 102 133 97 147 191 139 147 191 139 172 208 165 120 145 115 172 208 165 147 191 139 172 208 165 120 145 115 172 208 165 172 208 165 172 208 165 147 191 139 147 191 139 147 191 139

132 184 227 92 128 158 92 128 158 92 128 158 98 134 163 98 134 163 98 134 163 98 134 163 140 192 234 140 192 234 140 192 234 150 201 240 140 192 234 150 201 240 105 140 168 150 201 240 105 140 168 105 140 168 150 201 240 150 201 240 105 140 168 105 140 168 150 201 240 150 201 240 150 201 240 150 201 240 105 140 168 105 140 168 105 140 168 150 201 240 105 140 168 105 140 168 105 140 168 105 140 168 105 140 168 105 140 168 105 140 168 105 140 168 150 201 240 105 140 168 105 140 168 105 140 168 105 140 168 105 140 168 105 140 168 150 201 240 150 201 240 105 140 168 150 201 240 160 210 247 160 210 247 160 210 247 112 147 172 112 147 172 160 210 247 160 210 247 112 147 172 172 218 250 172 218 250 120 152 175 172 218 250 120 152 175 120 152 175 120 152 175 172 218 250 172 218 250 120 152 175 120 152 175 120 152 175 172 218 250 184 227 255 128 158 178 128 158 178 128 158 178 184 227 255 197 235 255 197 235 255 197 235 255 197 235 255 197 235 255 137 164 178 197 235 255 197 235 255 197 235 255 197 235 255 197 235 255 197 235 255 216 242 254 216 242 254 216 242 254 216 242 254 172 208 165 172 208 165 172 208 165 172 208 165 172 208 165 147 191 139 120 145 115 147 191 139 147 191 139 147 191 139 102 133 97 102 133 97 102 133 97 147 191 139 147 191 139 147 191 139 147 191 139 167 197 142 102 133 97 102 133 97 167 197 142 167 197 142 189 204 150 189 204 150 189 204 150 189 204 150 209 215 171 209 215 171 209 215 171 209 215 171 209 215 171 224 228 180 224 228 180 224 228 180 238 235 191 238 235 191 238 235 191 238 235 191 238 235 191 238 235 191 238 235 191 238 235 191 238 235 191 238 235 191 166 164 133 238 235 191 166 164 133 238 235 191 166 164 133 238 235 191 166 164 133 166 164 133 156 159 126 156 159 126 156 159 126 156 159 126 146 150 119 146 150 119 146 150 119 146 150 119 132 142 105 132 142 105 132 142 105 116 137 99 116 137 99 116 137 99 116 137 99 102 133 97 102 133 97 102 133 97 102 133 97 120 145 115 120 145 115 120 145 115 120 145 115 151 169 177 151 169 177 151 169 177 151 169 177 151 169 177 216 242 254 216 242 254 151 169 177 151 169 177 151 169 177 151 169 177 151 169 177 216 242 254 151 169 177 216 242 254 216 242 254 216 242 254 151 169 177 216 242 254 137 164 178 137 164 178 137 164 178 197 235 255 197 235 255 137 164 178 137 164 178 137 164 178 137 164 178 197 235 255 137 164 178 197 235 255 128 158 178 197 235 255 197 235 255 128 158 178 137 164 178 197 235 255 128 158 178 128 158 178 128 158 178 184 227 255 184 227 255 184 227 255 184 227 255 184 227 255 197 235 255 197 235 255 137 164 178 137 164 178 197 235 255 197 235 255 197 235 255 216 242 254 216 242 254 216 242 254 216 242 254 216 242 254 216 242 254 216 242 254 216 242 254 151 169 177 216 242 254 172 208 165 172 208 165 172 208 165 172 208 165 172 208 165 172 208 165 172 208 165 147 191 139 147 191 139 147 191 139 147 191 139 147 191 139 147 191 139 102 133 97 147 191 139 147 191 139 147 191 139 147 191 139 147 191 139 172 208 165 172 208 165 120 145 115 172 208 165 172 208 165 172 208 165 147 191 139 147 191 139 147 191 139 147 191 139

132 184 227 92 128 158 92 128 158 92 128 158 132 184 227 92 128 158 98 134 163 140 192 234 140 192 234 140 192 234 140 192 234 150 201 240 150 201 240 150 201 240 98 134 163 150 201 240 105 140 168 150 201 240 150 201 240 150 201 240 105 140 168 150 201 240 150 201 240 150 201 240 150 201 240 105 140 168 105 140 168 105 140 168 105 140 168 150 201 240 105 140 168 98 134 163 98 134 163 98 134 163 105 140 168 105 140 168 105 140 168 105 140 168 105 140 168 105 140 168 105 140 168 105 140 168 105 140 168 150 201 240 150 201 240 150 201 240 105 140 168 105 140 168 150 201 240 160 210 247 160 210 247 112 147 172 160 210 247 160 210 247 160 210 247 112 147 172 112 147 172 160 210 247 112 147 172 172 218 250 172 218 250 120 152 175 120 152 175 120 152 175 172 218 250 120 152 175 120 152 175 120 152 175 120 152 175 172 218 250 184 227 255 184 227 255 184 227 255 184 227 255 184 227 255 184 227 255 197 235 255 137 164 178 137 164 178 197 235 255 197 235 255 197 235 255 197 235 255 197 235 255 197 235 255 197 235 255 216 242 254 216 242 254 216 242 254 216 242 254 216 242 254 216 242 254 172 208 165 172 208 165 172 208 165 172 208 165 172 208 165 120 145 115 147 191 139 147 191 139 147 191 139 147 191 139 102 133 97 102 133 97 147 191 139 102 133 97 147 191 139 102 133 97 147 191 139 102 133 97 167 197 142 167 197 142 167 197 142 189 204 150 189 204 150 189 204 150 189 204 150 189 204 150 209 215 171 209 215 171 209 215 171 224 228 180 224 228 180 224 228 180 238 235 191 238 235 191 238 235 191 238 235 191 238 235 191 238 235 191 166 164 133 238 235 191 238 235 191 166 164 133 166 164 133 166 164 133 166 164 133 238 235 191 166 164 133 166 164 133 166 164 133 166 164 133 238 235 191 166 164 133 156 159 126 156 159 126 156 159 126 146 150 119 146 150 119 209 215 171 146 150 119 146 150 119 132 142 105 132 142 105 132 142 105 116 137 99 116 137 99 116 137 99 102 133 97 102 133 97 102 133 97 102 133 97 102 133 97 120 145 115 120 145 115 151 169 177 151 169 177 151 169 177 151 169 177 216 242 254 216 242 254 216 242 254 216 242 254 216 242 254 216 242 254 216 242 254 216 242 254 216 242 254 151 169 177 151 169 177 216 242 254 216 242 254 151 169 177 216 242 254 216 242 254 137 164 178 197 235 255 197 235 255 197 235 255 137 164 178 197 235 255 197 235 255 197 235 255 197 235 255 197 235 255 137 164 178 137 164 178 128 158 178 197 235 255 197 235 255 128 158 178 184 227 255 128 158 178 128 158 178 197 235 255 128 158 178 184 227 255 184 227 255 184 227 255 184 227 255 197 235 255 197 235 255 197 235 255 137 164 178 197 235 255 197 235 255 216 242 254 216 242 254 216 242 254 216 242 254 216 242 254 216 242 254 216 242 254 216 242 254 216 242 254 151 169 177 151 169 177 216 242 254 172 208 165 172 208 165 172 208 165 172 208 165 147 191 139 147 191 139 147 191 139 147 191 139 102 133 97 147 191 139 147 191 139 147 191 139 147 191 139 147 191 139 147 191 139 147 191 139 147 191 139 147 191 139 147 191 139 147 191 139 147 191 139 120 145 115 172 208 165 147 191 139 147 191 139 147 191 139 147 191 139 147 191 139 147 191 139

132 184 227 92 128 158 92 128 158 92 128 158 132 184 227 92 128 158 132 184 227 140 192 234 140 192 234 98 134 163 140 192 234 150 201 240 98 134 163 98 134 163 98 134 163 150 201 240 105 140 168 150 201 240 150 201 240 150 201 240 150 201 240 150 201 240 150 201 240 150 201 240 150 201 240 105 140 168 150 201 240 105 140 168 150 201 240 105 140 168 98 134 163 98 134 163 98 134 163 98 134 163 98 134 163 98 134 163 98 134 163 105 140 168 150 201 240 105 140 168 105 140 168 105 140 168 105 140 168 105 140 168 105 140 168 105 140 168 105 140 168 150 201 240 150 201 240 150 201 240 105 140 168 112 147 172 160 210 247 112 147 172 160 210 247 160 210 247 160 210 247 160 210 247 160 210 247 172 218 250 172 218 250 120 152 175 172 218 250 172 218 250 172 218 250 120 152 175 120 152 175 172 218 250 172 218 250 172 218 250 172 218 250 184 227 255 128 158 178 128 158 178 184 227 255 197 235 255 197 235 255 197 235 255 197 235 255 197 235 255 197 235 255 137 164 178 197 235 255 137 164 178 197 235 255 197 235 255 197 235 255 216 242 254 216 242 254 151 169 177 216 242 254 172 208 165 172 208 165 172 208 165 172 208 165 172 208 165 172 208 165 120 145 115 147 191 139 147 191 139 102 133 97 147 191 139 147 191 139 147 191 139 147 191 139 102 133 97 102 133 97 147 191 139 147 191 139 147 191 139 167 197 142 167 197 142 167 197 142 167 197 142 189 204 150 189 204 150 189 204 150 189 204 150 209 215 171 209 215 171 209 215 171 224 228 180 224 228 180 224 228 180 238 235 191 238 235 191 238 235 191 238 235 191 231 224 182 238 235 191 238 235 191 238 235 191 238 235 191 166 164 133 166 164 133 166 164 133 156 159 126 156 159 126 156 159 126 238 235 191 156 159 126 166 164 133 238 235 191 166 164 133 156 159 126 156 159 126 224 228 180 146 150 119 146 150 119 146 150 119 146 150 119 132 142 105 132 142 105 132 142 105 116 137 99 116 137 99 116 137 99 102 133 97 102 133 97 102 133 97 102 133 97 120 145 115 120 145 115 120 145 115 120 145 115 120 145 115 151 169 177 216 242 254 216 242 254 216 242 254 151 169 177 216 242 254 216 242 254 151 169 177 151 169 177 151 169 177 151 169 177 151 169 177 151 169 177 151 169 177 216 242 254 216 242 254 151 169 177 216 242 254 137 164 178 216 242 254 137 164 178 137 164 178 137 164 178 137 164 178 197 235 255 137 164 178 197 235 255 197 235 255 197 235 255 137 164 178 128 158 178 128 158 178 128 158 178 128 158 178 128 158 178 184 227 255 184 227 255 184 227 255 128 158 178 128 158 178 184 227 255 184 227 255 197 235 255 184 227 255 197 235 255 197 235 255 197 235 255 197 235 255 197 235 255 197 235 255 197 235 255 137 164 178 216 242 254 216 242 254 151 169 177 151 169 177 216 242 254 216 242 254 216 242 254 151 169 177 216 242 254 216 242 254 172 208 165 172 208 165 172 208 165 172 208 165 147 191 139 147 191 139 147 191 139 102 133 97 147 191 139 147 191 139 147 191 139 147 191 139 147 191 139 147 191 139 147 191 139 147 191 139 147 191 139 147 191 139 147 191 139 147 191 139 102 133 97 147 191 139 147 191 139 147 191 139 147 191 139 147 191 139 147 191 139 147 191 139 147 191 139

132 184 227 92 128 158 92 128 158 92 128 158 132 184 227 92 128 158 132 184 227 140 192 234 140 192 234 140 192 234 140 192 234 140 192 234 98 134 163 140 192 234 140 192 234 140 192 234 98 134 163 98 134 163 150 201 240 105 140 168 150 201 240 150 201 240 150 201 240 150 201 240 150 201 240 105 140 168 150 201 240 105 140 168 150 201 240 98 134 163 98 134 163 98 134 163 98 134 163 98 134 163 98 134 163 98 134 163 140 192 234 150 201 240 150 201 240 105 140 168 105 140 168 105 140 168 105 140 168 105 140 168 150 201 240 105 140 168 105 140 168 150 201 240 150 201 240 105 140 168 105 140 168 105 140 168 160 210 247 160 210 247 160 210 247 160 210 247 160 210 247 160 210 247 160 210 247 160 210 247 172 218 250 172 218 250 172 218 250 120 152 175 120 152 175 120 152 175 120 152 175 172 218 250 120 152 175 120 152 175 172 218 250 172 218 250 184 227 255 184 227 255 184 227 255 184 227 255 197 235 255 197 235 255 197 235 255 197 235 255 197 235 255 197 235 255 197 235 255 137 164 178 197 235 255 137 164 178 197 235 255 137 164 178 216 242 254 216 242 254 216 242 254 172 208 165 172 208 165 120 145 115 172 208 165 120 145 115 172 208 165 172 208 165 147 191 139 147 191 139 147 191 139 147 191 139 147 191 139 147 191 139 147 191 139 147 191 139 147 191 139 147 191 139 102 133 97 167 197 142 167 197 142 167 197 142 167 197 142 167 197 142 189 204 150 189 204 150 189 204 150 209 215 171 209 215 171 209 215 171 224 228 180 224 228 180 224 228 180 224 228 180 238 235 191 238 235 191 238 235 191 238 235 191 231 224 182 231 224 182 231 224 182 238 235 191 238 235 191 166 164 133 166 164 133 166 164 133 166 164 133 224 228 180 238 235 191 238 235 191 238 235 191 238 235 191 238 235 191 166 164 133 156 159 126 156 159 126 224 228 180 156 159 126 146 150 119 146 150 119 146 150 119 146 150 119 132 142 105 132 142 105 132 142 105 116 137 99 116 137 99 102 133 97 102 133 97 102 133 97 120 145 115 120 145 115 120 145 115 120 145 115 120 145 115 120 145 115 172 208 165 151 169 177 151 169 177 151 169 177 151 169 177 216 242 254 151 169 177 151 169 177 216 242 254 151 169 177 151 169 177 151 169 177 216 242 254 216 242 254 216 242 254 216 242 254 216 242 254 216 242 254 151 169 177 137 164 178 137 164 178 137 164 178 137 164 178 137 164 178 197 235 255 197 235 255 197 235 255 137 164 178 137 164 178 128 158 178 128 158 178 128 158 178 128 158 178 184 227 255 184 227 255 184 227 255 128 158 178 128 158 178 128 158 178 128 158 178 197 235 255 197 235 255 197 235 255 197 235 255 197 235 255 197 235 255 197 235 255 197 235 255 197 235 255 197 235 255 197 235 255 197 235 255 216 242 254 151 169 177 216 242 254 216 242 254 216 242 254 216 242 254 216 242 254 151 169 177 216 242 254 216 242 254 172 208 165 172 208 165 172 208 165 147 191 139 147 191 139 147 191 139 147 191 139 147 191 139 147 191 139 147 191 139 147 191 139 147 191 139 147 191 139 147 191 139 147 191 139 147 191 139 147 191 139 147 191 139 147 191 139 147 191 139 102 133 97 147 191 139 147 191 139 147 191 139 147 191 139 147 191 139 147 191 139 147 191 139 147 191 139

121 178 222 84 124 155 92 128 158 92 128 158 92 128 158 132 184 227 132 184 227 140 192 234 140 192 234 140 192 234 140 192 234 98 134 163 98 134 163 98 134 163 140 192 234 140 192 234 150 201 240 140 192 234 150 201 240 150 201 240 150 201 240 150 201 240 150 201 240 150 201 240 150 201 240 105 140 168 105 140 168 105 140 168 98 134 163 98 134 163 98 134 163 98 134 163 98 134 163 140 192 234 98 134 163 140 192 234 140 192 234 140 192 234 98 134 163 98 134 163 98 134 163 105 140 168 105 140 168 150 201 240 150 201 240 150 201 240 150 201 240 150 201 240 150 201 240 150 201 240 160 210 247 160 210 247 160 210 247 160 210 247 112 147 172 112 147 172 112 147 172 160 210 247 112 147 172 160 210 247 160 210 247 120 152 175 112 147 172 112 147 172 112 147 172 112 147 172 120 152 175 172 218 250 172 218 250 172 218 250 172 218 250 172 218 250 120 152 175 184 227 255 184 227 255 184 227 255 197 235 255 197 235 255 197 235 255 197 235 255 197 235 255 197 235 255 197 235 255 197 235 255 197 235 255 197 235 255 197 235 255 216 242 254 216 242 254 216 242 254 216 242 254 216 242 254 172 208 165 172 208 165 172 208 165 172 208 165 172 208 165 172 208 165 172 208 165 147 191 139 147 191 139 147 191 139 147 191 139 102 133 97 147 191 139 102 133 97 147 191 139 147 191 139 147 191 139 147 191 139 167 197 142 116 137 99 116 137 99 167 197 142 167 197 142 189 204 150 189 204 150 209 215 171 209 215 171 209 215 171 224 228 180 224 228 180 224 228 180 238 235 191 238 235 191 238 235 191 231 224 182 231 224 182 231 224 182 231 224 182 231 224 182 166 164 133 166 164 133 166 164 133 238 235 191 238 235 191 238 235 191 238 235 191 238 235 191 238 235 191 238 235 191 238 235 191 238 235 191 238 235 191 238 235 191 224 228 180 156 159 126 156 159 126 146 150 119 146 150 119 146 150 119 146 150 119 132 142 105 132 142 105 116 137 99 116 137 99 116 137 99 102 133 97 102 133 97 102 133 97 120 145 115 120 145 115 120 145 115 172 208 165 120 145 115 120 145 115 172 208 165 151 169 177 216 242 254 151 169 177 216 242 254 216 242 254 216 242 254 216 242 254 151 169 177 151 169 177 151 169 177 151 169 177 216 242 254 216 242 254 216 242 254 151 169 177 216 242 254 151 169 177 137 164 178 137 164 178 137 164 178 137 164 178 137 164 178 137 164 178 137 164 178 197 235 255 137 164 178 137 164 178 137 164 178 128 158 178 128 158 178 128 158 178 184 227 255 184 227 255 128 158 178 128 158 178 128 158 178 128 158 178 128 158 178 197 235 255 197 235 255 197 235 255 128 158 178 197 235 255 137 164 178 137 164 178 137 164 178 197 235 255 197 235 255 197 235 255 197 235 255 197 235 255 137 164 178 137 164 178 216 242 254 216 242 254 151 169 177 216 242 254 216 242 254 216 242 254 216 242 254 172 208 165 172 208 165 172 208 165 172 208 165 172 208 165 147 191 139 147 191 139 147 191 139 147 191 139 147 191 139 147 191 139 147 191 139 147 191 139 147 191 139 167 197 142 147 191 139 102 133 97 147 191 139 102 133 97 147 191 139 102 133 97 147 191 139 147 191 139 147 191 139 147 191 139 147 191 139 147 191 139 147 191 139 147 191 139 147 191 139

121 178 222 121 178 222 121 178 222 132 184 227 132 184 227 132 184 227 132 184 227 132 184 227 140 192 234 98 134 163 98 134 163 140 192 234 150 201 240 98 134 163 98 134 163 98 134 163 150 201 240 150 201 240 150 201 240 150 201 240 150 201 240 150 201 240 150 201 240 150 201 240 150 201 240 105 140 168 105 140 168 105 140 168 98 134 163 98 134 163 98 134 163 98 134 163 98 134 163 98 134 163 98 134 163 140 192 234 140 192 234 140 192 234 98 134 163 98 134 163 140 192 234 140 192 234 98 134 163 105 140 168 150 201 240 150 201 240 150 201 240 150 201 240 105 140 168 150 201 240 160 210 247 160 210 247 160 210 247 160 210 247 160 210 247 160 210 247 112 147 172 160 210 247 160 210 247 160 210 247 172 218 250 172 218 250 112 147 172 112 147 172 112 147 172 112 147 172 160 210 247 172 218 250 172 218 250 172 218 250 172 218 250 172 218 250 172 218 250 184 227 255 184 227 255 184 227 255 197 235 255 197 235 255 197 235 255 197 235 255 216 242 254 197 235 255 137 164 178 197 235 255 197 235 255 197 235 255 197 235 255 216 242 254 216 242 254 216 242 254 216 242 254 216 242 254 172 208 165 172 208 165 172 208 165 172 208 165 172 208 165 172 208 165 172 208 165 147 191 139 147 191 139 147 191 139 147 191 139 147 191 139 102 133 97 102 133 97 102 133 97 102 133 97 147 191 139 147 191 139 167 197 142 167 197 142 116 137 99 167 197 142 189 204 150 189 204 150 209 215 171 209 215 171 209 215 171 209 215 171 224 228 180 224 228 180 238 235 191 238 235 191 238 235 191 231 224 182 231 224 182 231 224 182 222 214 163 161 156 127 161 156 127 166 164 133 166 164 133 238 235 191 238 235 191 166 164 133 238 235 191 238 235 191 238 235 191 166 164 133 238 235 191 238 235 191 238 235 191 166 164 133 238 235 191 166 164 133 156 159 126 156 159 126 224 228 180 146 150 119 146 150 119 132 142 105 132 142 105 132 142 105 116 137 99 116 137 99 116 137 99 102 133 97 102 133 97 102 133 97 120 145 115 120 145 115 172 208 165 172 208 165 120 145 115 120 145 115 151 169 177 151 169 177 151 169 177 151 169 177 216 242 254 151 169 177 216 242 254 216 242 254 151 169 177 151 169 177 151 169 177 151 169 177 216 242 254 216 242 254 151 169 177 151 169 177 216 242 254 151 169 177 151 169 177 137 164 178 137 164 178 137 164 178 137 164 178 137 164 178 137 164 178 197 235 255 137 164 178 137 164 178 128 158 178 128 158 178 128 158 178 128 158 178 184 227 255 184 227 255 128 158 178 128 158 178 128 158 178 128 158 178 184 227 255 184 227 255 197 235 255 197 235 255 197 235 255 184 227 255 137 164 178 197 235 255 197 235 255 197 235 255 197 235 255 197 235 255 197 235 255 197 235 255 216 242 254 197 235 255 216 242 254 216 242 254 216 242 254 216 242 254 172 208 165 151 169 177 216 242 254 172 208 165 172 208 165 172 208 165 172 208 165 147 191 139 147 191 139 147 191 139 147 191 139 102 133 97 147 191 139 147 191 139 147 191 139 167 197 142 167 197 142 167 197 142 167 197 142 147 191 139 167 197 142 102 133 97 102 133 97 102 133 97 147 191 139 147 191 139 147 191 139 147 191 139 147 191 139 147 191 139 147 191 139 147 191 139 167 197 142

