P3
257 257
255
79 162 214 91 169 221 95 171 224 102 175 227 115 184 235 115 184 235 122 190 238 130 194 240 138 198 245 138 198 245 144 204 238 144 204 238 151 214 239 151 214 239 159 221 240 159 221 240 166 224 247 174 227 255 186 234 255 221 240 230 216 224 164 176 215 143 176 215 143 155 200 126 154 190 126 154 190 126 166 192 134 175 195 141 185 199 150 195 206 160 195 206 160 205 215 171 215 222 176 215 222 176 224 228 180 224 228 180 224 228 180 224 228 180 234 231 186 234 231 186 234 231 186 234 231 186 240 235 191 237 230 186 232 225 178 232 225 178 232 225 178 232 225 178 228 229 164 228 229 164 222 214 149 228 229 164 222 214 149 222 214 149 222 214 149 222 214 149 222 214 149 222 214 149 216 210 150 216 210 150 211 204 151 211 204 151 206 194 131 206 194 131 194 184 118 194 184 118 194 184 118 194 184 118 194 184 118 194 184 118 194 184 118 194 184 118 194 184 118 194 184 118 206 194 131 206 194 131 211 204 151 211 204 151 211 204 151 211 204 151 211 204 151 216 210 150 222 214 149 222 214 149 228 229 164 232 225 178 232 225 178 237 230 186 237 230 186 240 235 191 240 235 191 234 231 186 234 231 186 234 231 186 234 231 186 234 231 186 234 231 186 234 231 186 234 231 186 234 231 186 240 235 191 240 235 191 240 235 191 240 235 191 240 235 191 240 235 191 237 230 186 237 230 186 232 225 178 232 225 178 232 225 178 228 229 164 228 229 164 228 229 164 222 214 149 228 229 164 228 229 164 222 214 149 222 214 149 222 214 149 222 214 149 216 210 150 211 204 151 211 204 151 206 194 131 206 194 131 194 184 118 194 184 118 192 174 112 194 184 118 194 184 118 206 194 131 206 194 131 206 194 131 206 194 131 206 194 131 206 194 131 206 194 131 211 204 151 216 210 150 216 210 150 216 210 150 222 214 149 222 214 149 222 214 149 232 225 178 232 225 178 237 230 186 237 230 186 237 230 186 240 235 191 240 235 191 240 235 191 234 231 186 234 231 186 224 228 180 215 222 176 215 222 176 205 215 171 195 206 160 185 199 150 185 199 146 185 199 146 175 195 141 175 195 141 166 192 134 154 190 126 154 190 126 143 187 119 143 187 119 155 200 126 155 200 126 176 215 143 176 215 143 216 224 164 216 224 164 216 224 164 216 224 164 243 234 208 221 240 230 221 240 230 208 240 255 221 240 230 208 240 255 208 240 255 208 240 255 186 234 255 174 227 255 174 227 255 166 224 247 159 221 240 151 214 239 144 204 238 151 214 239 151 214 239 159 221 240 159 221 240 166 224 247 174 227 255 174 227 255 186 234 255 174 227 255 186 234 255 186 234 255 208 240 255 208 240 255 208 240 255 208 240 255 221 240 230 221 240 230 221 240 230 221 240 230 221 240 230 243 234 208 243 234 208 243 234 208 243 234 208 243 234 208 243 234 208 243 234 208 243 234 208 216 224 164 216 224 164 216 224 164 155 200 126 176 215 143 216 224 164 216 224 164 216 224 164 216 224 164 243 234 208 243 234 208 221 240 230 221 240 230 221 240 230 208 240 255 208 240 255 186 234 255 186 234 255 186 234 255 186 234 255 186 234 255 186 234 255 186 234 255 174 227 255 174 227 255 174 227 255 174 227 255 174 227 255 166 224 247 166 224 247 166 224 247 159 221 240 159 221 240 159 221 240 159 221 240 159 221 240

91 169 221 95 171 224 102 175 227 109 180 231 115 184 235 122 190 238 130 194 240 130 194 240 138 198 245 138 198 245 144 204 238 151 214 239 151 214 239 151 214 239 159 221 240 166 224 247 174 227 255 174 227 255 186 234 255 221 240 230 243 234 208 216 224 164 176 215 143 155 200 126 143 187 119 154 190 126 166 192 134 175 195 141 185 199 150 185 199 150 195 206 160 205 215 171 205 215 171 150 155 123 150 155 123 224 228 180 224 228 180 224 228 180 234 231 186 234 231 186 234 231 186 240 235 191 240 235 191 237 230 186 232 225 178 232 225 178 232 225 178 232 225 178 228 229 164 228 229 164 159 160 114 159 160 114 228 229 164 222 214 149 222 214 149 155 149 104 155 149 104 222 214 149 216 210 150 216 210 150 211 204 151 211 204 151 206 194 131 206 194 131 206 194 131 135 128 82 135 128 82 194 184 118 135 128 82 135 128 82 135 128 82 194 184 118 194 184 118 135 128 82 144 135 91 147 142 105 147 142 105 147 142 105 147 142 105 147 142 105 151 147 105 151 147 105 155 149 104 155 149 104 159 160 114 159 160 114 162 157 124 165 161 130 168 164 133 168 164 133 168 164 133 163 161 130 163 161 130 163 161 130 163 161 130 163 161 130 163 161 130 234 231 186 234 231 186 240 235 191 240 235 191 240 235 191 240 235 191 240 235 191 240 235 191 240 235 191 237 230 186 237 230 186 237 230 186 232 225 178 232 225 178 228 229 164 159 160 114 159 160 114 159 160 114 159 160 114 159 160 114 222 214 149 222 214 149 155 149 104 222 214 149 216 210 150 216 210 150 211 204 151 211 204 151 144 135 91 144 135 91 194 184 118 194 184 118 135 128 82 135 128 82 144 135 91 144 135 91 144 135 91 144 135 91 144 135 91 144 135 91 147 142 105 147 142 105 151 147 105 151 147 105 155 149 104 155 149 104 159 160 114 159 160 114 162 157 124 162 157 124 165 161 130 165 161 130 165 161 130 168 164 133 240 235 191 240 235 191 168 164 133 156 159 126 156 159 126 150 155 123 143 150 119 136 144 112 136 144 112 129 139 105 129 139 105 129 139 102 185 199 146 175 195 141 116 134 93 116 134 93 154 190 126 107 133 88 100 130 83 143 187 119 108 140 88 108 140 88 176 215 143 151 156 114 151 156 114 170 163 145 170 163 145 170 163 145 154 168 161 145 168 178 145 168 178 145 168 178 145 168 178 145 168 178 145 168 178 130 163 178 130 163 178 121 158 178 116 156 172 111 154 168 105 149 167 105 149 167 151 214 239 151 214 239 159 221 240 159 221 240 166 224 247 174 227 255 174 227 255 174 227 255 186 234 255 186 234 255 186 234 255 208 240 255 145 168 178 208 240 255 221 240 230 221 240 230 221 240 230 221 240 230 221 240 230 221 240 230 243 234 208 243 234 208 243 234 208 243 234 208 243 234 208 170 163 145 243 234 208 243 234 208 216 224 164 216 224 164 176 215 143 176 215 143 123 150 100 151 156 114 216 224 164 151 156 114 151 156 114 170 163 145 170 163 145 243 234 208 154 168 161 145 168 178 145 168 178 145 168 178 130 163 178 130 163 178 130 163 178 186 234 255 186 234 255 186 234 255 130 163 178 121 158 178 121 158 178 121 158 178 174 227 255 174 227 255 116 156 172 116 156 172 166 224 247 111 154 168 159 221 240 159 221 240 111 154 168 159 221 240

102 175 227 102 175 227 109 180 231 115 184 235 115 184 235 122 190 238 130 194 240 130 194 240 138 198 245 138 198 245 144 204 238 151 214 239 151 214 239 159 221 240 159 221 240 166 224 247 174 227 255 186 234 255 186 234 255 221 240 230 243 234 208 216 224 164 176 215 143 155 200 126 143 187 119 154 190 126 166 192 134 185 199 146 185 199 150 185 199 150 195 206 160 195 206 160 205 215 171 215 222 176 215 222 176 224 228 180 224 228 180 224 228 180 234 231 186 234 231 186 163 161 130 234 231 186 240 235 191 237 230 186 232 225 178 232 225 178 228 229 164 228 229 164 228 229 164 228 229 164 228 229 164 228 229 164 222 214 149 228 229 164 222 214 149 155 149 104 222 214 149 222 214 149 216 210 150 216 210 150 211 204 151 211 204 151 206 194 131 144 135 91 206 194 131 194 184 118 194 184 118 194 184 118 135 128 82 194 184 118 194 184 118 194 184 118 194 184 118 144 135 91 144 135 91 144 135 91 147 142 105 147 142 105 211 204 151 147 142 105 151 147 105 151 147 105 155 149 104 159 160 114 159 160 114 162 157 124 162 157 124 165 161 130 168 164 133 168 164 133 240 235 191 163 161 130 234 231 186 163 161 130 234 231 186 234 231 186 234 231 186 234 231 186 240 235 191 240 235 191 168 164 133 240 235 191 240 235 191 168 164 133 168 164 133 240 235 191 240 235 191 237 230 186 232 225 178 232 225 178 232 225 178 228 229 164 162 157 124 162 157 124 228 229 164 228 229 164 228 229 164 228 229 164 222 214 149 222 214 149 222 214 149 222 214 149 216 210 150 211 204 151 211 204 151 211 204 151 206 194 131 206 194 131 135 128 82 135 128 82 135 128 82 144 135 91 144 135 91 206 194 131 144 135 91 206 194 131 144 135 91 147 142 105 151 147 105 151 147 105 155 149 104 155 149 104 155 149 104 159 160 114 162 157 124 162 157 124 162 157 124 165 161 130 165 161 130 165 161 130 165 161 130 168 164 133 240 235 191 163 161 130 163 161 130 156 159 126 224 228 180 150 155 123 143 150 119 136 144 112 129 139 105 129 139 105 129 139 102 129 139 102 122 136 98 122 136 98 166 192 134 107 133 88 107 133 88 100 130 83 100 130 83 108 140 88 108 140 88 123 150 100 123 150 100 151 156 114 151 156 114 170 163 145 170 163 145 154 168 161 145 168 178 208 240 255 145 168 178 208 240 255 145 168 178 130 163 178 130 163 178 130 163 178 121 158 178 121 158 178 116 156 172 159 221 240 159 221 240 159 221 240 159 221 240 159 221 240 159 221 240 166 224 247 166 224 247 174 227 255 174 227 255 174 227 255 186 234 255 186 234 255 130 163 178 130 163 178 221 240 230 208 240 255 221 240 230 221 240 230 221 240 230 221 240 230 221 240 230 243 234 208 243 234 208 243 234 208 216 224 164 216 224 164 216 224 164 216 224 164 216 224 164 216 224 164 216 224 164 216 224 164 176 215 143 176 215 143 176 215 143 216 224 164 176 215 143 151 156 114 151 156 114 170 163 145 243 234 208 154 168 161 154 168 161 145 168 178 130 163 178 130 163 178 208 240 255 130 163 178 186 234 255 186 234 255 186 234 255 130 163 178 121 158 178 174 227 255 174 227 255 174 227 255 186 234 255 121 158 178 166 224 247 166 224 247 166 224 247 159 221 240 159 221 240 159 221 240 159 221 240

109 180 231 109 180 231 115 184 235 115 184 235 122 190 238 122 190 238 130 194 240 138 198 245 138 198 245 138 198 245 144 204 238 151 214 239 151 214 239 159 221 240 159 221 240 166 224 247 174 227 255 186 234 255 208 240 255 221 240 230 243 234 208 216 224 164 176 215 143 155 200 126 143 187 119 154 190 126 166 192 134 185 199 146 185 199 146 185 199 150 195 206 160 195 206 160 205 215 171 205 215 171 215 222 176 224 228 180 224 228 180 224 228 180 224 228 180 234 231 186 234 231 186 240 235 191 237 230 186 232 225 178 232 225 178 232 225 178 232 225 178 162 157 124 162 157 124 159 160 114 228 229 164 228 229 164 222 214 149 222 214 149 228 229 164 155 149 104 159 160 114 222 214 149 216 210 150 216 210 150 216 210 150 211 204 151 211 204 151 144 135 91 206 194 131 206 194 131 194 184 118 194 184 118 135 128 82 194 184 118 135 128 82 144 135 91 144 135 91 144 135 91 144 135 91 147 142 105 147 142 105 147 142 105 147 142 105 151 147 105 151 147 105 151 147 105 155 149 104 159 160 114 162 157 124 162 157 124 162 157 124 165 161 130 165 161 130 168 164 133 240 235 191 240 235 191 240 235 191 240 235 191 240 235 191 240 235 191 240 235 191 240 235 191 240 235 191 240 235 191 240 235 191 240 235 191 240 235 191 168 164 133 240 235 191 240 235 191 240 235 191 237 230 186 237 230 186 232 225 178 232 225 178 162 157 124 162 157 124 162 157 124 228 229 164 228 229 164 228 229 164 228 229 164 222 214 149 155 149 104 155 149 104 216 210 150 216 210 150 216 210 150 211 204 151 211 204 151 147 142 105 206 194 131 144 135 91 144 135 91 144 135 91 144 135 91 144 135 91 144 135 91 144 135 91 144 135 91 147 142 105 151 147 105 151 147 105 151 147 105 155 149 104 159 160 114 159 160 114 159 160 114 162 157 124 162 157 124 165 161 130 165 161 130 165 161 130 165 161 130 168 164 133 168 164 133 168 164 133 163 161 130 163 161 130 156 159 126 150 155 123 150 155 123 143 150 119 136 144 112 129 139 105 185 199 150 185 199 150 129 139 102 129 139 102 175 195 141 116 134 93 116 134 93 107 133 88 107 133 88 100 130 83 100 130 83 108 140 88 123 150 100 123 150 100 151 156 114 170 163 145 170 163 145 154 168 161 154 168 161 154 168 161 208 240 255 145 168 178 208 240 255 145 168 178 145 168 178 130 163 178 130 163 178 186 234 255 121 158 178 116 156 172 166 224 247 166 224 247 159 221 240 159 221 240 159 221 240 159 221 240 166 224 247 166 224 247 174 227 255 174 227 255 174 227 255 186 234 255 186 234 255 186 234 255 208 240 255 208 240 255 221 240 230 221 240 230 221 240 230 221 240 230 221 240 230 243 234 208 243 234 208 243 234 208 243 234 208 216 224 164 216 224 164 216 224 164 151 156 114 151 156 114 216 224 164 216 224 164 151 156 114 216 224 164 151 156 114 151 156 114 151 156 114 151 156 114 151 156 114 170 163 145 170 163 145 154 168 161 154 168 161 221 240 230 145 168 178 145 168 178 186 234 255 186 234 255 208 240 255 208 240 255 208 240 255 208 240 255 186 234 255 186 234 255 186 234 255 186 234 255 186 234 255 186 234 255 186 234 255 174 227 255 174 227 255 166 224 247 116 156 172 159 221 240 159 221 240 159 221 240

115 184 235 115 184 235 115 184 235 115 184 235 122 190 238 122 190 238 130 194 240 130 194 240 138 198 245 138 198 245 144 204 238 151 214 239 151 214 239 159 221 240 159 221 240 166 224 247 174 227 255 174 227 255 208 240 255 221 240 230 243 234 208 216 224 164 176 215 143 155 200 126 154 190 126 154 190 126 166 192 134 175 195 141 185 199 146 185 199 146 185 199 150 195 206 160 205 215 171 205 215 171 215 222 176 224 228 180 224 228 180 234 231 186 234 231 186 234 231 186 234 231 186 240 235 191 237 230 186 237 230 186 232 225 178 232 225 178 232 225 178 162 157 124 228 229 164 228 229 164 228 229 164 222 214 149 222 214 149 222 214 149 155 149 104 228 229 164 222 214 149 222 214 149 222 214 149 216 210 150 211 204 151 211 204 151 206 194 131 206 194 131 206 194 131 206 194 131 206 194 131 194 184 118 194 184 118 194 184 118 135 128 82 144 135 91 144 135 91 144 135 91 144 135 91 147 142 105 147 142 105 147 142 105 151 147 105 151 147 105 216 210 150 155 149 104 155 149 104 159 160 114 162 157 124 165 161 130 165 161 130 165 161 130 165 161 130 168 164 133 240 235 191 240 235 191 240 235 191 240 235 191 240 235 191 240 235 191 240 235 191 168 164 133 240 235 191 168 164 133 240 235 191 240 235 191 240 235 191 240 235 191 168 164 133 240 235 191 168 164 133 168 164 133 237 230 186 165 161 130 232 225 178 162 157 124 232 225 178 232 225 178 232 225 178 228 229 164 222 214 149 228 229 164 228 229 164 222 214 149 222 214 149 216 210 150 216 210 150 211 204 151 211 204 151 211 204 151 211 204 151 206 194 131 144 135 91 206 194 131 144 135 91 206 194 131 206 194 131 144 135 91 147 142 105 147 142 105 147 142 105 151 147 105 151 147 105 155 149 104 155 149 104 159 160 114 159 160 114 162 157 124 162 157 124 165 161 130 165 161 130 168 164 133 165 161 130 237 230 186 168 164 133 168 164 133 240 235 191 163 161 130 163 161 130 156 159 126 156 159 126 150 155 123 143 150 119 136 144 112 129 139 105 129 139 105 129 139 105 129 139 102 185 199 146 122 136 98 122 136 98 116 134 93 166 192 134 107 133 88 100 130 83 100 130 83 108 140 88 123 150 100 123 150 100 151 156 114 151 156 114 243 234 208 243 234 208 154 168 161 154 168 161 145 168 178 145 168 178 145 168 178 145 168 178 130 163 178 130 163 178 130 163 178 186 234 255 121 158 178 174 227 255 116 156 172 174 227 255 166 224 247 166 224 247 166 224 247 166 224 247 166 224 247 174 227 255 174 227 255 186 234 255 186 234 255 174 227 255 186 234 255 186 234 255 186 234 255 208 240 255 208 240 255 221 240 230 221 240 230 243 234 208 243 234 208 243 234 208 243 234 208 243 234 208 216 224 164 216 224 164 216 224 164 151 156 114 151 156 114 170 163 145 216 224 164 151 156 114 151 156 114 216 224 164 216 224 164 216 224 164 151 156 114 151 156 114 151 156 114 170 163 145 154 168 161 154 168 161 154 168 161 154 168 161 145 168 178 145 168 178 208 240 255 208 240 255 208 240 255 208 240 255 208 240 255 208 240 255 208 240 255 208 240 255 186 234 255 186 234 255 186 234 255 186 234 255 186 234 255 121 158 178 121 158 178 174 227 255 116 156 172 116 156 172 166 224 247 166 224 247

115 184 235 115 184 235 122 190 238 122 190 238 130 194 240 130 194 240 130 194 240 138 198 245 138 198 245 138 198 245 144 204 238 151 214 239 151 214 239 159 221 240 159 221 240 166 224 247 174 227 255 186 234 255 186 234 255 221 240 230 243 234 208 216 224 164 176 215 143 155 200 126 143 187 119 154 190 126 166 192 134 175 195 141 185 199 146 129 139 102 185 199 150 195 206 160 205 215 171 205 215 171 215 222 176 224 228 180 224 228 180 234 231 186 234 231 186 234 231 186 234 231 186 240 235 191 237 230 186 237 230 186 232 225 178 232 225 178 232 225 178 228 229 164 228 229 164 228 229 164 228 229 164 222 214 149 222 214 149 155 149 104 222 214 149 222 214 149 222 214 149 222 214 149 216 210 150 216 210 150 216 210 150 211 204 151 211 204 151 206 194 131 206 194 131 194 184 118 206 194 131 144 135 91 144 135 91 144 135 91 144 135 91 144 135 91 144 135 91 144 135 91 147 142 105 147 142 105 147 142 105 147 142 105 147 142 105 151 147 105 151 147 105 155 149 104 155 149 104 159 160 114 162 157 124 162 157 124 165 161 130 165 161 130 168 164 133 168 164 133 168 164 133 168 164 133 240 235 191 168 164 133 240 235 191 168 164 133 168 164 133 168 164 133 163 161 130 163 161 130 240 235 191 168 164 133 168 164 133 168 164 133 168 164 133 240 235 191 240 235 191 237 230 186 237 230 186 237 230 186 237 230 186 162 157 124 232 225 178 162 157 124 232 225 178 228 229 164 228 229 164 222 214 149 222 214 149 222 214 149 222 214 149 216 210 150 216 210 150 216 210 150 211 204 151 147 142 105 211 204 151 206 194 131 206 194 131 147 142 105 147 142 105 147 142 105 144 135 91 147 142 105 147 142 105 147 142 105 147 142 105 151 147 105 155 149 104 159 160 114 159 160 114 159 160 114 159 160 114 162 157 124 162 157 124 165 161 130 165 161 130 168 164 133 168 164 133 168 164 133 168 164 133 168 164 133 168 164 133 163 161 130 163 161 130 156 159 126 224 228 180 150 155 123 143 150 119 136 144 112 136 144 112 129 139 105 185 199 150 129 139 102 129 139 102 129 139 102 122 136 98 116 134 93 166 192 134 107 133 88 100 130 83 100 130 83 108 140 88 123 150 100 123 150 100 151 156 114 151 156 114 170 163 145 170 163 145 170 163 145 154 168 161 221 240 230 145 168 178 208 240 255 208 240 255 130 163 178 130 163 178 130 163 178 186 234 255 121 158 178 121 158 178 174 227 255 174 227 255 116 156 172 166 224 247 166 224 247 166 224 247 166 224 247 174 227 255 174 227 255 186 234 255 130 163 178 186 234 255 186 234 255 186 234 255 208 240 255 208 240 255 208 240 255 221 240 230 221 240 230 221 240 230 243 234 208 243 234 208 243 234 208 216 224 164 216 224 164 216 224 164 151 156 114 216 224 164 216 224 164 216 224 164 216 224 164 216 224 164 216 224 164 216 224 164 216 224 164 151 156 114 151 156 114 170 163 145 170 163 145 154 168 161 154 168 161 154 168 161 154 168 161 145 168 178 145 168 178 208 240 255 208 240 255 208 240 255 208 240 255 208 240 255 208 240 255 208 240 255 208 240 255 208 240 255 130 163 178 130 163 178 130 163 178 130 163 178 130 163 178 121 158 178 121 158 178 174 227 255 116 156 172 166 224 247 166 224 247 166 224 247

122 190 238 122 190 238 122 190 238 122 190 238 130 194 240 130 194 240 130 194 240 130 194 240 138 198 245 138 198 245 151 214 239 151 214 239 159 221 240 159 221 240 159 221 240 166 224 247 174 227 255 174 227 255 186 234 255 221 240 230 243 234 208 216 224 164 176 215 143 155 200 126 143 187 119 154 190 126 166 192 134 175 195 141 185 199 146 185 199 146 185 199 150 195 206 160 205 215 171 215 222 176 215 222 176 224 228 180 234 231 186 234 231 186 240 235 191 234 231 186 240 235 191 240 235 191 237 230 186 237 230 186 232 225 178 232 225 178 228 229 164 228 229 164 228 229 164 222 214 149 222 214 149 222 214 149 222 214 149 155 149 104 155 149 104 222 214 149 222 214 149 222 214 149 216 210 150 216 210 150 216 210 150 211 204 151 211 204 151 206 194 131 206 194 131 144 135 91 144 135 91 144 135 91 144 135 91 144 135 91 144 135 91 144 135 91 206 194 131 147 142 105 147 142 105 147 142 105 211 204 151 151 147 105 151 147 105 151 147 105 151 147 105 155 149 104 155 149 104 159 160 114 159 160 114 162 157 124 232 225 178 165 161 130 168 164 133 168 164 133 168 164 133 240 235 191 168 164 133 163 161 130 240 235 191 168 164 133 240 235 191 163 161 130 163 161 130 234 231 186 240 235 191 240 235 191 240 235 191 168 164 133 240 235 191 240 235 191 240 235 191 240 235 191 237 230 186 237 230 186 237 230 186 237 230 186 232 225 178 162 157 124 228 229 164 228 229 164 228 229 164 228 229 164 222 214 149 222 214 149 222 214 149 216 210 150 216 210 150 216 210 150 211 204 151 211 204 151 211 204 151 206 194 131 206 194 131 147 142 105 147 142 105 147 142 105 147 142 105 147 142 105 147 142 105 147 142 105 151 147 105 151 147 105 155 149 104 159 160 114 159 160 114 162 157 124 162 157 124 165 161 130 165 161 130 165 161 130 165 161 130 168 164 133 168 164 133 168 164 133 168 164 133 240 235 191 163 161 130 163 161 130 234 231 186 156 159 126 156 159 126 150 155 123 143 150 119 136 144 112 136 144 112 129 139 105 129 139 105 129 139 102 185 199 150 185 199 146 129 139 102 175 195 141 116 134 93 107 133 88 107 133 88 100 130 83 108 140 88 123 150 100 123 150 100 151 156 114 151 156 114 170 163 145 170 163 145 170 163 145 154 168 161 154 168 161 145 168 178 208 240 255 145 168 178 145 168 178 208 240 255 130 163 178 186 234 255 121 158 178 174 227 255 121 158 178 121 158 178 174 227 255 174 227 255 166 224 247 174 227 255 174 227 255 174 227 255 174 227 255 186 234 255 186 234 255 186 234 255 186 234 255 208 240 255 208 240 255 208 240 255 208 240 255 208 240 255 221 240 230 221 240 230 243 234 208 243 234 208 216 224 164 216 224 164 216 224 164 216 224 164 176 215 143 216 224 164 151 156 114 151 156 114 216 224 164 216 224 164 151 156 114 151 156 114 151 156 114 216 224 164 170 163 145 170 163 145 154 168 161 154 168 161 154 168 161 221 240 230 154 168 161 221 240 230 208 240 255 145 168 178 208 240 255 208 240 255 208 240 255 221 240 230 208 240 255 145 168 178 145 168 178 145 168 178 145 168 178 186 234 255 186 234 255 186 234 255 186 234 255 121 158 178 121 158 178 174 227 255 116 156 172 166 224 247 166 224 247 174 227 255

122 190 238 122 190 238 130 194 240 130 194 240 130 194 240 130 194 240 130 194 240 138 198 245 138 198 245 138 198 245 144 204 238 151 214 239 151 214 239 159 221 240 159 221 240 166 224 247 166 224 247 174 227 255 186 234 255 221 240 230 243 234 208 216 224 164 176 215 143 155 200 126 143 187 119 154 190 126 166 192 134 175 195 141 175 195 141 185 199 146 185 199 150 195 206 160 205 215 171 215 222 176 215 222 176 224 228 180 224 228 180 234 231 186 240 235 191 240 235 191 240 235 191 237 230 186 232 225 178 232 225 178 232 225 178 232 225 178 232 225 178 228 229 164 228 229 164 222 214 149 159 160 114 222 214 149 222 214 149 222 214 149 222 214 149 222 214 149 155 149 104 155 149 104 222 214 149 216 210 150 211 204 151 211 204 151 211 204 151 206 194 131 206 194 131 144 135 91 206 194 131 144 135 91 147 142 105 147 142 105 147 142 105 147 142 105 147 142 105 147 142 105 147 142 105 211 204 151 211 204 151 147 142 105 151 147 105 151 147 105 155 149 104 155 149 104 159 160 114 159 160 114 162 157 124 162 157 124 162 157 124 165 161 130 165 161 130 240 235 191 168 164 133 163 161 130 168 164 133 168 164 133 240 235 191 163 161 130 240 235 191 163 161 130 163 161 130 234 231 186 234 231 186 168 164 133 240 235 191 168 164 133 240 235 191 240 235 191 168 164 133 240 235 191 240 235 191 237 230 186 237 230 186 165 161 130 237 230 186 232 225 178 232 225 178 228 229 164 228 229 164 228 229 164 228 229 164 222 214 149 216 210 150 216 210 150 216 210 150 216 210 150 216 210 150 211 204 151 211 204 151 211 204 151 147 142 105 147 142 105 211 204 151 211 204 151 147 142 105 151 147 105 151 147 105 151 147 105 151 147 105 155 149 104 155 149 104 159 160 114 162 157 124 162 157 124 162 157 124 165 161 130 168 164 133 168 164 133 168 164 133 168 164 133 168 164 133 240 235 191 168 164 133 168 164 133 163 161 130 163 161 130 163 161 130 156 159 126 150 155 123 150 155 123 143 150 119 136 144 112 136 144 112 195 206 160 129 139 105 185 199 150 185 199 146 129 139 102 122 136 98 122 136 98 116 134 93 107 133 88 107 133 88 100 130 83 108 140 88 108 140 88 123 150 100 151 156 114 151 156 114 170 163 145 170 163 145 170 163 145 154 168 161 154 168 161 221 240 230 145 168 178 145 168 178 208 240 255 208 240 255 130 163 178 186 234 255 130 163 178 121 158 178 121 158 178 174 227 255 174 227 255 174 227 255 174 227 255 174 227 255 174 227 255 174 227 255 174 227 255 174 227 255 186 234 255 186 234 255 208 240 255 208 240 255 208 240 255 208 240 255 221 240 230 221 240 230 221 240 230 221 240 230 243 234 208 243 234 208 216 224 164 216 224 164 216 224 164 176 215 143 176 215 143 151 156 114 151 156 114 151 156 114 170 163 145 170 163 145 170 163 145 216 224 164 170 163 145 151 156 114 151 156 114 170 163 145 154 168 161 154 168 161 154 168 161 221 240 230 221 240 230 154 168 161 154 168 161 221 240 230 221 240 230 221 240 230 221 240 230 221 240 230 145 168 178 208 240 255 208 240 255 130 163 178 130 163 178 208 240 255 186 234 255 186 234 255 130 163 178 121 158 178 121 158 178 174 227 255 121 158 178 174 227 255 174 227 255 174 227 255

130 194 240 130 194 240 130 194 240 130 194 240 138 198 245 130 194 240 130 194 240 138 198 245 138 198 245 138 198 245 144 204 238 151 214 239 151 214 239 159 221 240 159 221 240 166 224 247 166 224 247 174 227 255 208 240 255 221 240 230 243 234 208 216 224 164 176 215 143 155 200 126 143 187 119 154 190 126 166 192 134 175 195 141 185 199 146 185 199 150 195 206 160 195 206 160 205 215 171 215 222 176 215 222 176 224 228 180 234 231 186 234 231 186 240 235 191 240 235 191 237 230 186 237 230 186 232 225 178 232 225 178 232 225 178 232 225 178 228 229 164 228 229 164 222 214 149 222 214 149 222 214 149 222 214 149 222 214 149 222 214 149 155 149 104 155 149 104 155 149 104 222 214 149 222 214 149 216 210 150 211 204 151 211 204 151 211 204 151 211 204 151 206 194 131 144 135 91 144 135 91 147 142 105 147 142 105 147 142 105 147 142 105 147 142 105 147 142 105 147 142 105 147 142 105 147 142 105 211 204 151 147 142 105 151 147 105 151 147 105 216 210 150 155 149 104 159 160 114 159 160 114 159 160 114 162 157 124 165 161 130 165 161 130 168 164 133 168 164 133 168 164 133 240 235 191 234 231 186 163 161 130 240 235 191 163 161 130 163 161 130 163 161 130 163 161 130 234 231 186 163 161 130 240 235 191 240 235 191 240 235 191 237 230 186 240 235 191 240 235 191 240 235 191 168 164 133 240 235 191 165 161 130 237 230 186 237 230 186 237 230 186 232 225 178 232 225 178 228 229 164 228 229 164 228 229 164 222 214 149 216 210 150 216 210 150 216 210 150 211 204 151 211 204 151 211 204 151 211 204 151 211 204 151 206 194 131 147 142 105 211 204 151 147 142 105 147 142 105 151 147 105 151 147 105 155 149 104 216 210 150 159 160 114 159 160 114 162 157 124 162 157 124 165 161 130 165 161 130 165 161 130 168 164 133 168 164 133 168 164 133 240 235 191 168 164 133 168 164 133 163 161 130 163 161 130 240 235 191 163 161 130 163 161 130 156 159 126 150 155 123 150 155 123 143 150 119 143 150 119 195 206 160 195 206 160 195 206 160 185 199 150 185 199 150 185 199 146 129 139 102 122 136 98 116 134 93 107 133 88 154 190 126 100 130 83 100 130 83 108 140 88 155 200 126 176 215 143 151 156 114 170 163 145 170 163 145 243 234 208 243 234 208 221 240 230 154 168 161 221 240 230 208 240 255 208 240 255 145 168 178 145 168 178 186 234 255 130 163 178 186 234 255 174 227 255 121 158 178 174 227 255 174 227 255 174 227 255 174 227 255 174 227 255 174 227 255 174 227 255 174 227 255 186 234 255 208 240 255 208 240 255 221 240 230 221 240 230 221 240 230 221 240 230 221 240 230 221 240 230 221 240 230 243 234 208 243 234 208 216 224 164 176 215 143 176 215 143 176 215 143 176 215 143 176 215 143 216 224 164 151 156 114 170 163 145 170 163 145 243 234 208 243 234 208 170 163 145 216 224 164 170 163 145 170 163 145 154 168 161 154 168 161 154 168 161 145 168 178 154 168 161 154 168 161 221 240 230 221 240 230 221 240 230 221 240 230 221 240 230 221 240 230 221 240 230 221 240 230 145 168 178 130 163 178 130 163 178 186 234 255 130 163 178 130 163 178 130 163 178 121 158 178 121 158 178 174 227 255 174 227 255 121 158 178 174 227 255 186 234 255

130 194 240 130 194 240 130 194 240 130 194 240 130 194 240 91 135 168 130 194 240 138 198 245 138 198 245 144 204 238 144 204 238 151 214 239 151 214 239 159 221 240 159 221 240 166 224 247 174 227 255 186 234 255 208 240 255 221 240 230 243 234 208 216 224 164 176 215 143 155 200 126 143 187 119 154 190 126 166 192 134 166 192 134 175 195 141 185 199 150 195 206 160 205 215 171 205 215 171 215 222 176 215 222 176 224 228 180 224 228 180 234 231 186 240 235 191 240 235 191 237 230 186 237 230 186 232 225 178 232 225 178 232 225 178 228 229 164 228 229 164 228 229 164 222 214 149 155 149 104 222 214 149 222 214 149 222 214 149 155 149 104 155 149 104 155 149 104 159 160 114 155 149 104 155 149 104 216 210 150 216 210 150 151 147 105 147 142 105 151 147 105 147 142 105 147 142 105 147 142 105 147 142 105 147 142 105 147 142 105 151 147 105 151 147 105 151 147 105 151 147 105 147 142 105 151 147 105 151 147 105 151 147 105 151 147 105 151 147 105 151 147 105 155 149 104 155 149 104 159 160 114 162 157 124 162 157 124 162 157 124 165 161 130 168 164 133 240 235 191 240 235 191 240 235 191 168 164 133 234 231 186 240 235 191 163 161 130 234 231 186 234 231 186 234 231 186 234 231 186 234 231 186 240 235 191 168 164 133 240 235 191 168 164 133 168 164 133 168 164 133 168 164 133 240 235 191 168 164 133 240 235 191 237 230 186 165 161 130 237 230 186 232 225 178 232 225 178 232 225 178 159 160 114 228 229 164 222 214 149 222 214 149 216 210 150 216 210 150 216 210 150 211 204 151 147 142 105 151 147 105 151 147 105 151 147 105 147 142 105 151 147 105 151 147 105 151 147 105 155 149 104 155 149 104 155 149 104 155 149 104 159 160 114 162 157 124 162 157 124 162 157 124 165 161 130 168 164 133 168 164 133 168 164 133 168 164 133 168 164 133 163 161 130 163 161 130 163 161 130 163 161 130 163 161 130 163 161 130 156 159 126 156 159 126 150 155 123 150 155 123 150 155 123 143 150 119 143 150 119 136 144 112 136 144 112 195 206 160 136 144 112 185 199 150 129 139 102 129 139 102 122 136 98 122 136 98 116 134 93 154 190 126 107 133 88 143 187 119 143 187 119 155 200 126 108 140 88 123 150 100 151 156 114 243 234 208 243 234 208 170 163 145 154 168 161 221 240 230 221 240 230 145 168 178 145 168 178 208 240 255 208 240 255 130 163 178 130 163 178 186 234 255 130 163 178 121 158 178 174 227 255 186 234 255 186 234 255 186 234 255 186 234 255 186 234 255 186 234 255 208 240 255 208 240 255 208 240 255 221 240 230 221 240 230 221 240 230 221 240 230 221 240 230 221 240 230 221 240 230 243 234 208 243 234 208 216 224 164 216 224 164 216 224 164 176 215 143 176 215 143 151 156 114 123 150 100 151 156 114 151 156 114 216 224 164 216 224 164 216 224 164 170 163 145 170 163 145 243 234 208 170 163 145 170 163 145 170 163 145 154 168 161 154 168 161 221 240 230 221 240 230 221 240 230 221 240 230 221 240 230 221 240 230 221 240 230 221 240 230 221 240 230 154 168 161 145 168 178 145 168 178 145 168 178 186 234 255 130 163 178 186 234 255 130 163 178 130 163 178 121 158 178 174 227 255 174 227 255 174 227 255 121 158 178 174 227 255 174 227 255

138 198 245 138 198 245 138 198 245 138 198 245 138 198 245 138 198 245 138 198 245 138 198 245 138 198 245 144 204 238 144 204 238 151 214 239 159 221 240 159 221 240 166 224 247 166 224 247 174 227 255 186 234 255 208 240 255 221 240 230 243 234 208 216 224 164 176 215 143 155 200 126 143 187 119 154 190 126 166 192 134 175 195 141 185 199 146 185 199 150 195 206 160 205 215 171 205 215 171 215 222 176 224 228 180 224 228 180 234 231 186 240 235 191 240 235 191 237 230 186 237 230 186 237 230 186 232 225 178 232 225 178 232 225 178 228 229 164 228 229 164 228 229 164 228 229 164 159 160 114 222 214 149 222 214 149 222 214 149 155 149 104 155 149 104 222 214 149 159 160 114 228 229 164 222 214 149 222 214 149 216 210 150 151 147 105 151 147 105 151 147 105 151 147 105 151 147 105 147 142 105 147 142 105 147 142 105 151 147 105 151 147 105 216 210 150 151 147 105 151 147 105 211 204 151 151 147 105 151 147 105 151 147 105 216 210 150 155 149 104 155 149 104 155 149 104 159 160 114 159 160 114 159 160 114 162 157 124 162 157 124 165 161 130 165 161 130 240 235 191 237 230 186 168 164 133 240 235 191 163 161 130 240 235 191 163 161 130 163 161 130 234 231 186 234 231 186 234 231 186 163 161 130 234 231 186 240 235 191 240 235 191 240 235 191 240 235 191 168 164 133 163 161 130 168 164 133 168 164 133 237 230 186 237 230 186 237 230 186 232 225 178 232 225 178 232 225 178 232 225 178 162 157 124 159 160 114 222 214 149 222 214 149 216 210 150 216 210 150 151 147 105 151 147 105 151 147 105 151 147 105 151 147 105 151 147 105 151 147 105 151 147 105 155 149 104 155 149 104 155 149 104 155 149 104 159 160 114 159 160 114 162 157 124 162 157 124 165 161 130 165 161 130 168 164 133 168 164 133 163 161 130 163 161 130 163 161 130 163 161 130 163 161 130 163 161 130 156 159 126 156 159 126 156 159 126 156 159 126 150 155 123 150 155 123 150 155 123 150 155 123 150 155 123 143 150 119 143 150 119 136 144 112 136 144 112 195 206 160 136 144 112 129 139 105 129 139 105 129 139 102 122 136 98 122 136 98 116 134 93 107 133 88 107 133 88 107 133 88 100 130 83 100 130 83 108 140 88 123 150 100 151 156 114 216 224 164 170 163 145 170 163 145 170 163 145 243 234 208 154 168 161 154 168 161 208 240 255 208 240 255 145 168 178 130 163 178 186 234 255 186 234 255 186 234 255 186 234 255 186 234 255 186 234 255 186 234 255 186 234 255 186 234 255 208 240 255 208 240 255 221 240 230 221 240 230 221 240 230 221 240 230 221 240 230 221 240 230 221 240 230 221 240 230 221 240 230 221 240 230 243 234 208 216 224 164 216 224 164 216 224 164 176 215 143 176 215 143 176 215 143 151 156 114 216 224 164 151 156 114 216 224 164 151 156 114 216 224 164 170 163 145 170 163 145 243 234 208 170 163 145 170 163 145 170 163 145 243 234 208 154 168 161 221 240 230 221 240 230 221 240 230 243 234 208 221 240 230 243 234 208 221 240 230 221 240 230 221 240 230 243 234 208 154 168 161 145 168 178 145 168 178 130 163 178 130 163 178 130 163 178 186 234 255 130 163 178 186 234 255 186 234 255 186 234 255 174 227 255 121 158 178 121 158 178 174 227 255 174 227 255

138 198 245 138 198 245 138 198 245 138 198 245 96 138 171 138 198 245 138 198 245 138 198 245 138 198 245 144 204 238 144 204 238 151 214 239 159 221 240 159 221 240 166 224 247 174 227 255 174 227 255 186 234 255 208 240 255 221 240 230 216 224 164 176 215 143 155 200 126 155 200 126 154 190 126 154 190 126 166 192 134 175 195 141 185 199 146 185 199 150 195 206 160 205 215 171 215 222 176 215 222 176 224 228 180 234 231 186 234 231 186 240 235 191 240 235 191 237 230 186 237 230 186 237 230 186 232 225 178 162 157 124 232 225 178 162 157 124 162 157 124 159 160 114 159 160 114 159 160 114 222 214 149 155 149 104 222 214 149 155 149 104 222 214 149 159 160 114 159 160 114 228 229 164 228 229 164 222 214 149 222 214 149 155 149 104 155 149 104 151 147 105 151 147 105 151 147 105 151 147 105 151 147 105 151 147 105 151 147 105 216 210 150 151 147 105 151 147 105 216 210 150 216 210 150 151 147 105 155 149 104 151 147 105 151 147 105 155 149 104 155 149 104 155 149 104 159 160 114 159 160 114 159 160 114 162 157 124 162 157 124 162 157 124 165 161 130 237 230 186 240 235 191 168 164 133 168 164 133 168 164 133 240 235 191 163 161 130 234 231 186 234 231 186 163 161 130 234 231 186 163 161 130 234 231 186 240 235 191 168 164 133 240 235 191 168 164 133 240 235 191 163 161 130 234 231 186 240 235 191 240 235 191 237 230 186 165 161 130 237 230 186 165 161 130 162 157 124 162 157 124 162 157 124 232 225 178 228 229 164 222 214 149 222 214 149 155 149 104 155 149 104 155 149 104 155 149 104 155 149 104 151 147 105 155 149 104 155 149 104 155 149 104 155 149 104 155 149 104 159 160 114 159 160 114 162 157 124 162 157 124 165 161 130 165 161 130 165 161 130 165 161 130 168 164 133 163 161 130 163 161 130 163 161 130 163 161 130 234 231 186 156 159 126 156 159 126 156 159 126 156 159 126 156 159 126 156 159 126 150 155 123 150 155 123 150 155 123 150 155 123 143 150 119 143 150 119 136 144 112 136 144 112 136 144 112 195 206 160 136 144 112 129 139 105 129 139 105 129 139 102 129 139 102 175 195 141 116 134 93 116 134 93 107 133 88 107 133 88 100 130 83 100 130 83 108 140 88 155 200 126 123 150 100 151 156 114 151 156 114 243 234 208 243 234 208 243 234 208 154 168 161 154 168 161 145 168 178 145 168 178 208 240 255 208 240 255 208 240 255 208 240 255 186 234 255 208 240 255 186 234 255 186 234 255 186 234 255 208 240 255 208 240 255 208 240 255 221 240 230 221 240 230 243 234 208 243 234 208 243 234 208 243 234 208 221 240 230 154 168 161 221 240 230 221 240 230 243 234 208 243 234 208 216 224 164 216 224 164 216 224 164 176 215 143 151 156 114 176 215 143 176 215 143 176 215 143 151 156 114 216 224 164 216 224 164 216 224 164 170 163 145 243 234 208 243 234 208 243 234 208 243 234 208 243 234 208 243 234 208 243 234 208 243 234 208 221 240 230 154 168 161 243 234 208 243 234 208 243 234 208 243 234 208 243 234 208 221 240 230 221 240 230 154 168 161 154 168 161 145 168 178 208 240 255 208 240 255 130 163 178 186 234 255 186 234 255 130 163 178 186 234 255 186 234 255 121 158 178 186 234 255 174 227 255 174 227 255 174 227 255

138 198 245 138 198 245 144 204 238 138 198 245 144 204 238 144 204 238 144 204 238 144 204 238 144 204 238 144 204 238 151 214 239 151 214 239 159 221 240 166 224 247 166 224 247 174 227 255 186 234 255 208 240 255 221 240 230 243 234 208 216 224 164 176 215 143 155 200 126 143 187 119 154 190 126 154 190 126 166 192 134 175 195 141 185 199 146 185 199 150 195 206 160 205 215 171 215 222 176 224 228 180 224 228 180 234 231 186 240 235 191 240 235 191 237 230 186 237 230 186 237 230 186 237 230 186 232 225 178 165 161 130 232 225 178 232 225 178 228 229 164 228 229 164 228 229 164 162 157 124 159 160 114 159 160 114 222 214 149 155 149 104 155 149 104 159 160 114 159 160 114 159 160 114 228 229 164 228 229 164 222 214 149 155 149 104 155 149 104 155 149 104 155 149 104 155 149 104 216 210 150 151 147 105 216 210 150 151 147 105 151 147 105 151 147 105 151 147 105 155 149 104 155 149 104 155 149 104 155 149 104 155 149 104 155 149 104 155 149 104 222 214 149 155 149 104 155 149 104 159 160 114 228 229 164 162 157 124 162 157 124 162 157 124 165 161 130 165 161 130 237 230 186 240 235 191 240 235 191 240 235 191 240 235 191 168 164 133 234 231 186 163 161 130 163 161 130 163 161 130 163 161 130 234 231 186 240 235 191 240 235 191 240 235 191 168 164 133 168 164 133 163 161 130 163 161 130 163 161 130 163 161 130 168 164 133 237 230 186 237 230 186 232 225 178 237 230 186 162 157 124 162 157 124 232 225 178 228 229 164 222 214 149 159 160 114 155 149 104 222 214 149 222 214 149 155 149 104 155 149 104 155 149 104 155 149 104 155 149 104 159 160 114 159 160 114 159 160 114 162 157 124 162 157 124 162 157 124 165 161 130 165 161 130 165 161 130 168 164 133 168 164 133 163 161 130 163 161 130 163 161 130 163 161 130 234 231 186 163 161 130 156 159 126 156 159 126 156 159 126 156 159 126 150 155 123 150 155 123 150 155 123 143 150 119 143 150 119 143 150 119 143 150 119 136 144 112 143 150 119 195 206 160 195 206 160 195 206 160 136 144 112 195 206 160 129 139 105 129 139 102 129 139 102 122 136 98 116 134 93 116 134 93 107 133 88 154 190 126 107 133 88 100 130 83 108 140 88 155 200 126 155 200 126 176 215 143 216 224 164 216 224 164 243 234 208 243 234 208 154 168 161 154 168 161 145 168 178 221 240 230 221 240 230 208 240 255 208 240 255 208 240 255 208 240 255 208 240 255 208 240 255 208 240 255 208 240 255 221 240 230 221 240 230 221 240 230 221 240 230 243 234 208 243 234 208 243 234 208 243 234 208 243 234 208 243 234 208 243 234 208 243 234 208 243 234 208 243 234 208 216 224 164 216 224 164 216 224 164 216 224 164 176 215 143 176 215 143 176 215 143 176 215 143 176 215 143 151 156 114 176 215 143 216 224 164 151 156 114 170 163 145 243 234 208 243 234 208 243 234 208 170 163 145 243 234 208 243 234 208 243 234 208 154 168 161 154 168 161 221 240 230 243 234 208 243 234 208 243 234 208 154 168 161 243 234 208 243 234 208 243 234 208 154 168 161 221 240 230 221 240 230 208 240 255 208 240 255 130 163 178 208 240 255 186 234 255 186 234 255 186 234 255 130 163 178 186 234 255 174 227 255 121 158 178 174 227 255 121 158 178

138 198 245 144 204 238 144 204 238 144 204 238 144 204 238 144 204 238 144 204 238 144 204 238 144 204 238 151 214 239 151 214 239 151 214 239 159 221 240 166 224 247 174 227 255 174 227 255 186 234 255 208 240 255 221 240 230 243 234 208 216 224 164 176 215 143 155 200 126 143 187 119 154 190 126 154 190 126 166 192 134 175 195 141 185 199 146 185 199 150 195 206 160 205 215 171 215 222 176 224 228 180 224 228 180 234 231 186 240 235 191 240 235 191 240 235 191 237 230 186 237 230 186 165 161 130 232 225 178 232 225 178 232 225 178 232 225 178 232 225 178 228 229 164 228 229 164 228 229 164 228 229 164 228 229 164 228 229 164 159 160 114 159 160 114 159 160 114 162 157 124 228 229 164 159 160 114 228 229 164 228 229 164 222 214 149 155 149 104 222 214 149 155 149 104 155 149 104 155 149 104 155 149 104 155 149 104 151 147 105 155 149 104 155 149 104 155 149 104 155 149 104 155 149 104 155 149 104 155 149 104 222 214 149 155 149 104 155 149 104 155 149 104 159 160 114 159 160 114 159 160 114 159 160 114 162 157 124 162 157 124 162 157 124 165 161 130 165 161 130 237 230 186 237 230 186 168 164 133 168 164 133 240 235 191 163 161 130 163 161 130 163 161 130 234 231 186 163 161 130 234 231 186 234 231 186 240 235 191 240 235 191 240 235 191 168 164 133 163 161 130 163 161 130 234 231 186 163 161 130 234 231 186 163 161 130 240 235 191 237 230 186 165 161 130 165 161 130 237 230 186 165 161 130 232 225 178 228 229 164 228 229 164 159 160 114 159 160 114 159 160 114 159 160 114 159 160 114 159 160 114 159 160 114 159 160 114 159 160 114 159 160 114 162 157 124 162 157 124 162 157 124 162 157 124 165 161 130 165 161 130 168 164 133 168 164 133 168 164 133 163 161 130 163 161 130 163 161 130 163 161 130 156 159 126 156 159 126 156 159 126 156 159 126 150 155 123 150 155 123 150 155 123 150 155 123 143 150 119 143 150 119 143 150 119 143 150 119 143 150 119 143 150 119 136 144 112 195 206 160 136 144 112 195 206 160 195 206 160 136 144 112 129 139 105 129 139 105 129 139 102 129 139 102 122 136 98 122 136 98 166 192 134 166 192 134 154 190 126 154 190 126 100 130 83 143 187 119 143 187 119 108 140 88 123 150 100 176 215 143 151 156 114 170 163 145 170 163 145 243 234 208 243 234 208 221 240 230 221 240 230 221 240 230 145 168 178 208 240 255 208 240 255 221 240 230 221 240 230 221 240 230 208 240 255 221 240 230 221 240 230 221 240 230 221 240 230 243 234 208 243 234 208 243 234 208 243 234 208 243 234 208 243 234 208 243 234 208 243 234 208 243 234 208 216 224 164 216 224 164 216 224 164 216 224 164 216 224 164 216 224 164 216 224 164 151 156 114 123 150 100 151 156 114 151 156 114 123 150 100 176 215 143 151 156 114 151 156 114 170 163 145 170 163 145 170 163 145 170 163 145 243 234 208 243 234 208 243 234 208 243 234 208 170 163 145 243 234 208 243 234 208 243 234 208 243 234 208 243 234 208 170 163 145 243 234 208 243 234 208 170 163 145 154 168 161 154 168 161 154 168 161 145 168 178 208 240 255 208 240 255 208 240 255 208 240 255 208 240 255 208 240 255 186 234 255 186 234 255 186 234 255 186 234 255 174 227 255 174 227 255

144 204 238 144 204 238 144 204 238 144 204 238 151 214 239 144 204 238 144 204 238 151 214 239 151 214 239 151 214 239 151 214 239 159 221 240 159 221 240 166 224 247 174 227 255 186 234 255 208 240 255 208 240 255 221 240 230 243 234 208 216 224 164 176 215 143 155 200 126 143 187 119 154 190 126 166 192 134 175 195 141 185 199 146 185 199 146 195 206 160 205 215 171 215 222 176 224 228 180 224 228 180 234 231 186 234 231 186 240 235 191 240 235 191 240 235 191 237 230 186 232 225 178 237 230 186 237 230 186 232 225 178 232 225 178 232 225 178 232 225 178 228 229 164 228 229 164 159 160 114 228 229 164 228 229 164 228 229 164 159 160 114 159 160 114 162 157 124 162 157 124 228 229 164 228 229 164 228 229 164 222 214 149 222 214 149 222 214 149 222 214 149 155 149 104 155 149 104 222 214 149 155 149 104 155 149 104 155 149 104 155 149 104 159 160 114 155 149 104 159 160 114 155 149 104 159 160 114 222 214 149 155 149 104 155 149 104 159 160 114 155 149 104 159 160 114 159 160 114 162 157 124 162 157 124 162 157 124 162 157 124 165 161 130 165 161 130 237 230 186 165 161 130 168 164 133 168 164 133 240 235 191 168 164 133 163 161 130 163 161 130 163 161 130 234 231 186 163 161 130 234 231 186 234 231 186 240 235 191 240 235 191 240 235 191 168 164 133 168 164 133 240 235 191 163 161 130 163 161 130 163 161 130 234 231 186 234 231 186 240 235 191 237 230 186 237 230 186 165 161 130 237 230 186 232 225 178 232 225 178 162 157 124 228 229 164 159 160 114 159 160 114 159 160 114 159 160 114 159 160 114 159 160 114 228 229 164 159 160 114 159 160 114 162 157 124 165 161 130 165 161 130 165 161 130 168 164 133 168 164 133 168 164 133 168 164 133 163 161 130 163 161 130 156 159 126 163 161 130 156 159 126 156 159 126 156 159 126 224 228 180 156 159 126 156 159 126 150 155 123 143 150 119 143 150 119 143 150 119 143 150 119 143 150 119 143 150 119 143 150 119 136 144 112 136 144 112 205 215 171 205 215 171 195 206 160 205 215 171 136 144 112 129 139 105 185 199 150 129 139 105 185 199 146 185 199 146 175 195 141 175 195 141 116 134 93 116 134 93 154 190 126 107 133 88 154 190 126 143 187 119 100 130 83 155 200 126 123 150 100 123 150 100 216 224 164 170 163 145 243 234 208 243 234 208 154 168 161 154 168 161 221 240 230 221 240 230 221 240 230 221 240 230 221 240 230 221 240 230 221 240 230 221 240 230 221 240 230 221 240 230 243 234 208 243 234 208 243 234 208 216 224 164 243 234 208 216 224 164 216 224 164 243 234 208 216 224 164 216 224 164 216 224 164 176 215 143 216 224 164 216 224 164 216 224 164 216 224 164 216 224 164 216 224 164 151 156 114 216 224 164 176 215 143 176 215 143 216 224 164 176 215 143 151 156 114 151 156 114 170 163 145 243 234 208 243 234 208 243 234 208 243 234 208 243 234 208 243 234 208 243 234 208 243 234 208 243 234 208 243 234 208 170 163 145 243 234 208 243 234 208 170 163 145 243 234 208 243 234 208 243 234 208 154 168 161 154 168 161 221 240 230 154 168 161 221 240 230 221 240 230 221 240 230 221 240 230 221 240 230 208 240 255 208 240 255 208 240 255 130 163 178 186 234 255 121 158 178 186 234 255

144 204 238 144 204 238 151 214 239 144 204 238 151 214 239 151 214 239 151 214 239 151 214 239 151 214 239 159 221 240 159 221 240 159 221 240 166 224 247 166 224 247 174 227 255 186 234 255 208 240 255 221 240 230 221 240 230 243 234 208 216 224 164 155 200 126 155 200 126 143 187 119 154 190 126 166 192 134 175 195 141 185 199 146 185 199 150 195 206 160 205 215 171 215 222 176 224 228 180 224 228 180 234 231 186 240 235 191 240 235 191 240 235 191 237 230 186 237 230 186 237 230 186 232 225 178 232 225 178 232 225 178 232 225 178 232 225 178 232 225 178 228 229 164 228 229 164 228 229 164 228 229 164 228 229 164 162 157 124 162 157 124 162 157 124 162 157 124 162 157 124 232 225 178 228 229 164 159 160 114 159 160 114 155 149 104 159 160 114 159 160 114 159 160 114 159 160 114 159 160 114 159 160 114 159 160 114 222 214 149 159 160 114 159 160 114 159 160 114 159 160 114 228 229 164 159 160 114 228 229 164 159 160 114 159 160 114 222 214 149 159 160 114 159 160 114 159 160 114 159 160 114 162 157 124 162 157 124 165 161 130 165 161 130 165 161 130 165 161 130 168 164 133 168 164 133 240 235 191 240 235 191 163 161 130 163 161 130 163 161 130 163 161 130 163 161 130 234 231 186 234 231 186 234 231 186 234 231 186 163 161 130 168 164 133 168 164 133 163 161 130 163 161 130 163 161 130 163 161 130 156 159 126 234 231 186 163 161 130 234 231 186 240 235 191 168 164 133 165 161 130 237 230 186 232 225 178 232 225 178 162 157 124 232 225 178 162 157 124 162 157 124 162 157 124 162 157 124 162 157 124 228 229 164 228 229 164 159 160 114 162 157 124 162 157 124 165 161 130 165 161 130 168 164 133 168 164 133 168 164 133 168 164 133 163 161 130 163 161 130 156 159 126 156 159 126 156 159 126 156 159 126 156 159 126 156 159 126 224 228 180 156 159 126 150 155 123 150 155 123 143 150 119 143 150 119 143 150 119 136 144 112 136 144 112 136 144 112 136 144 112 136 144 112 195 206 160 205 215 171 205 215 171 136 144 112 136 144 112 136 144 112 129 139 105 185 199 150 129 139 105 129 139 105 129 139 102 122 136 98 122 136 98 116 134 93 166 192 134 166 192 134 107 133 88 154 190 126 154 190 126 143 187 119 108 140 88 108 140 88 176 215 143 151 156 114 151 156 114 243 234 208 170 163 145 243 234 208 243 234 208 221 240 230 221 240 230 221 240 230 221 240 230 221 240 230 221 240 230 221 240 230 221 240 230 221 240 230 221 240 230 243 234 208 243 234 208 216 224 164 216 224 164 216 224 164 216 224 164 216 224 164 216 224 164 216 224 164 216 224 164 176 215 143 176 215 143 176 215 143 151 156 114 216 224 164 216 224 164 216 224 164 176 215 143 216 224 164 216 224 164 216 224 164 151 156 114 123 150 100 151 156 114 151 156 114 170 163 145 170 163 145 170 163 145 170 163 145 170 163 145 170 163 145 170 163 145 170 163 145 170 163 145 170 163 145 170 163 145 243 234 208 243 234 208 243 234 208 243 234 208 243 234 208 243 234 208 243 234 208 170 163 145 170 163 145 243 234 208 221 240 230 243 234 208 221 240 230 221 240 230 221 240 230 221 240 230 221 240 230 221 240 230 208 240 255 208 240 255 130 163 178 130 163 178 130 163 178 186 234 255

151 214 239 144 204 238 151 214 239 151 214 239 151 214 239 151 214 239 151 214 239 151 214 239 151 214 239 159 221 240 159 221 240 166 224 247 166 224 247 174 227 255 174 227 255 186 234 255 208 240 255 221 240 230 243 234 208 216 224 164 155 200 126 155 200 126 143 187 119 154 190 126 154 190 126 166 192 134 175 195 141 185 199 146 185 199 150 195 206 160 205 215 171 215 222 176 234 231 186 234 231 186 234 231 186 240 235 191 240 235 191 237 230 186 237 230 186 237 230 186 232 225 178 232 225 178 232 225 178 232 225 178 228 229 164 232 225 178 228 229 164 228 229 164 222 214 149 228 229 164 228 229 164 162 157 124 162 157 124 162 157 124 162 157 124 162 157 124 162 157 124 232 225 178 162 157 124 228 229 164 228 229 164 159 160 114 159 160 114 159 160 114 222 214 149 228 229 164 228 229 164 159 160 114 159 160 114 228 229 164 159 160 114 159 160 114 159 160 114 159 160 114 159 160 114 159 160 114 159 160 114 159 160 114 228 229 164 159 160 114 159 160 114 159 160 114 228 229 164 162 157 124 162 157 124 165 161 130 232 225 178 237 230 186 237 230 186 237 230 186 237 230 186 168 164 133 237 230 186 168 164 133 168 164 133 240 235 191 240 235 191 234 231 186 234 231 186 234 231 186 234 231 186 234 231 186 163 161 130 234 231 186 240 235 191 163 161 130 240 235 191 163 161 130 163 161 130 234 231 186 156 159 126 224 228 180 156 159 126 234 231 186 240 235 191 240 235 191 237 230 186 237 230 186 237 230 186 232 225 178 232 225 178 232 225 178 162 157 124 162 157 124 162 157 124 162 157 124 232 225 178 162 157 124 228 229 164 162 157 124 162 157 124 165 161 130 165 161 130 168 164 133 168 164 133 168 164 133 163 161 130 163 161 130 163 161 130 156 159 126 156 159 126 156 159 126 156 159 126 224 228 180 224 228 180 224 228 180 224 228 180 156 159 126 156 159 126 150 155 123 143 150 119 143 150 119 143 150 119 136 144 112 136 144 112 136 144 112 136 144 112 136 144 112 205 215 171 205 215 171 205 215 171 136 144 112 136 144 112 136 144 112 195 206 160 129 139 105 129 139 105 129 139 105 129 139 102 122 136 98 122 136 98 116 134 93 175 195 141 116 134 93 107 133 88 154 190 126 154 190 126 107 133 88 100 130 83 108 140 88 123 150 100 123 150 100 216 224 164 216 224 164 216 224 164 243 234 208 170 163 145 154 168 161 221 240 230 154 168 161 221 240 230 221 240 230 154 168 161 221 240 230 243 234 208 243 234 208 243 234 208 243 234 208 243 234 208 216 224 164 216 224 164 216 224 164 216 224 164 216 224 164 216 224 164 216 224 164 176 215 143 176 215 143 155 200 126 176 215 143 123 150 100 176 215 143 176 215 143 176 215 143 176 215 143 176 215 143 176 215 143 176 215 143 216 224 164 151 156 114 176 215 143 151 156 114 151 156 114 170 163 145 170 163 145 170 163 145 243 234 208 243 234 208 243 234 208 243 234 208 243 234 208 243 234 208 243 234 208 243 234 208 243 234 208 243 234 208 216 224 164 216 224 164 243 234 208 170 163 145 170 163 145 170 163 145 243 234 208 243 234 208 243 234 208 243 234 208 243 234 208 243 234 208 243 234 208 221 240 230 154 168 161 145 168 178 145 168 178 130 163 178 186 234 255 186 234 255 130 163 178

151 214 239 105 149 167 151 214 239 151 214 239 151 214 239 159 221 240 151 214 239 159 221 240 159 221 240 159 221 240 166 224 247 174 227 255 174 227 255 174 227 255 186 234 255 208 240 255 221 240 230 243 234 208 216 224 164 176 215 143 155 200 126 155 200 126 143 187 119 154 190 126 166 192 134 175 195 141 175 195 141 185 199 150 195 206 160 195 206 160 205 215 171 215 222 176 224 228 180 234 231 186 234 231 186 240 235 191 237 230 186 237 230 186 237 230 186 237 230 186 232 225 178 232 225 178 232 225 178 232 225 178 232 225 178 228 229 164 228 229 164 228 229 164 159 160 114 159 160 114 159 160 114 162 157 124 228 229 164 232 225 178 232 225 178 232 225 178 232 225 178 232 225 178 232 225 178 228 229 164 159 160 114 159 160 114 228 229 164 228 229 164 228 229 164 159 160 114 159 160 114 159 160 114 159 160 114 159 160 114 159 160 114 228 229 164 228 229 164 228 229 164 228 229 164 159 160 114 228 229 164 228 229 164 159 160 114 159 160 114 162 157 124 159 160 114 162 157 124 162 157 124 162 157 124 165 161 130 237 230 186 165 161 130 165 161 130 168 164 133 165 161 130 168 164 133 168 164 133 168 164 133 168 164 133 240 235 191 240 235 191 240 235 191 234 231 186 234 231 186 234 231 186 240 235 191 163 161 130 234 231 186 234 231 186 240 235 191 163 161 130 163 161 130 234 231 186 234 231 186 163 161 130 234 231 186 156 159 126 234 231 186 234 231 186 240 235 191 240 235 191 237 230 186 165 161 130 165 161 130 165 161 130 162 157 124 165 161 130 162 157 124 162 157 124 232 225 178 162 157 124 162 157 124 162 157 124 162 157 124 165 161 130 165 161 130 168 164 133 168 164 133 163 161 130 163 161 130 163 161 130 163 161 130 156 159 126 156 159 126 156 159 126 156 159 126 224 228 180 156 159 126 156 159 126 156 159 126 156 159 126 150 155 123 143 150 119 143 150 119 143 150 119 136 144 112 136 144 112 136 144 112 136 144 112 136 144 112 136 144 112 136 144 112 136 144 112 136 144 112 136 144 112 136 144 112 136 144 112 129 139 105 129 139 105 129 139 105 129 139 102 129 139 102 129 139 102 122 136 98 122 136 98 122 136 98 116 134 93 116 134 93 107 133 88 107 133 88 107 133 88 107 133 88 100 130 83 108 140 88 123 150 100 176 215 143 123 150 100 151 156 114 216 224 164 216 224 164 243 234 208 243 234 208 243 234 208 243 234 208 243 234 208 243 234 208 243 234 208 243 234 208 243 234 208 243 234 208 243 234 208 243 234 208 216 224 164 216 224 164 216 224 164 216 224 164 216 224 164 176 215 143 176 215 143 176 215 143 176 215 143 176 215 143 176 215 143 123 150 100 176 215 143 176 215 143 176 215 143 123 150 100 176 215 143 176 215 143 176 215 143 123 150 100 151 156 114 151 156 114 151 156 114 151 156 114 151 156 114 170 163 145 170 163 145 243 234 208 243 234 208 243 234 208 243 234 208 243 234 208 170 163 145 170 163 145 170 163 145 170 163 145 170 163 145 243 234 208 170 163 145 151 156 114 170 163 145 170 163 145 170 163 145 154 168 161 243 234 208 243 234 208 243 234 208 170 163 145 243 234 208 243 234 208 243 234 208 154 168 161 154 168 161 154 168 161 145 168 178 145 168 178 186 234 255 186 234 255 186 234 255

159 221 240 105 149 167 151 214 239 151 214 239 151 214 239 151 214 239 159 221 240 159 221 240 166 224 247 166 224 247 174 227 255 174 227 255 186 234 255 186 234 255 208 240 255 208 240 255 221 240 230 243 234 208 216 224 164 176 215 143 176 215 143 155 200 126 143 187 119 154 190 126 166 192 134 175 195 141 185 199 146 185 199 150 195 206 160 195 206 160 215 222 176 215 222 176 224 228 180 234 231 186 240 235 191 240 235 191 237 230 186 237 230 186 237 230 186 237 230 186 237 230 186 232 225 178 232 225 178 232 225 178 232 225 178 232 225 178 228 229 164 228 229 164 159 160 114 162 157 124 162 157 124 162 157 124 228 229 164 162 157 124 228 229 164 162 157 124 228 229 164 232 225 178 228 229 164 232 225 178 228 229 164 228 229 164 159 160 114 159 160 114 159 160 114 162 157 124 162 157 124 159 160 114 228 229 164 162 157 124 162 157 124 228 229 164 228 229 164 228 229 164 228 229 164 228 229 164 228 229 164 228 229 164 228 229 164 162 157 124 162 157 124 162 157 124 162 157 124 162 157 124 162 157 124 165 161 130 165 161 130 165 161 130 165 161 130 168 164 133 168 164 133 168 164 133 240 235 191 168 164 133 168 164 133 240 235 191 240 235 191 240 235 191 168 164 133 240 235 191 240 235 191 240 235 191 163 161 130 234 231 186 240 235 191 234 231 186 163 161 130 234 231 186 234 231 186 163 161 130 234 231 186 234 231 186 234 231 186 224 228 180 234 231 186 240 235 191 168 164 133 168 164 133 168 164 133 168 164 133 168 164 133 165 161 130 165 161 130 237 230 186 165 161 130 165 161 130 162 157 124 165 161 130 165 161 130 165 161 130 165 161 130 168 164 133 168 164 133 168 164 133 163 161 130 163 161 130 156 159 126 234 231 186 234 231 186 156 159 126 156 159 126 224 228 180 224 228 180 150 155 123 150 155 123 150 155 123 150 155 123 143 150 119 143 150 119 143 150 119 136 144 112 136 144 112 136 144 112 136 144 112 136 144 112 195 206 160 129 139 105 195 206 160 195 206 160 136 144 112 136 144 112 129 139 105 136 144 112 129 139 105 129 139 105 129 139 102 129 139 102 185 199 146 185 199 146 122 136 98 175 195 141 116 134 93 116 134 93 116 134 93 166 192 134 107 133 88 107 133 88 100 130 83 100 130 83 108 140 88 108 140 88 123 150 100 123 150 100 176 215 143 216 224 164 216 224 164 216 224 164 216 224 164 243 234 208 216 224 164 216 224 164 243 234 208 243 234 208 243 234 208 243 234 208 243 234 208 170 163 145 243 234 208 216 224 164 216 224 164 176 215 143 176 215 143 176 215 143 176 215 143 176 215 143 176 215 143 176 215 143 176 215 143 123 150 100 123 150 100 155 200 126 176 215 143 123 150 100 176 215 143 176 215 143 176 215 143 176 215 143 176 215 143 176 215 143 151 156 114 151 156 114 170 163 145 170 163 145 170 163 145 243 234 208 243 234 208 243 234 208 243 234 208 216 224 164 243 234 208 170 163 145 243 234 208 243 234 208 170 163 145 243 234 208 243 234 208 170 163 145 243 234 208 170 163 145 170 163 145 170 163 145 243 234 208 221 240 230 243 234 208 170 163 145 243 234 208 216 224 164 243 234 208 243 234 208 154 168 161 154 168 161 154 168 161 221 240 230 145 168 178 208 240 255 208 240 255 208 240 255

159 221 240 105 149 167 151 214 239 159 221 240 159 221 240 159 221 240 159 221 240 166 224 247 166 224 247 174 227 255 174 227 255 186 234 255 208 240 255 208 240 255 208 240 255 221 240 230 243 234 208 216 224 164 216 224 164 176 215 143 155 200 126 143 187 119 154 190 126 166 192 134 166 192 134 175 195 141 185 199 146 185 199 150 195 206 160 205 215 171 205 215 171 215 222 176 224 228 180 234 231 186 234 231 186 240 235 191 237 230 186 237 230 186 237 230 186 237 230 186 165 161 130 237 230 186 165 161 130 162 157 124 232 225 178 232 225 178 162 157 124 162 157 124 162 157 124 162 157 124 162 157 124 232 225 178 162 157 124 162 157 124 232 225 178 228 229 164 232 225 178 162 157 124 232 225 178 159 160 114 162 157 124 162 157 124 162 157 124 162 157 124 162 157 124 162 157 124 162 157 124 232 225 178 162 157 124 162 157 124 162 157 124 228 229 164 159 160 114 159 160 114 228 229 164 159 160 114 228 229 164 228 229 164 162 157 124 162 157 124 162 157 124 162 157 124 165 161 130 165 161 130 165 161 130 165 161 130 165 161 130 165 161 130 168 164 133 168 164 133 168 164 133 240 235 191 240 235 191 168 164 133 168 164 133 168 164 133 168 164 133 168 164 133 168 164 133 240 235 191 240 235 191 163 161 130 163 161 130 163 161 130 163 161 130 163 161 130 163 161 130 234 231 186 163 161 130 163 161 130 234 231 186 163 161 130 156 159 126 234 231 186 234 231 186 234 231 186 240 235 191 240 235 191 240 235 191 168 164 133 168 164 133 237 230 186 165 161 130 237 230 186 165 161 130 165 161 130 165 161 130 165 161 130 168 164 133 165 161 130 168 164 133 168 164 133 168 164 133 168 164 133 163 161 130 163 161 130 156 159 126 234 231 186 156 159 126 156 159 126 150 155 123 150 155 123 150 155 123 156 159 126 150 155 123 150 155 123 143 150 119 143 150 119 143 150 119 143 150 119 136 144 112 136 144 112 129 139 105 129 139 105 129 139 105 195 206 160 129 139 105 185 199 150 129 139 105 136 144 112 129 139 105 129 139 105 185 199 150 129 139 105 129 139 102 129 139 102 129 139 102 129 139 102 129 139 102 122 136 98 122 136 98 116 134 93 116 134 93 166 192 134 116 134 93 107 133 88 100 130 83 100 130 83 100 130 83 108 140 88 155 200 126 108 140 88 123 150 100 176 215 143 151 156 114 216 224 164 216 224 164 216 224 164 216 224 164 216 224 164 216 224 164 216 224 164 216 224 164 216 224 164 243 234 208 243 234 208 216 224 164 216 224 164 216 224 164 216 224 164 176 215 143 176 215 143 176 215 143 176 215 143 155 200 126 176 215 143 176 215 143 176 215 143 123 150 100 176 215 143 155 200 126 123 150 100 176 215 143 176 215 143 176 215 143 123 150 100 176 215 143 123 150 100 123 150 100 151 156 114 151 156 114 151 156 114 243 234 208 243 234 208 243 234 208 243 234 208 243 234 208 243 234 208 243 234 208 170 163 145 243 234 208 243 234 208 170 163 145 170 163 145 243 234 208 243 234 208 243 234 208 243 234 208 170 163 145 170 163 145 154 168 161 243 234 208 243 234 208 243 234 208 243 234 208 243 234 208 170 163 145 170 163 145 170 163 145 170 163 145 154 168 161 154 168 161 221 240 230 145 168 178 208 240 255 208 240 255 208 240 255

159 221 240 111 154 168 159 221 240 159 221 240 159 221 240 159 221 240 159 221 240 166 224 247 174 227 255 174 227 255 186 234 255 186 234 255 208 240 255 208 240 255 221 240 230 243 234 208 216 224 164 216 224 164 176 215 143 155 200 126 155 200 126 143 187 119 154 190 126 166 192 134 175 195 141 185 199 146 185 199 146 185 199 150 205 215 171 205 215 171 215 222 176 224 228 180 224 228 180 224 228 180 234 231 186 240 235 191 237 230 186 165 161 130 165 161 130 165 161 130 237 230 186 237 230 186 237 230 186 232 225 178 232 225 178 232 225 178 162 157 124 232 225 178 232 225 178 162 157 124 162 157 124 232 225 178 232 225 178 232 225 178 228 229 164 228 229 164 228 229 164 228 229 164 232 225 178 232 225 178 228 229 164 232 225 178 232 225 178 162 157 124 162 157 124 232 225 178 232 225 178 232 225 178 162 157 124 162 157 124 232 225 178 232 225 178 162 157 124 162 157 124 162 157 124 228 229 164 228 229 164 159 160 114 159 160 114 162 157 124 162 157 124 162 157 124 162 157 124 165 161 130 165 161 130 168 164 133 168 164 133 168 164 133 168 164 133 168 164 133 168 164 133 240 235 191 237 230 186 168 164 133 168 164 133 240 235 191 240 235 191 240 235 191 240 235 191 240 235 191 240 235 191 163 161 130 163 161 130 234 231 186 234 231 186 234 231 186 234 231 186 234 231 186 234 231 186 234 231 186 234 231 186 163 161 130 163 161 130 234 231 186 234 231 186 240 235 191 240 235 191 168 164 133 240 235 191 168 164 133 240 235 191 237 230 186 165 161 130 168 164 133 165 161 130 165 161 130 165 161 130 168 164 133 168 164 133 168 164 133 168 164 133 168 164 133 168 164 133 168 164 133 163 161 130 163 161 130 163 161 130 224 228 180 156 159 126 156 159 126 224 228 180 150 155 123 150 155 123 150 155 123 150 155 123 143 150 119 143 150 119 143 150 119 143 150 119 143 150 119 136 144 112 136 144 112 195 206 160 195 206 160 195 206 160 129 139 105 129 139 105 129 139 105 129 139 105 185 199 150 129 139 105 129 139 105 129 139 105 129 139 102 129 139 102 129 139 102 129 139 102 129 139 102 129 139 102 122 136 98 122 136 98 116 134 93 116 134 93 107 133 88 107 133 88 107 133 88 107 133 88 100 130 83 100 130 83 108 140 88 155 200 126 108 140 88 123 150 100 176 215 143 176 215 143 176 215 143 176 215 143 176 215 143 176 215 143 216 224 164 216 224 164 216 224 164 216 224 164 216 224 164 216 224 164 216 224 164 216 224 164 216 224 164 216 224 164 176 215 143 176 215 143 176 215 143 176 215 143 176 215 143 155 200 126 123 150 100 123 150 100 123 150 100 123 150 100 155 200 126 155 200 126 155 200 126 155 200 126 176 215 143 176 215 143 176 215 143 176 215 143 123 150 100 123 150 100 151 156 114 151 156 114 151 156 114 216 224 164 216 224 164 216 224 164 243 234 208 243 234 208 216 224 164 243 234 208 170 163 145 243 234 208 170 163 145 170 163 145 243 234 208 243 234 208 243 234 208 243 234 208 243 234 208 243 234 208 243 234 208 154 168 161 243 234 208 243 234 208 243 234 208 243 234 208 170 163 145 243 234 208 216 224 164 216 224 164 243 234 208 154 168 161 221 240 230 221 240 230 221 240 230 221 240 230 221 240 230 221 240 230

159 221 240 159 221 240 159 221 240 159 221 240 159 221 240 166 224 247 166 224 247 166 224 247 174 227 255 186 234 255 186 234 255 208 240 255 208 240 255 221 240 230 221 240 230 243 234 208 216 224 164 176 215 143 176 215 143 155 200 126 143 187 119 143 187 119 154 190 126 166 192 134 175 195 141 185 199 146 185 199 146 195 206 160 205 215 171 205 215 171 215 222 176 224 228 180 224 228 180 234 231 186 234 231 186 240 235 191 240 235 191 168 164 133 168 164 133 168 164 133 237 230 186 237 230 186 232 225 178 232 225 178 232 225 178 162 157 124 162 157 124 232 225 178 162 157 124 162 157 124 232 225 178 232 225 178 228 229 164 228 229 164 228 229 164 159 160 114 159 160 114 159 160 114 162 157 124 162 157 124 232 225 178 162 157 124 162 157 124 162 157 124 162 157 124 232 225 178 162 157 124 162 157 124 232 225 178 162 157 124 232 225 178 232 225 178 232 225 178 162 157 124 232 225 178 228 229 164 228 229 164 159 160 114 162 157 124 162 157 124 162 157 124 162 157 124 165 161 130 165 161 130 165 161 130 168 164 133 168 164 133 168 164 133 168 164 133 240 235 191 240 235 191 240 235 191 237 230 186 168 164 133 240 235 191 240 235 191 240 235 191 168 164 133 168 164 133 240 235 191 240 235 191 168 164 133 234 231 186 234 231 186 240 235 191 234 231 186 234 231 186 234 231 186 234 231 186 163 161 130 163 161 130 163 161 130 163 161 130 234 231 186 234 231 186 240 235 191 240 235 191 240 235 191 240 235 191 240 235 191 240 235 191 237 230 186 168 164 133 168 164 133 168 164 133 168 164 133 168 164 133 168 164 133 168 164 133 168 164 133 168 164 133 163 161 130 163 161 130 163 161 130 156 159 126 156 159 126 156 159 126 156 159 126 156 159 126 156 159 126 150 155 123 150 155 123 150 155 123 150 155 123 150 155 123 143 150 119 205 215 171 143 150 119 136 144 112 136 144 112 136 144 112 136 144 112 195 206 160 195 206 160 136 144 112 129 139 105 129 139 105 129 139 105 129 139 105 129 139 105 129 139 105 129 139 105 129 139 105 129 139 102 129 139 102 129 139 102 122 136 98 122 136 98 122 136 98 116 134 93 116 134 93 116 134 93 116 134 93 107 133 88 107 133 88 107 133 88 154 190 126 107 133 88 143 187 119 143 187 119 155 200 126 108 140 88 155 200 126 155 200 126 155 200 126 155 200 126 176 215 143 123 150 100 176 215 143 176 215 143 176 215 143 176 215 143 176 215 143 176 215 143 216 224 164 216 224 164 216 224 164 176 215 143 176 215 143 176 215 143 155 200 126 155 200 126 155 200 126 155 200 126 155 200 126 155 200 126 155 200 126 155 200 126 176 215 143 155 200 126 155 200 126 108 140 88 123 150 100 108 140 88 176 215 143 123 150 100 123 150 100 123 150 100 151 156 114 151 156 114 151 156 114 216 224 164 216 224 164 151 156 114 216 224 164 151 156 114 216 224 164 216 224 164 216 224 164 243 234 208 243 234 208 170 163 145 170 163 145 243 234 208 243 234 208 243 234 208 170 163 145 170 163 145 170 163 145 170 163 145 170 163 145 243 234 208 243 234 208 243 234 208 216 224 164 243 234 208 243 234 208 243 234 208 170 163 145 170 163 145 170 163 145 243 234 208 221 240 230 243 234 208 243 234 208 243 234 208 243 234 208

166 224 247 159 221 240 111 154 168 159 221 240 166 224 247 166 224 247 166 224 247 166 224 247 174 227 255 186 234 255 186 234 255 208 240 255 208 240 255 221 240 230 243 234 208 216 224 164 176 215 143 176 215 143 155 200 126 143 187 119 143 187 119 154 190 126 166 192 134 166 192 134 175 195 141 185 199 146 185 199 150 195 206 160 195 206 160 205 215 171 215 222 176 224 228 180 234 231 186 234 231 186 240 235 191 240 235 191 240 235 191 240 235 191 237 230 186 237 230 186 237 230 186 237 230 186 237 230 186 232 225 178 232 225 178 232 225 178 232 225 178 232 225 178 232 225 178 162 157 124 232 225 178 162 157 124 228 229 164 228 229 164 228 229 164 228 229 164 228 229 164 228 229 164 228 229 164 162 157 124 232 225 178 162 157 124 162 157 124 165 161 130 162 157 124 232 225 178 232 225 178 232 225 178 232 225 178 232 225 178 232 225 178 232 225 178 228 229 164 228 229 164 232 225 178 232 225 178 228 229 164 159 160 114 159 160 114 162 157 124 162 157 124 162 157 124 165 161 130 168 164 133 168 164 133 168 164 133 168 164 133 163 161 130 240 235 191 240 235 191 240 235 191 237 230 186 237 230 186 168 164 133 168 164 133 168 164 133 163 161 130 240 235 191 240 235 191 240 235 191 240 235 191 163 161 130 163 161 130 163 161 130 234 231 186 163 161 130 163 161 130 163 161 130 234 231 186 234 231 186 234 231 186 163 161 130 156 159 126 234 231 186 234 231 186 163 161 130 163 161 130 240 235 191 240 235 191 168 164 133 240 235 191 168 164 133 168 164 133 240 235 191 168 164 133 168 164 133 240 235 191 240 235 191 240 235 191 168 164 133 163 161 130 163 161 130 163 161 130 163 161 130 163 161 130 156 159 126 156 159 126 150 155 123 156 159 126 150 155 123 150 155 123 143 150 119 150 155 123 143 150 119 143 150 119 143 150 119 143 150 119 136 144 112 205 215 171 136 144 112 195 206 160 136 144 112 195 206 160 195 206 160 136 144 112 129 139 105 185 199 150 185 199 150 129 139 105 185 199 150 185 199 150 129 139 105 129 139 105 129 139 102 122 136 98 129 139 102 122 136 98 122 136 98 122 136 98 116 134 93 116 134 93 107 133 88 107 133 88 107 133 88 154 190 126 154 190 126 107 133 88 107 133 88 100 130 83 100 130 83 100 130 83 155 200 126 155 200 126 143 187 119 143 187 119 155 200 126 108 140 88 155 200 126 176 215 143 176 215 143 155 200 126 176 215 143 176 215 143 176 215 143 176 215 143 216 224 164 176 215 143 176 215 143 176 215 143 155 200 126 155 200 126 155 200 126 155 200 126 155 200 126 155 200 126 155 200 126 155 200 126 155 200 126 155 200 126 155 200 126 155 200 126 155 200 126 155 200 126 176 215 143 123 150 100 123 150 100 176 215 143 176 215 143 151 156 114 151 156 114 170 163 145 170 163 145 151 156 114 216 224 164 176 215 143 216 224 164 216 224 164 216 224 164 216 224 164 170 163 145 243 234 208 170 163 145 170 163 145 243 234 208 243 234 208 243 234 208 170 163 145 243 234 208 243 234 208 243 234 208 243 234 208 243 234 208 243 234 208 216 224 164 216 224 164 216 224 164 216 224 164 243 234 208 243 234 208 216 224 164 243 234 208 243 234 208 243 234 208 243 234 208 243 234 208 243 234 208 243 234 208

159 221 240 111 154 168 166 224 247 166 224 247 166 224 247 166 224 247 174 227 255 174 227 255 186 234 255 186 234 255 186 234 255 208 240 255 221 240 230 243 234 208 243 234 208 216 224 164 176 215 143 176 215 143 155 200 126 155 200 126 143 187 119 154 190 126 154 190 126 166 192 134 175 195 141 185 199 146 185 199 146 185 199 150 195 206 160 205 215 171 215 222 176 224 228 180 234 231 186 234 231 186 234 231 186 240 235 191 240 235 191 240 235 191 240 235 191 237 230 186 237 230 186 237 230 186 237 230 186 232 225 178 232 225 178 232 225 178 232 225 178 232 225 178 162 157 124 162 157 124 232 225 178 232 225 178 228 229 164 228 229 164 228 229 164 228 229 164 228 229 164 228 229 164 159 160 114 162 157 124 232 225 178 162 157 124 162 157 124 162 157 124 232 225 178 232 225 178 232 225 178 162 157 124 228 229 164 228 229 164 232 225 178 232 225 178 228 229 164 228 229 164 162 157 124 228 229 164 228 229 164 159 160 114 228 229 164 162 157 124 232 225 178 162 157 124 165 161 130 165 161 130 168 164 133 163 161 130 168 164 133 240 235 191 163 161 130 240 235 191 240 235 191 240 235 191 168 164 133 168 164 133 168 164 133 168 164 133 168 164 133 234 231 186 163 161 130 168 164 133 168 164 133 163 161 130 163 161 130 234 231 186 234 231 186 163 161 130 234 231 186 234 231 186 163 161 130 234 231 186 163 161 130 163 161 130 234 231 186 234 231 186 234 231 186 234 231 186 240 235 191 240 235 191 240 235 191 240 235 191 240 235 191 168 164 133 240 235 191 168 164 133 168 164 133 163 161 130 240 235 191 168 164 133 168 164 133 163 161 130 163 161 130 156 159 126 156 159 126 156 159 126 156 159 126 156 159 126 150 155 123 150 155 123 150 155 123 150 155 123 143 150 119 143 150 119 143 150 119 143 150 119 143 150 119 143 150 119 136 144 112 136 144 112 205 215 171 136 144 112 195 206 160 195 206 160 195 206 160 136 144 112 195 206 160 129 139 105 185 199 150 129 139 105 129 139 105 185 199 150 129 139 105 129 139 102 129 139 102 129 139 102 129 139 102 175 195 141 122 136 98 122 136 98 116 134 93 116 134 93 116 134 93 107 133 88 107 133 88 154 190 126 107 133 88 107 133 88 154 190 126 107 133 88 100 130 83 100 130 83 143 187 119 143 187 119 143 187 119 143 187 119 143 187 119 143 187 119 143 187 119 143 187 119 155 200 126 155 200 126 155 200 126 155 200 126 176 215 143 176 215 143 176 215 143 176 215 143 176 215 143 176 215 143 176 215 143 176 215 143 155 200 126 155 200 126 155 200 126 143 187 119 143 187 119 143 187 119 143 187 119 155 200 126 155 200 126 155 200 126 155 200 126 155 200 126 155 200 126 123 150 100 123 150 100 123 150 100 123 150 100 151 156 114 151 156 114 151 156 114 216 224 164 243 234 208 216 224 164 216 224 164 176 215 143 176 215 143 176 215 143 216 224 164 151 156 114 170 163 145 243 234 208 170 163 145 243 234 208 243 234 208 170 163 145 243 234 208 216 224 164 216 224 164 243 234 208 243 234 208 216 224 164 216 224 164 216 224 164 216 224 164 216 224 164 216 224 164 151 156 114 216 224 164 243 234 208 216 224 164 170 163 145 243 234 208 243 234 208 216 224 164 243 234 208 243 234 208 216 224 164

166 224 247 166 224 247 166 224 247 166 224 247 166 224 247 166 224 247 174 227 255 186 234 255 208 240 255 208 240 255 208 240 255 208 240 255 221 240 230 243 234 208 216 224 164 176 215 143 155 200 126 155 200 126 155 200 126 155 200 126 143 187 119 154 190 126 154 190 126 166 192 134 175 195 141 185 199 146 185 199 146 185 199 150 195 206 160 205 215 171 215 222 176 224 228 180 234 231 186 234 231 186 234 231 186 240 235 191 240 235 191 237 230 186 237 230 186 237 230 186 232 225 178 237 230 186 232 225 178 232 225 178 232 225 178 232 225 178 232 225 178 162 157 124 162 157 124 162 157 124 232 225 178 162 157 124 228 229 164 159 160 114 228 229 164 228 229 164 222 214 149 228 229 164 159 160 114 162 157 124 162 157 124 232 225 178 232 225 178 232 225 178 232 225 178 232 225 178 232 225 178 232 225 178 228 229 164 228 229 164 162 157 124 232 225 178 228 229 164 228 229 164 162 157 124 228 229 164 228 229 164 162 157 124 162 157 124 162 157 124 162 157 124 165 161 130 165 161 130 168 164 133 168 164 133 168 164 133 234 231 186 163 161 130 163 161 130 234 231 186 240 235 191 168 164 133 168 164 133 168 164 133 168 164 133 168 164 133 163 161 130 163 161 130 163 161 130 234 231 186 240 235 191 163 161 130 163 161 130 163 161 130 234 231 186 163 161 130 234 231 186 163 161 130 234 231 186 234 231 186 163 161 130 163 161 130 234 231 186 234 231 186 234 231 186 240 235 191 240 235 191 240 235 191 240 235 191 237 230 186 237 230 186 168 164 133 168 164 133 163 161 130 168 164 133 163 161 130 163 161 130 168 164 133 168 164 133 163 161 130 163 161 130 156 159 126 156 159 126 156 159 126 156 159 126 150 155 123 224 228 180 150 155 123 150 155 123 143 150 119 143 150 119 205 215 171 143 150 119 136 144 112 136 144 112 205 215 171 205 215 171 205 215 171 195 206 160 136 144 112 136 144 112 195 206 160 136 144 112 136 144 112 136 144 112 129 139 105 129 139 105 129 139 105 129 139 102 185 199 150 185 199 150 129 139 102 185 199 146 122 136 98 122 136 98 122 136 98 122 136 98 116 134 93 116 134 93 116 134 93 116 134 93 107 133 88 107 133 88 154 190 126 154 190 126 107 133 88 154 190 126 154 190 126 154 190 126 154 190 126 154 190 126 143 187 119 143 187 119 143 187 119 154 190 126 143 187 119 143 187 119 143 187 119 143 187 119 143 187 119 143 187 119 108 140 88 123 150 100 176 215 143 155 200 126 155 200 126 155 200 126 176 215 143 155 200 126 176 215 143 155 200 126 155 200 126 143 187 119 143 187 119 143 187 119 143 187 119 143 187 119 108 140 88 108 140 88 108 140 88 155 200 126 155 200 126 143 187 119 108 140 88 176 215 143 123 150 100 151 156 114 151 156 114 216 224 164 216 224 164 151 156 114 216 224 164 216 224 164 216 224 164 176 215 143 176 215 143 176 215 143 151 156 114 151 156 114 151 156 114 170 163 145 243 234 208 243 234 208 243 234 208 243 234 208 216 224 164 216 224 164 216 224 164 216 224 164 216 224 164 216 224 164 216 224 164 216 224 164 216 224 164 176 215 143 176 215 143 216 224 164 216 224 164 170 163 145 243 234 208 216 224 164 216 224 164 216 224 164 216 224 164 216 224 164 216 224 164 176 215 143

166 224 247 166 224 247 166 224 247 166 224 247 174 227 255 174 227 255 174 227 255 186 234 255 208 240 255 208 240 255 208 240 255 221 240 230 221 240 230 216 224 164 216 224 164 176 215 143 176 215 143 155 200 126 155 200 126 143 187 119 143 187 119 154 190 126 166 192 134 166 192 134 175 195 141 185 199 146 185 199 146 185 199 150 195 206 160 205 215 171 215 222 176 224 228 180 234 231 186 163 161 130 234 231 186 240 235 191 240 235 191 237 230 186 237 230 186 237 230 186 165 161 130 165 161 130 237 230 186 232 225 178 162 157 124 162 157 124 162 157 124 162 157 124 162 157 124 162 157 124 162 157 124 232 225 178 228 229 164 228 229 164 228 229 164 228 229 164 228 229 164 159 160 114 159 160 114 162 157 124 232 225 178 232 225 178 162 157 124 162 157 124 162 157 124 162 157 124 162 157 124 232 225 178 232 225 178 162 157 124 162 157 124 228 229 164 228 229 164 159 160 114 159 160 114 232 225 178 228 229 164 162 157 124 162 157 124 162 157 124 162 157 124 162 157 124 237 230 186 165 161 130 168 164 133 168 164 133 240 235 191 240 235 191 240 235 191 240 235 191 240 235 191 240 235 191 240 235 191 168 164 133 163 161 130 163 161 130 156 159 126 163 161 130 163 161 130 163 161 130 163 161 130 163 161 130 163 161 130 163 161 130 234 231 186 163 161 130 156 159 126 163 161 130 234 231 186 163 161 130 163 161 130 163 161 130 234 231 186 234 231 186 234 231 186 163 161 130 163 161 130 240 235 191 240 235 191 168 164 133 168 164 133 163 161 130 163 161 130 163 161 130 234 231 186 163 161 130 234 231 186 234 231 186 163 161 130 163 161 130 156 159 126 156 159 126 156 159 126 224 228 180 156 159 126 156 159 126 150 155 123 150 155 123 143 150 119 143 150 119 143 150 119 143 150 119 136 144 112 136 144 112 136 144 112 205 215 171 136 144 112 143 150 119 136 144 112 136 144 112 136 144 112 195 206 160 136 144 112 136 144 112 129 139 105 129 139 105 129 139 105 129 139 102 185 199 150 185 199 146 129 139 102 129 139 102 129 139 102 122 136 98 175 195 141 122 136 98 122 136 98 122 136 98 116 134 93 116 134 93 166 192 134 107 133 88 107 133 88 154 190 126 107 133 88 107 133 88 107 133 88 107 133 88 107 133 88 154 190 126 107 133 88 107 133 88 143 187 119 154 190 126 154 190 126 154 190 126 143 187 119 154 190 126 143 187 119 100 130 83 100 130 83 100 130 83 155 200 126 155 200 126 155 200 126 108 140 88 155 200 126 155 200 126 155 200 126 155 200 126 155 200 126 143 187 119 143 187 119 143 187 119 143 187 119 100 130 83 143 187 119 100 130 83 108 140 88 155 200 126 155 200 126 155 200 126 143 187 119 108 140 88 123 150 100 123 150 100 176 215 143 216 224 164 216 224 164 216 224 164 216 224 164 216 224 164 151 156 114 216 224 164 216 224 164 123 150 100 123 150 100 151 156 114 151 156 114 216 224 164 170 163 145 243 234 208 216 224 164 170 163 145 216 224 164 216 224 164 216 224 164 151 156 114 216 224 164 216 224 164 216 224 164 216 224 164 216 224 164 216 224 164 216 224 164 151 156 114 151 156 114 216 224 164 216 224 164 216 224 164 216 224 164 216 224 164 176 215 143 216 224 164 176 215 143 176 215 143 176 215 143

166 224 247 166 224 247 166 224 247 174 227 255 174 227 255 174 227 255 186 234 255 186 234 255 208 240 255 208 240 255 221 240 230 221 240 230 243 234 208 216 224 164 176 215 143 176 215 143 176 215 143 155 200 126 143 187 119 143 187 119 154 190 126 154 190 126 166 192 134 166 192 134 175 195 141 185 199 146 185 199 150 185 199 150 195 206 160 205 215 171 224 228 180 224 228 180 224 228 180 234 231 186 234 231 186 240 235 191 240 235 191 237 230 186 165 161 130 165 161 130 237 230 186 237 230 186 237 230 186 232 225 178 232 225 178 165 161 130 232 225 178 232 225 178 165 161 130 232 225 178 232 225 178 232 225 178 228 229 164 228 229 164 228 229 164 159 160 114 159 160 114 159 160 114 159 160 114 162 157 124 228 229 164 162 157 124 232 225 178 232 225 178 232 225 178 232 225 178 232 225 178 232 225 178 232 225 178 162 157 124 232 225 178 232 225 178 162 157 124 162 157 124 228 229 164 162 157 124 228 229 164 162 157 124 162 157 124 162 157 124 232 225 178 165 161 130 165 161 130 165 161 130 168 164 133 240 235 191 240 235 191 240 235 191 240 235 191 163 161 130 168 164 133 168 164 133 168 164 133 163 161 130 163 161 130 163 161 130 156 159 126 156 159 126 156 159 126 156 159 126 163 161 130 156 159 126 234 231 186 156 159 126 156 159 126 156 159 126 234 231 186 234 231 186 234 231 186 163 161 130 156 159 126 156 159 126 156 159 126 234 231 186 163 161 130 163 161 130 234 231 186 240 235 191 240 235 191 168 164 133 163 161 130 163 161 130 163 161 130 163 161 130 163 161 130 163 161 130 163 161 130 234 231 186 163 161 130 156 159 126 156 159 126 156 159 126 156 159 126 150 155 123 150 155 123 156 159 126 150 155 123 150 155 123 143 150 119 143 150 119 136 144 112 136 144 112 136 144 112 136 144 112 195 206 160 195 206 160 205 215 171 136 144 112 136 144 112 136 144 112 195 206 160 195 206 160 195 206 160 136 144 112 129 139 105 129 139 105 129 139 102 129 139 102 185 199 150 129 139 102 129 139 102 122 136 98 122 136 98 122 136 98 175 195 141 122 136 98 122 136 98 116 134 93 116 134 93 116 134 93 107 133 88 107 133 88 107 133 88 107 133 88 107 133 88 107 133 88 154 190 126 154 190 126 154 190 126 154 190 126 154 190 126 154 190 126 107 133 88 154 190 126 154 190 126 154 190 126 154 190 126 154 190 126 154 190 126 143 187 119 143 187 119 143 187 119 143 187 119 155 200 126 155 200 126 108 140 88 155 200 126 155 200 126 155 200 126 155 200 126 155 200 126 155 200 126 143 187 119 143 187 119 100 130 83 143 187 119 154 190 126 143 187 119 143 187 119 143 187 119 143 187 119 143 187 119 143 187 119 100 130 83 108 140 88 176 215 143 176 215 143 151 156 114 151 156 114 216 224 164 216 224 164 216 224 164 216 224 164 216 224 164 216 224 164 151 156 114 151 156 114 151 156 114 151 156 114 216 224 164 151 156 114 216 224 164 216 224 164 216 224 164 216 224 164 216 224 164 216 224 164 216 224 164 151 156 114 216 224 164 176 215 143 216 224 164 176 215 143 176 215 143 216 224 164 176 215 143 176 215 143 216 224 164 176 215 143 176 215 143 176 215 143 176 215 143 155 200 126 155 200 126 155 200 126 155 200 126 155 200 126

166 224 247 174 227 255 174 227 255 174 227 255 174 227 255 174 227 255 186 234 255 186 234 255 208 240 255 221 240 230 221 240 230 243 234 208 216 224 164 216 224 164 176 215 143 176 215 143 155 200 126 155 200 126 155 200 126 143 187 119 143 187 119 154 190 126 166 192 134 166 192 134 175 195 141 185 199 146 185 199 150 195 206 160 195 206 160 205 215 171 215 222 176 224 228 180 224 228 180 234 231 186 163 161 130 240 235 191 240 235 191 240 235 191 237 230 186 237 230 186 237 230 186 165 161 130 165 161 130 237 230 186 165 161 130 165 161 130 237 230 186 232 225 178 165 161 130 237 230 186 165 161 130 232 225 178 232 225 178 162 157 124 159 160 114 162 157 124 162 157 124 159 160 114 162 157 124 228 229 164 232 225 178 162 157 124 232 225 178 162 157 124 162 157 124 162 157 124 232 225 178 232 225 178 232 225 178 232 225 178 232 225 178 232 225 178 232 225 178 232 225 178 232 225 178 159 160 114 232 225 178 162 157 124 162 157 124 162 157 124 162 157 124 162 157 124 165 161 130 165 161 130 168 164 133 168 164 133 168 164 133 240 235 191 168 164 133 163 161 130 163 161 130 163 161 130 163 161 130 163 161 130 156 159 126 156 159 126 156 159 126 156 159 126 224 228 180 234 231 186 234 231 186 234 231 186 224 228 180 156 159 126 224 228 180 224 228 180 156 159 126 234 231 186 234 231 186 234 231 186 156 159 126 224 228 180 156 159 126 234 231 186 156 159 126 234 231 186 234 231 186 234 231 186 240 235 191 163 161 130 163 161 130 234 231 186 163 161 130 234 231 186 234 231 186 163 161 130 234 231 186 163 161 130 163 161 130 156 159 126 156 159 126 156 159 126 224 228 180 150 155 123 150 155 123 215 222 176 150 155 123 150 155 123 143 150 119 143 150 119 205 215 171 195 206 160 195 206 160 195 206 160 195 206 160 195 206 160 195 206 160 136 144 112 136 144 112 195 206 160 195 206 160 195 206 160 195 206 160 136 144 112 129 139 105 129 139 105 129 139 102 185 199 146 129 139 102 129 139 102 122 136 98 122 136 98 122 136 98 175 195 141 175 195 141 122 136 98 116 134 93 116 134 93 116 134 93 107 133 88 107 133 88 154 190 126 154 190 126 107 133 88 154 190 126 107 133 88 100 130 83 154 190 126 154 190 126 154 190 126 107 133 88 107 133 88 100 130 83 154 190 126 154 190 126 154 190 126 154 190 126 154 190 126 154 190 126 107 133 88 143 187 119 143 187 119 143 187 119 143 187 119 155 200 126 143 187 119 155 200 126 155 200 126 155 200 126 155 200 126 108 140 88 143 187 119 143 187 119 143 187 119 143 187 119 154 190 126 154 190 126 154 190 126 143 187 119 143 187 119 143 187 119 143 187 119 100 130 83 108 140 88 108 140 88 108 140 88 123 150 100 123 150 100 151 156 114 216 224 164 216 224 164 216 224 164 151 156 114 151 156 114 216 224 164 151 156 114 216 224 164 216 224 164 216 224 164 216 224 164 151 156 114 216 224 164 151 156 114 216 224 164 216 224 164 216 224 164 151 156 114 151 156 114 216 224 164 216 224 164 216 224 164 151 156 114 216 224 164 176 215 143 176 215 143 176 215 143 176 215 143 176 215 143 176 215 143 176 215 143 176 215 143 176 215 143 155 200 126 155 200 126 155 200 126 155 200 126 155 200 126

174 227 255 174 227 255 174 227 255 174 227 255 174 227 255 186 234 255 186 234 255 208 240 255 208 240 255 221 240 230 243 234 208 216 224 164 216 224 164 216 224 164 216 224 164 176 215 143 176 215 143 155 200 126 155 200 126 143 187 119 154 190 126 154 190 126 166 192 134 175 195 141 175 195 141 185 199 146 185 199 150 195 206 160 205 215 171 205 215 171 215 222 176 224 228 180 224 228 180 234 231 186 234 231 186 234 231 186 240 235 191 240 235 191 240 235 191 237 230 186 232 225 178 165 161 130 165 161 130 237 230 186 237 230 186 165 161 130 237 230 186 237 230 186 165 161 130 165 161 130 165 161 130 165 161 130 232 225 178 232 225 178 232 225 178 162 157 124 162 157 124 162 157 124 162 157 124 228 229 164 228 229 164 232 225 178 232 225 178 162 157 124 162 157 124 232 225 178 232 225 178 232 225 178 228 229 164 232 225 178 232 225 178 162 157 124 162 157 124 232 225 178 232 225 178 162 157 124 228 229 164 162 157 124 232 225 178 232 225 178 165 161 130 165 161 130 165 161 130 237 230 186 237 230 186 168 164 133 168 164 133 240 235 191 240 235 191 163 161 130 163 161 130 163 161 130 163 161 130 156 159 126 156 159 126 156 159 126 156 159 126 156 159 126 224 228 180 224 228 180 234 231 186 234 231 186 234 231 186 156 159 126 224 228 180 224 228 180 234 231 186 224 228 180 234 231 186 156 159 126 234 231 186 224 228 180 224 228 180 234 231 186 156 159 126 234 231 186 234 231 186 234 231 186 234 231 186 163 161 130 234 231 186 163 161 130 163 161 130 234 231 186 234 231 186 163 161 130 234 231 186 234 231 186 234 231 186 163 161 130 224 228 180 224 228 180 156 159 126 150 155 123 150 155 123 215 222 176 150 155 123 215 222 176 215 222 176 143 150 119 205 215 171 136 144 112 195 206 160 136 144 112 205 215 171 136 144 112 195 206 160 195 206 160 195 206 160 195 206 160 136 144 112 195 206 160 195 206 160 136 144 112 129 139 105 129 139 105 129 139 105 185 199 146 129 139 102 122 136 98 122 136 98 122 136 98 122 136 98 122 136 98 122 136 98 116 134 93 116 134 93 107 133 88 166 192 134 107 133 88 107 133 88 154 190 126 154 190 126 107 133 88 154 190 126 154 190 126 154 190 126 154 190 126 154 190 126 107 133 88 154 190 126 107 133 88 154 190 126 154 190 126 154 190 126 154 190 126 154 190 126 154 190 126 166 192 134 154 190 126 154 190 126 143 187 119 154 190 126 143 187 119 143 187 119 143 187 119 143 187 119 143 187 119 155 200 126 155 200 126 155 200 126 143 187 119 143 187 119 143 187 119 154 190 126 154 190 126 154 190 126 100 130 83 100 130 83 154 190 126 154 190 126 143 187 119 143 187 119 143 187 119 108 140 88 108 140 88 123 150 100 123 150 100 176 215 143 176 215 143 176 215 143 216 224 164 216 224 164 151 156 114 216 224 164 216 224 164 176 215 143 151 156 114 176 215 143 216 224 164 151 156 114 216 224 164 216 224 164 216 224 164 216 224 164 216 224 164 216 224 164 216 224 164 216 224 164 216 224 164 176 215 143 176 215 143 176 215 143 176 215 143 176 215 143 176 215 143 176 215 143 176 215 143 176 215 143 155 200 126 155 200 126 155 200 126 155 200 126 155 200 126 155 200 126 143 187 119 143 187 119

166 224 247 174 227 255 174 227 255 174 227 255 174 227 255 186 234 255 208 240 255 208 240 255 221 240 230 243 234 208 243 234 208 216 224 164 216 224 164 151 156 114 176 215 143 176 215 143 176 215 143 155 200 126 155 200 126 143 187 119 143 187 119 154 190 126 166 192 134 166 192 134 175 195 141 185 199 146 185 199 150 195 206 160 205 215 171 215 222 176 215 222 176 215 222 176 156 159 126 224 228 180 234 231 186 234 231 186 240 235 191 240 235 191 237 230 186 237 230 186 237 230 186 165 161 130 237 230 186 237 230 186 165 161 130 165 161 130 165 161 130 165 161 130 237 230 186 165 161 130 237 230 186 237 230 186 232 225 178 232 225 178 232 225 178 162 157 124 232 225 178 162 157 124 232 225 178 232 225 178 228 229 164 162 157 124 162 157 124 162 157 124 162 157 124 162 157 124 162 157 124 162 157 124 162 157 124 162 157 124 162 157 124 162 157 124 162 157 124 232 225 178 162 157 124 232 225 178 232 225 178 162 157 124 232 225 178 162 157 124 162 157 124 165 161 130 165 161 130 165 161 130 168 164 133 168 164 133 168 164 133 240 235 191 240 235 191 163 161 130 163 161 130 156 159 126 234 231 186 156 159 126 156 159 126 156 159 126 224 228 180 224 228 180 224 228 180 156 159 126 156 159 126 156 159 126 163 161 130 163 161 130 234 231 186 224 228 180 224 228 180 234 231 186 156 159 126 156 159 126 156 159 126 156 159 126 224 228 180 224 228 180 156 159 126 234 231 186 234 231 186 234 231 186 163 161 130 163 161 130 234 231 186 163 161 130 163 161 130 234 231 186 234 231 186 234 231 186 234 231 186 234 231 186 234 231 186 163 161 130 234 231 186 156 159 126 156 159 126 156 159 126 215 222 176 215 222 176 150 155 123 150 155 123 150 155 123 143 150 119 143 150 119 136 144 112 136 144 112 136 144 112 136 144 112 136 144 112 136 144 112 136 144 112 136 144 112 129 139 105 129 139 105 136 144 112 136 144 112 136 144 112 129 139 105 129 139 105 129 139 102 122 136 98 122 136 98 122 136 98 122 136 98 175 195 141 122 136 98 116 134 93 116 134 93 116 134 93 107 133 88 107 133 88 107 133 88 107 133 88 107 133 88 107 133 88 107 133 88 107 133 88 107 133 88 107 133 88 154 190 126 154 190 126 154 190 126 154 190 126 154 190 126 154 190 126 154 190 126 154 190 126 166 192 134 154 190 126 154 190 126 154 190 126 154 190 126 107 133 88 154 190 126 154 190 126 154 190 126 154 190 126 100 130 83 143 187 119 143 187 119 143 187 119 143 187 119 143 187 119 143 187 119 143 187 119 154 190 126 154 190 126 154 190 126 154 190 126 154 190 126 154 190 126 154 190 126 154 190 126 154 190 126 100 130 83 100 130 83 100 130 83 143 187 119 108 140 88 155 200 126 176 215 143 176 215 143 176 215 143 176 215 143 151 156 114 216 224 164 151 156 114 216 224 164 216 224 164 216 224 164 151 156 114 216 224 164 176 215 143 216 224 164 176 215 143 176 215 143 216 224 164 216 224 164 151 156 114 216 224 164 151 156 114 216 224 164 176 215 143 176 215 143 176 215 143 176 215 143 176 215 143 123 150 100 123 150 100 176 215 143 155 200 126 176 215 143 155 200 126 108 140 88 155 200 126 143 187 119 143 187 119 143 187 119 143 187 119 143 187 119

166 224 247 174 227 255 174 227 255 174 227 255 186 234 255 208 240 255 208 240 255 208 240 255 221 240 230 221 240 230 243 234 208 216 224 164 216 224 164 216 224 164 216 224 164 176 215 143 176 215 143 155 200 126 143 187 119 143 187 119 154 190 126 154 190 126 166 192 134 175 195 141 175 195 141 185 199 150 195 206 160 195 206 160 205 215 171 205 215 171 215 222 176 215 222 176 224 228 180 224 228 180 234 231 186 234 231 186 234 231 186 240 235 191 237 230 186 168 164 133 168 164 133 165 161 130 237 230 186 165 161 130 165 161 130 168 164 133 165 161 130 237 230 186 237 230 186 165 161 130 165 161 130 165 161 130 232 225 178 232 225 178 162 157 124 162 157 124 232 225 178 232 225 178 232 225 178 162 157 124 232 225 178 162 157 124 232 225 178 232 225 178 232 225 178 232 225 178 232 225 178 232 225 178 232 225 178 162 157 124 165 161 130 165 161 130 165 161 130 232 225 178 162 157 124 162 157 124 162 157 124 162 157 124 232 225 178 162 157 124 162 157 124 165 161 130 165 161 130 168 164 133 168 164 133 168 164 133 168 164 133 163 161 130 163 161 130 163 161 130 156 159 126 156 159 126 234 231 186 156 159 126 156 159 126 150 155 123 150 155 123 150 155 123 224 228 180 156 159 126 224 228 180 156 159 126 224 228 180 156 159 126 156 159 126 156 159 126 224 228 180 224 228 180 156 159 126 224 228 180 234 231 186 234 231 186 224 228 180 224 228 180 234 231 186 234 231 186 234 231 186 234 231 186 163 161 130 234 231 186 163 161 130 234 231 186 234 231 186 234 231 186 234 231 186 234 231 186 234 231 186 163 161 130 163 161 130 163 161 130 234 231 186 156 159 126 224 228 180 224 228 180 224 228 180 215 222 176 224 228 180 150 155 123 150 155 123 143 150 119 205 215 171 205 215 171 205 215 171 136 144 112 136 144 112 129 139 105 129 139 105 129 139 105 129 139 105 129 139 105 129 139 105 195 206 160 195 206 160 129 139 105 129 139 105 129 139 102 122 136 98 122 136 98 122 136 98 116 134 93 175 195 141 175 195 141 122 136 98 116 134 93 116 134 93 116 134 93 107 133 88 107 133 88 154 190 126 107 133 88 107 133 88 100 130 83 100 130 83 100 130 83 154 190 126 154 190 126 154 190 126 107 133 88 154 190 126 154 190 126 154 190 126 107 133 88 154 190 126 166 192 134 166 192 134 166 192 134 166 192 134 166 192 134 107 133 88 154 190 126 166 192 134 154 190 126 154 190 126 154 190 126 107 133 88 143 187 119 143 187 119 143 187 119 143 187 119 143 187 119 154 190 126 154 190 126 154 190 126 154 190 126 100 130 83 154 190 126 154 190 126 154 190 126 154 190 126 154 190 126 154 190 126 154 190 126 143 187 119 143 187 119 143 187 119 108 140 88 155 200 126 155 200 126 155 200 126 123 150 100 176 215 143 151 156 114 151 156 114 151 156 114 216 224 164 151 156 114 151 156 114 216 224 164 176 215 143 176 215 143 176 215 143 176 215 143 176 215 143 176 215 143 176 215 143 151 156 114 216 224 164 176 215 143 176 215 143 176 215 143 176 215 143 176 215 143 176 215 143 176 215 143 123 150 100 176 215 143 155 200 126 155 200 126 155 200 126 155 200 126 155 200 126 155 200 126 143 187 119 143 187 119 143 187 119 143 187 119 143 187 119

174 227 255 174 227 255 174 227 255 186 234 255 208 240 255 208 240 255 208 240 255 221 240 230 243 234 208 243 234 208 243 234 208 216 224 164 216 224 164 216 224 164 176 215 143 176 215 143 155 200 126 155 200 126 143 187 119 143 187 119 154 190 126 154 190 126 166 192 134 175 195 141 185 199 146 185 199 150 195 206 160 195 206 160 205 215 171 215 222 176 215 222 176 215 222 176 224 228 180 234 231 186 234 231 186 234 231 186 234 231 186 234 231 186 168 164 133 168 164 133 240 235 191 168 164 133 237 230 186 165 161 130 237 230 186 165 161 130 240 235 191 168 164 133 237 230 186 237 230 186 165 161 130 237 230 186 232 225 178 162 157 124 162 157 124 232 225 178 232 225 178 162 157 124 232 225 178 232 225 178 232 225 178 162 157 124 162 157 124 232 225 178 232 225 178 232 225 178 232 225 178 165 161 130 165 161 130 165 161 130 165 161 130 165 161 130 165 161 130 232 225 178 162 157 124 232 225 178 232 225 178 232 225 178 232 225 178 162 157 124 162 157 124 165 161 130 168 164 133 168 164 133 168 164 133 163 161 130 163 161 130 163 161 130 163 161 130 156 159 126 156 159 126 156 159 126 224 228 180 156 159 126 156 159 126 150 155 123 215 222 176 224 228 180 224 228 180 224 228 180 224 228 180 156 159 126 224 228 180 156 159 126 224 228 180 156 159 126 224 228 180 156 159 126 156 159 126 224 228 180 224 228 180 156 159 126 156 159 126 224 228 180 156 159 126 156 159 126 156 159 126 163 161 130 163 161 130 234 231 186 234 231 186 234 231 186 234 231 186 240 235 191 240 235 191 163 161 130 163 161 130 234 231 186 163 161 130 234 231 186 156 159 126 156 159 126 156 159 126 156 159 126 156 159 126 156 159 126 215 222 176 150 155 123 150 155 123 143 150 119 143 150 119 136 144 112 136 144 112 129 139 105 129 139 105 129 139 105 129 139 105 185 199 150 129 139 105 129 139 105 129 139 105 129 139 105 129 139 105 129 139 105 129 139 102 129 139 102 122 136 98 122 136 98 116 134 93 116 134 93 116 134 93 116 134 93 116 134 93 116 134 93 116 134 93 116 134 93 107 133 88 107 133 88 107 133 88 107 133 88 107 133 88 100 130 83 100 130 83 100 130 83 100 130 83 100 130 83 154 190 126 100 130 83 100 130 83 107 133 88 107 133 88 107 133 88 107 133 88 166 192 134 166 192 134 116 134 93 116 134 93 166 192 134 107 133 88 154 190 126 166 192 134 166 192 134 166 192 134 166 192 134 154 190 126 154 190 126 143 187 119 154 190 126 143 187 119 143 187 119 143 187 119 154 190 126 154 190 126 154 190 126 100 130 83 154 190 126 154 190 126 166 192 134 166 192 134 154 190 126 154 190 126 107 133 88 154 190 126 154 190 126 143 187 119 100 130 83 143 187 119 155 200 126 108 140 88 108 140 88 123 150 100 176 215 143 176 215 143 216 224 164 151 156 114 151 156 114 216 224 164 216 224 164 216 224 164 123 150 100 176 215 143 123 150 100 123 150 100 123 150 100 151 156 114 176 215 143 216 224 164 176 215 143 176 215 143 176 215 143 176 215 143 155 200 126 155 200 126 176 215 143 123 150 100 155 200 126 155 200 126 155 200 126 155 200 126 155 200 126 155 200 126 155 200 126 143 187 119 143 187 119 143 187 119 154 190 126 154 190 126

174 227 255 174 227 255 186 234 255 186 234 255 208 240 255 208 240 255 221 240 230 243 234 208 243 234 208 243 234 208 216 224 164 216 224 164 176 215 143 176 215 143 176 215 143 176 215 143 176 215 143 155 200 126 143 187 119 143 187 119 154 190 126 154 190 126 166 192 134 175 195 141 185 199 146 185 199 146 185 199 150 195 206 160 205 215 171 205 215 171 215 222 176 224 228 180 234 231 186 224 228 180 156 159 126 234 231 186 234 231 186 163 161 130 240 235 191 240 235 191 237 230 186 168 164 133 168 164 133 168 164 133 237 230 186 237 230 186 237 230 186 240 235 191 240 235 191 165 161 130 237 230 186 237 230 186 232 225 178 232 225 178 232 225 178 232 225 178 228 229 164 162 157 124 232 225 178 162 157 124 232 225 178 162 157 124 232 225 178 232 225 178 232 225 178 162 157 124 165 161 130 165 161 130 165 161 130 165 161 130 165 161 130 165 161 130 237 230 186 232 225 178 232 225 178 162 157 124 232 225 178 162 157 124 162 157 124 232 225 178 232 225 178 232 225 178 165 161 130 240 235 191 240 235 191 163 161 130 163 161 130 156 159 126 156 159 126 156 159 126 156 159 126 224 228 180 224 228 180 156 159 126 156 159 126 150 155 123 150 155 123 150 155 123 150 155 123 150 155 123 150 155 123 156 159 126 224 228 180 224 228 180 224 228 180 156 159 126 224 228 180 224 228 180 234 231 186 224 228 180 156 159 126 156 159 126 156 159 126 156 159 126 156 159 126 224 228 180 224 228 180 224 228 180 234 231 186 234 231 186 240 235 191 240 235 191 240 235 191 240 235 191 240 235 191 163 161 130 163 161 130 234 231 186 240 235 191 234 231 186 156 159 126 150 155 123 150 155 123 150 155 123 224 228 180 156 159 126 224 228 180 150 155 123 143 150 119 136 144 112 136 144 112 136 144 112 136 144 112 129 139 105 129 139 105 129 139 105 129 139 105 129 139 102 129 139 102 129 139 102 185 199 150 185 199 150 185 199 150 129 139 105 129 139 102 122 136 98 122 136 98 122 136 98 116 134 93 116 134 93 116 134 93 166 192 134 116 134 93 116 134 93 166 192 134 116 134 93 107 133 88 107 133 88 107 133 88 100 130 83 100 130 83 100 130 83 143 187 119 143 187 119 143 187 119 143 187 119 143 187 119 100 130 83 143 187 119 154 190 126 154 190 126 154 190 126 154 190 126 166 192 134 166 192 134 166 192 134 166 192 134 107 133 88 107 133 88 154 190 126 166 192 134 166 192 134 175 195 141 166 192 134 166 192 134 107 133 88 154 190 126 154 190 126 154 190 126 143 187 119 143 187 119 154 190 126 154 190 126 107 133 88 154 190 126 154 190 126 154 190 126 166 192 134 175 195 141 116 134 93 154 190 126 107 133 88 166 192 134 154 190 126 154 190 126 154 190 126 143 187 119 100 130 83 108 140 88 123 150 100 123 150 100 176 215 143 123 150 100 151 156 114 151 156 114 216 224 164 216 224 164 216 224 164 176 215 143 151 156 114 176 215 143 176 215 143 176 215 143 123 150 100 151 156 114 216 224 164 176 215 143 176 215 143 176 215 143 155 200 126 155 200 126 155 200 126 123 150 100 123 150 100 155 200 126 155 200 126 155 200 126 155 200 126 143 187 119 155 200 126 143 187 119 143 187 119 143 187 119 143 187 119 154 190 126 154 190 126 166 192 134

174 227 255 186 234 255 186 234 255 208 240 255 221 240 230 221 240 230 243 234 208 243 234 208 243 234 208 216 224 164 216 224 164 176 215 143 176 215 143 123 150 100 176 215 143 176 215 143 155 200 126 155 200 126 143 187 119 143 187 119 154 190 126 154 190 126 166 192 134 175 195 141 185 199 146 185 199 150 185 199 150 195 206 160 195 206 160 143 150 119 215 222 176 224 228 180 224 228 180 156 159 126 156 159 126 224 228 180 156 159 126 234 231 186 240 235 191 240 235 191 240 235 191 168 164 133 168 164 133 168 164 133 168 164 133 168 164 133 168 164 133 168 164 133 168 164 133 168 164 133 168 164 133 237 230 186 237 230 186 165 161 130 232 225 178 162 157 124 162 157 124 162 157 124 162 157 124 165 161 130 165 161 130 162 157 124 232 225 178 162 157 124 162 157 124 162 157 124 165 161 130 165 161 130 237 230 186 165 161 130 165 161 130 165 161 130 165 161 130 237 230 186 165 161 130 165 161 130 232 225 178 165 161 130 165 161 130 162 157 124 162 157 124 165 161 130 165 161 130 168 164 133 168 164 133 163 161 130 163 161 130 163 161 130 156 159 126 156 159 126 156 159 126 156 159 126 156 159 126 156 159 126 224 228 180 150 155 123 150 155 123 150 155 123 150 155 123 150 155 123 150 155 123 224 228 180 150 155 123 224 228 180 224 228 180 156 159 126 224 228 180 224 228 180 156 159 126 156 159 126 156 159 126 150 155 123 156 159 126 150 155 123 156 159 126 150 155 123 224 228 180 224 228 180 234 231 186 234 231 186 240 235 191 168 164 133 168 164 133 163 161 130 163 161 130 163 161 130 156 159 126 156 159 126 163 161 130 163 161 130 156 159 126 150 155 123 150 155 123 150 155 123 215 222 176 150 155 123 150 155 123 150 155 123 143 150 119 136 144 112 136 144 112 136 144 112 136 144 112 129 139 105 129 139 105 129 139 102 129 139 102 129 139 102 129 139 102 129 139 102 129 139 102 129 139 105 129 139 105 129 139 102 129 139 102 129 139 102 122 136 98 122 136 98 116 134 93 116 134 93 166 192 134 166 192 134 166 192 134 166 192 134 116 134 93 116 134 93 166 192 134 154 190 126 154 190 126 100 130 83 100 130 83 100 130 83 143 187 119 143 187 119 100 130 83 143 187 119 143 187 119 100 130 83 143 187 119 154 190 126 154 190 126 107 133 88 154 190 126 166 192 134 166 192 134 116 134 93 116 134 93 107 133 88 107 133 88 166 192 134 154 190 126 166 192 134 166 192 134 116 134 93 116 134 93 107 133 88 154 190 126 154 190 126 154 190 126 100 130 83 154 190 126 154 190 126 154 190 126 107 133 88 154 190 126 154 190 126 154 190 126 154 190 126 116 134 93 116 134 93 107 133 88 107 133 88 154 190 126 107 133 88 107 133 88 107 133 88 154 190 126 100 130 83 108 140 88 155 200 126 123 150 100 123 150 100 123 150 100 151 156 114 151 156 114 216 224 164 216 224 164 216 224 164 216 224 164 151 156 114 216 224 164 176 215 143 176 215 143 176 215 143 176 215 143 176 215 143 176 215 143 176 215 143 176 215 143 155 200 126 155 200 126 108 140 88 123 150 100 155 200 126 155 200 126 155 200 126 143 187 119 143 187 119 143 187 119 143 187 119 143 187 119 143 187 119 143 187 119 143 187 119 154 190 126 154 190 126 154 190 126

186 234 255 186 234 255 186 234 255 208 240 255 221 240 230 221 240 230 243 234 208 243 234 208 243 234 208 216 224 164 176 215 143 216 224 164 176 215 143 176 215 143 176 215 143 176 215 143 176 215 143 155 200 126 143 187 119 143 187 119 154 190 126 166 192 134 166 192 134 175 195 141 185 199 146 185 199 150 195 206 160 195 206 160 195 206 160 205 215 171 215 222 176 215 222 176 224 228 180 156 159 126 156 159 126 224 228 180 156 159 126 224 228 180 234 231 186 163 161 130 240 235 191 163 161 130 168 164 133 240 235 191 240 235 191 240 235 191 168 164 133 240 235 191 240 235 191 168 164 133 240 235 191 240 235 191 237 230 186 165 161 130 237 230 186 165 161 130 165 161 130 165 161 130 162 157 124 165 161 130 165 161 130 165 161 130 165 161 130 165 161 130 165 161 130 165 161 130 162 157 124 165 161 130 237 230 186 237 230 186 237 230 186 165 161 130 165 161 130 237 230 186 237 230 186 165 161 130 165 161 130 165 161 130 165 161 130 165 161 130 165 161 130 165 161 130 165 161 130 168 164 133 168 164 133 163 161 130 163 161 130 156 159 126 156 159 126 224 228 180 224 228 180 224 228 180 224 228 180 156 159 126 224 228 180 150 155 123 150 155 123 215 222 176 215 222 176 215 222 176 215 222 176 224 228 180 150 155 123 215 222 176 150 155 123 156 159 126 224 228 180 156 159 126 156 159 126 156 159 126 150 155 123 150 155 123 150 155 123 150 155 123 215 222 176 150 155 123 215 222 176 224 228 180 234 231 186 234 231 186 163 161 130 163 161 130 163 161 130 163 161 130 156 159 126 156 159 126 156 159 126 156 159 126 156 159 126 156 159 126 156 159 126 150 155 123 150 155 123 215 222 176 215 222 176 150 155 123 143 150 119 143 150 119 143 150 119 136 144 112 136 144 112 136 144 112 136 144 112 129 139 105 129 139 102 129 139 102 129 139 102 129 139 102 129 139 102 129 139 102 185 199 146 185 199 146 185 199 150 129 139 102 129 139 102 129 139 102 122 136 98 175 195 141 122 136 98 166 192 134 166 192 134 116 134 93 166 192 134 166 192 134 166 192 134 166 192 134 116 134 93 107 133 88 154 190 126 107 133 88 143 187 119 143 187 119 143 187 119 143 187 119 143 187 119 143 187 119 100 130 83 143 187 119 143 187 119 143 187 119 154 190 126 154 190 126 166 192 134 154 190 126 166 192 134 166 192 134 107 133 88 107 133 88 107 133 88 154 190 126 166 192 134 166 192 134 166 192 134 116 134 93 116 134 93 107 133 88 154 190 126 154 190 126 107 133 88 100 130 83 154 190 126 100 130 83 154 190 126 154 190 126 154 190 126 154 190 126 154 190 126 154 190 126 166 192 134 107 133 88 107 133 88 154 190 126 107 133 88 107 133 88 154 190 126 107 133 88 107 133 88 100 130 83 108 140 88 108 140 88 155 200 126 123 150 100 151 156 114 151 156 114 151 156 114 216 224 164 216 224 164 216 224 164 216 224 164 151 156 114 216 224 164 151 156 114 176 215 143 176 215 143 176 215 143 176 215 143 176 215 143 176 215 143 155 200 126 176 215 143 123 150 100 155 200 126 155 200 126 155 200 126 143 187 119 143 187 119 143 187 119 143 187 119 143 187 119 100 130 83 143 187 119 143 187 119 143 187 119 143 187 119 154 190 126 154 190 126 154 190 126

208 240 255 208 240 255 208 240 255 221 240 230 221 240 230 243 234 208 243 234 208 243 234 208 216 224 164 176 215 143 176 215 143 176 215 143 176 215 143 176 215 143 155 200 126 155 200 126 176 215 143 155 200 126 143 187 119 154 190 126 154 190 126 166 192 134 175 195 141 175 195 141 185 199 146 185 199 150 185 199 150 195 206 160 205 215 171 205 215 171 215 222 176 215 222 176 215 222 176 156 159 126 150 155 123 156 159 126 224 228 180 234 231 186 234 231 186 163 161 130 163 161 130 163 161 130 163 161 130 240 235 191 163 161 130 163 161 130 163 161 130 163 161 130 240 235 191 168 164 133 240 235 191 240 235 191 168 164 133 165 161 130 237 230 186 165 161 130 165 161 130 168 164 133 165 161 130 165 161 130 165 161 130 165 161 130 237 230 186 165 161 130 165 161 130 237 230 186 165 161 130 165 161 130 165 161 130 165 161 130 168 164 133 165 161 130 168 164 133 168 164 133 237 230 186 165 161 130 168 164 133 168 164 133 168 164 133 168 164 133 168 164 133 168 164 133 168 164 133 168 164 133 168 164 133 163 161 130 163 161 130 163 161 130 224 228 180 234 231 186 224 228 180 234 231 186 224 228 180 224 228 180 224 228 180 224 228 180 150 155 123 215 222 176 215 222 176 215 222 176 150 155 123 215 222 176 150 155 123 224 228 180 224 228 180 215 222 176 224 228 180 156 159 126 150 155 123 150 155 123 150 155 123 143 150 119 150 155 123 143 150 119 215 222 176 150 155 123 215 222 176 224 228 180 156 159 126 156 159 126 163 161 130 163 161 130 163 161 130 156 159 126 156 159 126 156 159 126 156 159 126 156 159 126 150 155 123 150 155 123 150 155 123 150 155 123 150 155 123 150 155 123 150 155 123 143 150 119 143 150 119 143 150 119 136 144 112 136 144 112 136 144 112 136 144 112 129 139 105 129 139 105 129 139 102 129 139 102 129 139 102 129 139 102 122 136 98 122 136 98 122 136 98 129 139 102 129 139 102 129 139 102 129 139 102 129 139 102 185 199 146 122 136 98 122 136 98 175 195 141 166 192 134 166 192 134 166 192 134 166 192 134 166 192 134 116 134 93 116 134 93 107 133 88 107 133 88 107 133 88 100 130 83 143 187 119 154 190 126 154 190 126 100 130 83 100 130 83 100 130 83 143 187 119 143 187 119 143 187 119 143 187 119 154 190 126 154 190 126 107 133 88 107 133 88 107 133 88 107 133 88 107 133 88 154 190 126 154 190 126 107 133 88 107 133 88 107 133 88 107 133 88 107 133 88 107 133 88 154 190 126 107 133 88 107 133 88 154 190 126 154 190 126 154 190 126 154 190 126 107 133 88 154 190 126 107 133 88 154 190 126 107 133 88 107 133 88 107 133 88 154 190 126 107 133 88 107 133 88 154 190 126 100 130 83 107 133 88 154 190 126 100 130 83 108 140 88 108 140 88 155 200 126 123 150 100 151 156 114 216 224 164 216 224 164 216 224 164 216 224 164 216 224 164 151 156 114 151 156 114 216 224 164 216 224 164 176 215 143 123 150 100 123 150 100 123 150 100 155 200 126 155 200 126 155 200 126 155 200 126 155 200 126 155 200 126 155 200 126 155 200 126 143 187 119 143 187 119 143 187 119 143 187 119 100 130 83 100 130 83 143 187 119 143 187 119 143 187 119 154 190 126 143 187 119 154 190 126 154 190 126

208 240 255 208 240 255 221 240 230 221 240 230 221 240 230 243 234 208 216 224 164 216 224 164 176 215 143 176 215 143 176 215 143 176 215 143 176 215 143 176 215 143 155 200 126 155 200 126 155 200 126 155 200 126 143 187 119 154 190 126 154 190 126 166 192 134 175 195 141 175 195 141 175 195 141 185 199 146 185 199 150 195 206 160 205 215 171 205 215 171 215 222 176 215 222 176 215 222 176 150 155 123 150 155 123 224 228 180 224 228 180 156 159 126 156 159 126 234 231 186 163 161 130 163 161 130 163 161 130 234 231 186 240 235 191 234 231 186 163 161 130 234 231 186 240 235 191 168 164 133 240 235 191 240 235 191 168 164 133 168 164 133 168 164 133 168 164 133 168 164 133 168 164 133 168 164 133 168 164 133 237 230 186 237 230 186 237 230 186 165 161 130 165 161 130 165 161 130 165 161 130 165 161 130 165 161 130 168 164 133 168 164 133 168 164 133 168 164 133 168 164 133 237 230 186 165 161 130 165 161 130 237 230 186 237 230 186 168 164 133 168 164 133 168 164 133 168 164 133 240 235 191 240 235 191 163 161 130 234 231 186 234 231 186 234 231 186 234 231 186 234 231 186 234 231 186 234 231 186 234 231 186 234 231 186 156 159 126 150 155 123 215 222 176 215 222 176 150 155 123 215 222 176 215 222 176 224 228 180 215 222 176 224 228 180 150 155 123 224 228 180 150 155 123 150 155 123 143 150 119 143 150 119 143 150 119 143 150 119 143 150 119 205 215 171 143 150 119 215 222 176 150 155 123 156 159 126 156 159 126 156 159 126 156 159 126 156 159 126 150 155 123 156 159 126 150 155 123 150 155 123 150 155 123 143 150 119 143 150 119 143 150 119 150 155 123 215 222 176 150 155 123 143 150 119 143 150 119 215 222 176 143 150 119 136 144 112 136 144 112 195 206 160 136 144 112 129 139 105 129 139 105 129 139 102 129 139 102 122 136 98 122 136 98 122 136 98 122 136 98 122 136 98 185 199 146 129 139 102 122 136 98 122 136 98 122 136 98 185 199 146 185 199 146 175 195 141 122 136 98 175 195 141 116 134 93 166 192 134 116 134 93 166 192 134 116 134 93 107 133 88 107 133 88 107 133 88 107 133 88 107 133 88 154 190 126 154 190 126 100 130 83 154 190 126 100 130 83 100 130 83 100 130 83 100 130 83 143 187 119 154 190 126 154 190 126 166 192 134 154 190 126 166 192 134 154 190 126 154 190 126 107 133 88 154 190 126 107 133 88 107 133 88 107 133 88 107 133 88 107 133 88 107 133 88 154 190 126 107 133 88 107 133 88 107 133 88 154 190 126 154 190 126 107 133 88 154 190 126 154 190 126 154 190 126 100 130 83 100 130 83 107 133 88 107 133 88 107 133 88 107 133 88 107 133 88 154 190 126 107 133 88 100 130 83 100 130 83 154 190 126 100 130 83 100 130 83 108 140 88 108 140 88 123 150 100 176 215 143 216 224 164 151 156 114 216 224 164 216 224 164 151 156 114 151 156 114 151 156 114 216 224 164 216 224 164 176 215 143 176 215 143 176 215 143 176 215 143 155 200 126 155 200 126 155 200 126 123 150 100 155 200 126 155 200 126 155 200 126 155 200 126 143 187 119 143 187 119 143 187 119 100 130 83 143 187 119 143 187 119 143 187 119 143 187 119 143 187 119 143 187 119 154 190 126 154 190 126 154 190 126

221 240 230 221 240 230 243 234 208 243 234 208 243 234 208 243 234 208 216 224 164 216 224 164 216 224 164 176 215 143 123 150 100 123 150 100 176 215 143 176 215 143 176 215 143 155 200 126 155 200 126 143 187 119 143 187 119 143 187 119 154 190 126 166 192 134 166 192 134 175 195 141 185 199 146 185 199 150 185 199 150 195 206 160 205 215 171 143 150 119 215 222 176 215 222 176 215 222 176 215 222 176 224 228 180 215 222 176 150 155 123 224 228 180 224 228 180 224 228 180 234 231 186 163 161 130 234 231 186 234 231 186 163 161 130 163 161 130 163 161 130 234 231 186 234 231 186 168 164 133 168 164 133 163 161 130 163 161 130 168 164 133 163 161 130 168 164 133 168 164 133 168 164 133 168 164 133 168 164 133 240 235 191 168 164 133 168 164 133 168 164 133 168 164 133 168 164 133 168 164 133 168 164 133 168 164 133 168 164 133 168 164 133 168 164 133 168 164 133 168 164 133 168 164 133 168 164 133 168 164 133 168 164 133 168 164 133 168 164 133 240 235 191 240 235 191 168 164 133 168 164 133 168 164 133 240 235 191 240 235 191 240 235 191 240 235 191 234 231 186 240 235 191 240 235 191 234 231 186 163 161 130 234 231 186 156 159 126 150 155 123 150 155 123 150 155 123 215 222 176 215 222 176 215 222 176 150 155 123 150 155 123 215 222 176 150 155 123 150 155 123 150 155 123 143 150 119 143 150 119 143 150 119 136 144 112 205 215 171 143 150 119 143 150 119 143 150 119 215 222 176 215 222 176 150 155 123 150 155 123 150 155 123 150 155 123 150 155 123 150 155 123 150 155 123 150 155 123 150 155 123 143 150 119 143 150 119 143 150 119 143 150 119 143 150 119 215 222 176 143 150 119 143 150 119 143 150 119 205 215 171 143 150 119 136 144 112 136 144 112 129 139 105 129 139 105 129 139 105 129 139 105 129 139 102 129 139 102 129 139 102 175 195 141 185 199 146 175 195 141 175 195 141 175 195 141 122 136 98 122 136 98 175 195 141 175 195 141 175 195 141 122 136 98 122 136 98 122 136 98 175 195 141 175 195 141 116 134 93 116 134 93 166 192 134 116 134 93 107 133 88 154 190 126 154 190 126 107 133 88 154 190 126 154 190 126 100 130 83 100 130 83 100 130 83 100 130 83 143 187 119 143 187 119 143 187 119 143 187 119 154 190 126 154 190 126 154 190 126 107 133 88 107 133 88 107 133 88 107 133 88 107 133 88 107 133 88 100 130 83 100 130 83 100 130 83 100 130 83 154 190 126 154 190 126 107 133 88 107 133 88 107 133 88 154 190 126 154 190 126 154 190 126 107 133 88 154 190 126 107 133 88 100 130 83 100 130 83 100 130 83 154 190 126 154 190 126 154 190 126 107 133 88 107 133 88 100 130 83 107 133 88 100 130 83 100 130 83 143 187 119 100 130 83 108 140 88 108 140 88 108 140 88 123 150 100 151 156 114 151 156 114 151 156 114 216 224 164 216 224 164 151 156 114 216 224 164 216 224 164 216 224 164 176 215 143 176 215 143 176 215 143 176 215 143 176 215 143 123 150 100 108 140 88 155 200 126 123 150 100 155 200 126 155 200 126 155 200 126 155 200 126 143 187 119 143 187 119 100 130 83 100 130 83 143 187 119 143 187 119 143 187 119 143 187 119 143 187 119 154 190 126 154 190 126 154 190 126 154 190 126

243 234 208 243 234 208 243 234 208 216 224 164 216 224 164 216 224 164 216 224 164 216 224 164 176 215 143 176 215 143 176 215 143 176 215 143 176 215 143 155 200 126 155 200 126 155 200 126 155 200 126 155 200 126 143 187 119 143 187 119 154 190 126 166 192 134 175 195 141 175 195 141 185 199 146 185 199 146 195 206 160 195 206 160 205 215 171 205 215 171 205 215 171 150 155 123 215 222 176 215 222 176 224 228 180 150 155 123 224 228 180 215 222 176 156 159 126 224 228 180 156 159 126 156 159 126 234 231 186 163 161 130 163 161 130 163 161 130 156 159 126 156 159 126 163 161 130 163 161 130 163 161 130 163 161 130 163 161 130 163 161 130 163 161 130 234 231 186 168 164 133 163 161 130 240 235 191 240 235 191 168 164 133 168 164 133 168 164 133 168 164 133 168 164 133 163 161 130 163 161 130 163 161 130 163 161 130 168 164 133 240 235 191 168 164 133 163 161 130 163 161 130 163 161 130 163 161 130 168 164 133 168 164 133 240 235 191 168 164 133 240 235 191 240 235 191 240 235 191 240 235 191 240 235 191 168 164 133 240 235 191 240 235 191 240 235 191 240 235 191 240 235 191 240 235 191 163 161 130 163 161 130 163 161 130 156 159 126 150 155 123 215 222 176 215 222 176 215 222 176 215 222 176 150 155 123 215 222 176 150 155 123 215 222 176 150 155 123 150 155 123 150 155 123 143 150 119 143 150 119 136 144 112 136 144 112 136 144 112 136 144 112 136 144 112 136 144 112 205 215 171 143 150 119 150 155 123 143 150 119 143 150 119 143 150 119 143 150 119 143 150 119 150 155 123 143 150 119 143 150 119 143 150 119 143 150 119 136 144 112 143 150 119 143 150 119 143 150 119 143 150 119 205 215 171 143 150 119 136 144 112 136 144 112 136 144 112 136 144 112 129 139 105 129 139 105 185 199 150 129 139 102 129 139 102 129 139 102 185 199 146 185 199 146 185 199 146 122 136 98 122 136 98 122 136 98 175 195 141 175 195 141 185 199 146 175 195 141 122 136 98 175 195 141 175 195 141 175 195 141 175 195 141 175 195 141 116 134 93 166 192 134 166 192 134 166 192 134 116 134 93 154 190 126 107 133 88 107 133 88 154 190 126 107 133 88 100 130 83 100 130 83 143 187 119 100 130 83 143 187 119 100 130 83 143 187 119 143 187 119 154 190 126 154 190 126 154 190 126 107 133 88 107 133 88 154 190 126 107 133 88 100 130 83 100 130 83 100 130 83 100 130 83 100 130 83 100 130 83 100 130 83 107 133 88 107 133 88 154 190 126 154 190 126 154 190 126 154 190 126 154 190 126 107 133 88 154 190 126 154 190 126 107 133 88 154 190 126 143 187 119 143 187 119 100 130 83 154 190 126 107 133 88 154 190 126 154 190 126 154 190 126 100 130 83 100 130 83 100 130 83 108 140 88 108 140 88 108 140 88 123 150 100 123 150 100 151 156 114 151 156 114 151 156 114 216 224 164 151 156 114 216 224 164 176 215 143 176 215 143 176 215 143 176 215 143 176 215 143 176 215 143 176 215 143 176 215 143 123 150 100 176 215 143 123 150 100 123 150 100 176 215 143 155 200 126 155 200 126 155 200 126 143 187 119 143 187 119 154 190 126 143 187 119 154 190 126 154 190 126 154 190 126 154 190 126 143 187 119 154 190 126 154 190 126 154 190 126 154 190 126

243 234 208 243 234 208 243 234 208 216 224 164 216 224 164 216 224 164 216 224 164 216 224 164 176 215 143 176 215 143 176 215 143 155 200 126 176 215 143 176 215 143 155 200 126 155 200 126 155 200 126 143 187 119 143 187 119 143 187 119 154 190 126 166 192 134 166 192 134 175 195 141 185 199 146 185 199 146 185 199 150 195 206 160 195 206 160 205 215 171 215 222 176 215 222 176 215 222 176 224 228 180 215 222 176 150 155 123 150 155 123 150 155 123 224 228 180 224 228 180 156 159 126 156 159 126 156 159 126 156 159 126 156 159 126 156 159 126 156 159 126 156 159 126 156 159 126 156 159 126 156 159 126 163 161 130 156 159 126 156 159 126 156 159 126 163 161 130 163 161 130 163 161 130 163 161 130 163 161 130 163 161 130 163 161 130 163 161 130 163 161 130 163 161 130 163 161 130 163 161 130 163 161 130 234 231 186 163 161 130 163 161 130 163 161 130 163 161 130 234 231 186 163 161 130 163 161 130 234 231 186 163 161 130 168 164 133 168 164 133 168 164 133 168 164 133 163 161 130 168 164 133 240 235 191 240 235 191 240 235 191 240 235 191 240 235 191 240 235 191 240 235 191 168 164 133 168 164 133 163 161 130 234 231 186 156 159 126 156 159 126 215 222 176 224 228 180 224 228 180 215 222 176 150 155 123 215 222 176 215 222 176 215 222 176 150 155 123 143 150 119 143 150 119 143 150 119 136 144 112 136 144 112 129 139 105 129 139 105 136 144 112 195 206 160 195 206 160 195 206 160 143 150 119 143 150 119 143 150 119 143 150 119 143 150 119 136 144 112 143 150 119 143 150 119 143 150 119 136 144 112 136 144 112 136 144 112 136 144 112 136 144 112 136 144 112 136 144 112 136 144 112 143 150 119 136 144 112 136 144 112 129 139 105 129 139 105 129 139 105 129 139 105 129 139 105 129 139 102 129 139 102 129 139 102 129 139 102 185 199 146 129 139 102 122 136 98 122 136 98 122 136 98 122 136 98 122 136 98 122 136 98 122 136 98 122 136 98 122 136 98 175 195 141 122 136 98 185 199 146 175 195 141 122 136 98 116 134 93 116 134 93 116 134 93 166 192 134 116 134 93 166 192 134 166 192 134 154 190 126 154 190 126 107 133 88 100 130 83 100 130 83 100 130 83 143 187 119 100 130 83 100 130 83 143 187 119 143 187 119 143 187 119 154 190 126 154 190 126 107 133 88 107 133 88 107 133 88 107 133 88 100 130 83 100 130 83 100 130 83 100 130 83 108 140 88 108 140 88 143 187 119 143 187 119 100 130 83 107 133 88 107 133 88 154 190 126 107 133 88 107 133 88 107 133 88 107 133 88 107 133 88 107 133 88 154 190 126 100 130 83 143 187 119 100 130 83 154 190 126 154 190 126 107 133 88 154 190 126 100 130 83 100 130 83 100 130 83 108 140 88 108 140 88 108 140 88 108 140 88 123 150 100 123 150 100 151 156 114 151 156 114 151 156 114 216 224 164 216 224 164 216 224 164 216 224 164 151 156 114 176 215 143 176 215 143 176 215 143 176 215 143 123 150 100 176 215 143 176 215 143 123 150 100 123 150 100 123 150 100 155 200 126 155 200 126 155 200 126 155 200 126 143 187 119 100 130 83 143 187 119 154 190 126 154 190 126 154 190 126 154 190 126 107 133 88 107 133 88 154 190 126 154 190 126 154 190 126 154 190 126

216 224 164 216 224 164 216 224 164 216 224 164 216 224 164 176 215 143 216 224 164 216 224 164 176 215 143 176 215 143 155 200 126 155 200 126 155 200 126 155 200 126 155 200 126 155 200 126 155 200 126 143 187 119 143 187 119 154 190 126 166 192 134 166 192 134 166 192 134 175 195 141 175 195 141 185 199 146 185 199 150 195 206 160 205 215 171 205 215 171 215 222 176 215 222 176 224 228 180 215 222 176 150 155 123 215 222 176 150 155 123 150 155 123 215 222 176 150 155 123 150 155 123 150 155 123 150 155 123 156 159 126 150 155 123 150 155 123 150 155 123 150 155 123 150 155 123 156 159 126 156 159 126 156 159 126 156 159 126 156 159 126 156 159 126 156 159 126 156 159 126 156 159 126 156 159 126 163 161 130 234 231 186 163 161 130 163 161 130 163 161 130 156 159 126 156 159 126 234 231 186 163 161 130 156 159 126 156 159 126 163 161 130 163 161 130 234 231 186 163 161 130 163 161 130 163 161 130 234 231 186 163 161 130 240 235 191 240 235 191 163 161 130 163 161 130 163 161 130 240 235 191 240 235 191 240 235 191 240 235 191 237 230 186 237 230 186 237 230 186 240 235 191 168 164 133 168 164 133 163 161 130 163 161 130 156 159 126 224 228 180 224 228 180 224 228 180 150 155 123 150 155 123 150 155 123 215 222 176 215 222 176 150 155 123 143 150 119 143 150 119 143 150 119 205 215 171 136 144 112 136 144 112 129 139 105 129 139 105 185 199 150 129 139 105 129 139 105 136 144 112 136 144 112 205 215 171 143 150 119 143 150 119 136 144 112 136 144 112 136 144 112 136 144 112 136 144 112 136 144 112 136 144 112 129 139 105 129 139 105 129 139 105 129 139 105 136 144 112 136 144 112 136 144 112 136 144 112 136 144 112 129 139 105 129 139 105 129 139 105 129 139 105 129 139 102 129 139 105 129 139 102 122 136 98 129 139 102 185 199 146 129 139 102 185 199 146 185 199 146 122 136 98 122 136 98 122 136 98 175 195 141 116 134 93 122 136 98 122 136 98 175 195 141 122 136 98 185 199 146 185 199 146 122 136 98 116 134 93 116 134 93 166 192 134 107 133 88 107 133 88 107 133 88 166 192 134 107 133 88 107 133 88 100 130 83 100 130 83 100 130 83 100 130 83 143 187 119 100 130 83 108 140 88 143 187 119 143 187 119 143 187 119 154 190 126 107 133 88 107 133 88 154 190 126 100 130 83 100 130 83 100 130 83 108 140 88 100 130 83 108 140 88 108 140 88 108 140 88 155 200 126 100 130 83 143 187 119 154 190 126 100 130 83 107 133 88 107 133 88 154 190 126 154 190 126 107 133 88 100 130 83 107 133 88 154 190 126 154 190 126 100 130 83 100 130 83 143 187 119 154 190 126 100 130 83 100 130 83 100 130 83 100 130 83 100 130 83 143 187 119 108 140 88 108 140 88 123 150 100 123 150 100 123 150 100 151 156 114 216 224 164 216 224 164 216 224 164 216 224 164 151 156 114 176 215 143 176 215 143 176 215 143 176 215 143 155 200 126 176 215 143 123 150 100 176 215 143 176 215 143 176 215 143 176 215 143 176 215 143 155 200 126 155 200 126 155 200 126 155 200 126 143 187 119 143 187 119 154 190 126 154 190 126 154 190 126 107 133 88 107 133 88 100 130 83 154 190 126 154 190 126 107 133 88 154 190 126 154 190 126

216 224 164 216 224 164 216 224 164 216 224 164 216 224 164 176 215 143 176 215 143 176 215 143 176 215 143 155 200 126 155 200 126 155 200 126 155 200 126 155 200 126 155 200 126 155 200 126 155 200 126 155 200 126 143 187 119 154 190 126 154 190 126 166 192 134 166 192 134 175 195 141 175 195 141 185 199 146 185 199 150 195 206 160 195 206 160 205 215 171 215 222 176 150 155 123 150 155 123 150 155 123 150 155 123 150 155 123 150 155 123 150 155 123 215 222 176 150 155 123 150 155 123 150 155 123 215 222 176 150 155 123 150 155 123 150 155 123 150 155 123 215 222 176 215 222 176 150 155 123 224 228 180 224 228 180 224 228 180 156 159 126 224 228 180 156 159 126 224 228 180 156 159 126 224 228 180 156 159 126 163 161 130 163 161 130 234 231 186 163 161 130 234 231 186 224 228 180 234 231 186 163 161 130 156 159 126 224 228 180 224 228 180 234 231 186 163 161 130 234 231 186 163 161 130 234 231 186 163 161 130 234 231 186 163 161 130 240 235 191 163 161 130 240 235 191 163 161 130 240 235 191 240 235 191 168 164 133 168 164 133 168 164 133 237 230 186 168 164 133 168 164 133 168 164 133 168 164 133 163 161 130 156 159 126 156 159 126 224 228 180 156 159 126 156 159 126 150 155 123 150 155 123 215 222 176 215 222 176 150 155 123 143 150 119 143 150 119 143 150 119 143 150 119 136 144 112 136 144 112 136 144 112 129 139 105 129 139 105 185 199 150 129 139 105 185 199 150 185 199 150 195 206 160 136 144 112 129 139 105 136 144 112 136 144 112 129 139 105 129 139 105 129 139 105 129 139 105 129 139 105 129 139 105 129 139 105 129 139 105 129 139 105 185 199 150 129 139 105 129 139 105 129 139 105 129 139 105 129 139 105 129 139 105 129 139 105 129 139 105 129 139 105 129 139 102 129 139 102 129 139 102 185 199 146 185 199 146 185 199 146 185 199 146 185 199 146 122 136 98 122 136 98 122 136 98 175 195 141 175 195 141 122 136 98 175 195 141 175 195 141 175 195 141 122 136 98 175 195 141 122 136 98 122 136 98 116 134 93 116 134 93 166 192 134 116 134 93 154 190 126 154 190 126 154 190 126 107 133 88 100 130 83 100 130 83 100 130 83 100 130 83 100 130 83 100 130 83 143 187 119 143 187 119 143 187 119 143 187 119 154 190 126 154 190 126 107 133 88 154 190 126 107 133 88 100 130 83 100 130 83 100 130 83 108 140 88 155 200 126 108 140 88 155 200 126 108 140 88 155 200 126 108 140 88 100 130 83 100 130 83 100 130 83 143 187 119 154 190 126 154 190 126 107 133 88 107 133 88 100 130 83 143 187 119 154 190 126 107 133 88 100 130 83 143 187 119 143 187 119 143 187 119 100 130 83 100 130 83 100 130 83 108 140 88 108 140 88 108 140 88 108 140 88 123 150 100 123 150 100 123 150 100 123 150 100 123 150 100 151 156 114 151 156 114 151 156 114 216 224 164 151 156 114 216 224 164 151 156 114 176 215 143 176 215 143 155 200 126 108 140 88 123 150 100 155 200 126 176 215 143 155 200 126 176 215 143 176 215 143 123 150 100 155 200 126 155 200 126 155 200 126 155 200 126 143 187 119 143 187 119 154 190 126 107 133 88 107 133 88 154 190 126 154 190 126 154 190 126 154 190 126 107 133 88 154 190 126 107 133 88

176 215 143 216 224 164 176 215 143 176 215 143 176 215 143 176 215 143 155 200 126 155 200 126 155 200 126 155 200 126 155 200 126 155 200 126 143 187 119 143 187 119 143 187 119 143 187 119 143 187 119 143 187 119 143 187 119 154 190 126 166 192 134 166 192 134 166 192 134 175 195 141 175 195 141 185 199 146 185 199 150 195 206 160 205 215 171 205 215 171 215 222 176 215 222 176 215 222 176 215 222 176 215 222 176 150 155 123 215 222 176 150 155 123 150 155 123 143 150 119 143 150 119 215 222 176 215 222 176 150 155 123 215 222 176 150 155 123 150 155 123 150 155 123 150 155 123 215 222 176 224 228 180 224 228 180 156 159 126 156 159 126 224 228 180 224 228 180 224 228 180 156 159 126 156 159 126 156 159 126 234 231 186 156 159 126 163 161 130 156 159 126 234 231 186 156 159 126 156 159 126 156 159 126 234 231 186 224 228 180 234 231 186 234 231 186 163 161 130 234 231 186 234 231 186 234 231 186 234 231 186 234 231 186 234 231 186 234 231 186 163 161 130 234 231 186 163 161 130 234 231 186 240 235 191 168 164 133 240 235 191 163 161 130 168 164 133 168 164 133 168 164 133 163 161 130 168 164 133 163 161 130 156 159 126 156 159 126 234 231 186 156 159 126 224 228 180 156 159 126 150 155 123 215 222 176 150 155 123 143 150 119 143 150 119 143 150 119 143 150 119 136 144 112 136 144 112 136 144 112 136 144 112 129 139 105 129 139 105 129 139 105 185 199 150 129 139 105 185 199 150 129 139 105 129 139 105 129 139 105 129 139 105 129 139 105 129 139 105 129 139 105 129 139 105 129 139 102 129 139 102 129 139 102 129 139 105 129 139 102 129 139 105 129 139 102 129 139 105 129 139 102 129 139 105 129 139 102 129 139 105 129 139 105 129 139 102 129 139 102 129 139 102 129 139 102 129 139 102 129 139 102 185 199 146 185 199 146 185 199 146 185 199 146 185 199 146 129 139 102 185 199 146 175 195 141 175 195 141 175 195 141 175 195 141 175 195 141 175 195 141 175 195 141 175 195 141 175 195 141 175 195 141 122 136 98 122 136 98 166 192 134 116 134 93 116 134 93 107 133 88 107 133 88 107 133 88 107 133 88 107 133 88 100 130 83 100 130 83 143 187 119 108 140 88 108 140 88 143 187 119 143 187 119 143 187 119 143 187 119 154 190 126 100 130 83 154 190 126 100 130 83 100 130 83 100 130 83 100 130 83 100 130 83 108 140 88 155 200 126 155 200 126 108 140 88 143 187 119 155 200 126 155 200 126 155 200 126 143 187 119 143 187 119 154 190 126 154 190 126 100 130 83 100 130 83 107 133 88 100 130 83 154 190 126 154 190 126 154 190 126 154 190 126 154 190 126 143 187 119 100 130 83 100 130 83 143 187 119 143 187 119 100 130 83 155 200 126 108 140 88 108 140 88 155 200 126 176 215 143 123 150 100 151 156 114 151 156 114 151 156 114 216 224 164 151 156 114 216 224 164 151 156 114 216 224 164 216 224 164 176 215 143 123 150 100 155 200 126 155 200 126 108 140 88 155 200 126 155 200 126 155 200 126 155 200 126 176 215 143 176 215 143 155 200 126 155 200 126 108 140 88 155 200 126 143 187 119 143 187 119 143 187 119 154 190 126 100 130 83 154 190 126 154 190 126 154 190 126 107 133 88 154 190 126 154 190 126 107 133 88

176 215 143 176 215 143 176 215 143 176 215 143 176 215 143 155 200 126 155 200 126 143 187 119 143 187 119 143 187 119 143 187 119 143 187 119 143 187 119 143 187 119 143 187 119 143 187 119 143 187 119 143 187 119 143 187 119 154 190 126 166 192 134 166 192 134 175 195 141 175 195 141 185 199 146 185 199 146 185 199 150 195 206 160 205 215 171 205 215 171 143 150 119 143 150 119 150 155 123 150 155 123 150 155 123 150 155 123 215 222 176 215 222 176 215 222 176 143 150 119 205 215 171 215 222 176 215 222 176 150 155 123 215 222 176 150 155 123 150 155 123 215 222 176 215 222 176 215 222 176 150 155 123 156 159 126 150 155 123 150 155 123 150 155 123 150 155 123 150 155 123 150 155 123 156 159 126 224 228 180 156 159 126 156 159 126 156 159 126 156 159 126 156 159 126 156 159 126 156 159 126 156 159 126 224 228 180 234 231 186 234 231 186 234 231 186 234 231 186 234 231 186 240 235 191 234 231 186 234 231 186 163 161 130 234 231 186 163 161 130 163 161 130 234 231 186 234 231 186 240 235 191 240 235 191 240 235 191 240 235 191 163 161 130 163 161 130 163 161 130 163 161 130 163 161 130 163 161 130 163 161 130 156 159 126 234 231 186 224 228 180 156 159 126 224 228 180 156 159 126 150 155 123 150 155 123 150 155 123 143 150 119 143 150 119 143 150 119 143 150 119 136 144 112 136 144 112 129 139 105 129 139 105 129 139 105 129 139 105 129 139 105 129 139 102 185 199 150 185 199 150 129 139 102 129 139 105 129 139 105 129 139 102 129 139 102 129 139 102 129 139 102 129 139 102 129 139 102 129 139 102 129 139 102 129 139 102 129 139 102 129 139 102 129 139 102 129 139 102 129 139 102 129 139 102 129 139 102 185 199 150 129 139 102 129 139 102 129 139 102 185 199 146 185 199 146 129 139 102 129 139 102 185 199 146 129 139 102 185 199 146 185 199 146 185 199 146 185 199 146 185 199 146 185 199 146 175 195 141 175 195 141 175 195 141 175 195 141 175 195 141 175 195 141 175 195 141 175 195 141 175 195 141 175 195 141 175 195 141 116 134 93 116 134 93 166 192 134 166 192 134 107 133 88 107 133 88 154 190 126 107 133 88 100 130 83 143 187 119 143 187 119 100 130 83 143 187 119 155 200 126 143 187 119 143 187 119 100 130 83 143 187 119 100 130 83 143 187 119 100 130 83 143 187 119 100 130 83 143 187 119 108 140 88 108 140 88 108 140 88 108 140 88 108 140 88 155 200 126 108 140 88 155 200 126 143 187 119 155 200 126 143 187 119 143 187 119 100 130 83 100 130 83 100 130 83 100 130 83 100 130 83 154 190 126 154 190 126 154 190 126 107 133 88 100 130 83 100 130 83 143 187 119 100 130 83 143 187 119 100 130 83 143 187 119 143 187 119 108 140 88 155 200 126 123 150 100 123 150 100 123 150 100 151 156 114 151 156 114 151 156 114 151 156 114 151 156 114 216 224 164 151 156 114 216 224 164 216 224 164 176 215 143 176 215 143 176 215 143 123 150 100 108 140 88 123 150 100 155 200 126 155 200 126 108 140 88 108 140 88 155 200 126 176 215 143 123 150 100 155 200 126 155 200 126 155 200 126 143 187 119 143 187 119 143 187 119 100 130 83 143 187 119 107 133 88 100 130 83 100 130 83 154 190 126 107 133 88 154 190 126

216 224 164 176 215 143 176 215 143 176 215 143 155 200 126 155 200 126 143 187 119 143 187 119 143 187 119 143 187 119 143 187 119 154 190 126 154 190 126 154 190 126 154 190 126 154 190 126 154 190 126 154 190 126 154 190 126 154 190 126 166 192 134 166 192 134 175 195 141 175 195 141 185 199 146 185 199 150 195 206 160 195 206 160 205 215 171 143 150 119 143 150 119 205 215 171 215 222 176 215 222 176 215 222 176 215 222 176 215 222 176 143 150 119 143 150 119 215 222 176 215 222 176 215 222 176 215 222 176 150 155 123 215 222 176 150 155 123 150 155 123 150 155 123 215 222 176 215 222 176 150 155 123 150 155 123 150 155 123 150 155 123 150 155 123 150 155 123 150 155 123 150 155 123 215 222 176 150 155 123 150 155 123 224 228 180 156 159 126 156 159 126 156 159 126 224 228 180 224 228 180 224 228 180 224 228 180 234 231 186 234 231 186 234 231 186 240 235 191 234 231 186 240 235 191 163 161 130 234 231 186 163 161 130 234 231 186 163 161 130 234 231 186 234 231 186 240 235 191 240 235 191 240 235 191 168 164 133 168 164 133 163 161 130 163 161 130 234 231 186 163 161 130 234 231 186 163 161 130 156 159 126 234 231 186 234 231 186 163 161 130 224 228 180 224 228 180 150 155 123 150 155 123 150 155 123 143 150 119 143 150 119 143 150 119 205 215 171 205 215 171 136 144 112 129 139 105 129 139 105 129 139 105 129 139 102 129 139 105 185 199 150 129 139 102 185 199 150 129 139 102 129 139 102 185 199 146 129 139 102 129 139 102 129 139 102 129 139 102 129 139 102 129 139 102 122 136 98 122 136 98 185 199 146 122 136 98 122 136 98 122 136 98 122 136 98 122 136 98 122 136 98 122 136 98 129 139 102 185 199 146 129 139 102 129 139 102 185 199 146 185 199 146 129 139 102 185 199 146 185 199 146 185 199 146 185 199 146 185 199 146 185 199 146 185 199 150 185 199 146 185 199 146 185 199 146 185 199 146 185 199 146 185 199 146 175 195 141 122 136 98 175 195 141 175 195 141 185 199 146 185 199 146 122 136 98 122 136 98 116 134 93 175 195 141 116 134 93 107 133 88 107 133 88 154 190 126 154 190 126 154 190 126 107 133 88 143 187 119 100 130 83 100 130 83 108 140 88 108 140 88 155 200 126 108 140 88 100 130 83 143 187 119 100 130 83 143 187 119 100 130 83 154 190 126 100 130 83 108 140 88 108 140 88 155 200 126 108 140 88 123 150 100 123 150 100 155 200 126 108 140 88 155 200 126 108 140 88 143 187 119 108 140 88 108 140 88 100 130 83 100 130 83 108 140 88 100 130 83 143 187 119 100 130 83 100 130 83 100 130 83 100 130 83 154 190 126 143 187 119 143 187 119 100 130 83 100 130 83 108 140 88 143 187 119 143 187 119 108 140 88 108 140 88 108 140 88 123 150 100 151 156 114 151 156 114 151 156 114 170 163 145 170 163 145 170 163 145 151 156 114 170 163 145 170 163 145 216 224 164 216 224 164 176 215 143 176 215 143 123 150 100 176 215 143 123 150 100 155 200 126 123 150 100 123 150 100 155 200 126 155 200 126 108 140 88 176 215 143 155 200 126 155 200 126 155 200 126 143 187 119 100 130 83 100 130 83 143 187 119 143 187 119 100 130 83 154 190 126 143 187 119 154 190 126 154 190 126 154 190 126

176 215 143 176 215 143 176 215 143 176 215 143 155 200 126 155 200 126 155 200 126 143 187 119 143 187 119 143 187 119 154 190 126 154 190 126 154 190 126 154 190 126 107 133 88 107 133 88 154 190 126 154 190 126 154 190 126 166 192 134 166 192 134 175 195 141 185 199 146 185 199 146 185 199 150 185 199 150 185 199 150 195 206 160 205 215 171 205 215 171 205 215 171 205 215 171 215 222 176 215 222 176 215 222 176 215 222 176 215 222 176 143 150 119 215 222 176 215 222 176 150 155 123 150 155 123 215 222 176 150 155 123 150 155 123 150 155 123 215 222 176 215 222 176 215 222 176 150 155 123 150 155 123 150 155 123 150 155 123 150 155 123 150 155 123 143 150 119 215 222 176 215 222 176 215 222 176 150 155 123 150 155 123 224 228 180 156 159 126 224 228 180 224 228 180 224 228 180 224 228 180 224 228 180 234 231 186 234 231 186 234 231 186 240 235 191 240 235 191 240 235 191 240 235 191 240 235 191 240 235 191 234 231 186 234 231 186 234 231 186 234 231 186 234 231 186 234 231 186 240 235 191 168 164 133 168 164 133 240 235 191 163 161 130 234 231 186 234 231 186 234 231 186 234 231 186 163 161 130 234 231 186 234 231 186 163 161 130 234 231 186 156 159 126 156 159 126 150 155 123 150 155 123 143 150 119 143 150 119 143 150 119 143 150 119 205 215 171 136 144 112 136 144 112 129 139 105 129 139 105 129 139 102 129 139 102 129 139 102 129 139 102 129 139 102 129 139 102 129 139 102 129 139 102 129 139 102 129 139 102 129 139 102 129 139 102 122 136 98 122 136 98 122 136 98 122 136 98 122 136 98 122 136 98 122 136 98 122 136 98 175 195 141 175 195 141 122 136 98 122 136 98 175 195 141 185 199 146 185 199 146 129 139 102 122 136 98 185 199 146 185 199 146 185 199 146 185 199 146 129 139 102 185 199 146 185 199 146 185 199 146 185 199 146 185 199 150 185 199 150 129 139 102 185 199 150 185 199 150 185 199 146 185 199 146 122 136 98 175 195 141 175 195 141 185 199 146 185 199 146 185 199 146 122 136 98 122 136 98 175 195 141 175 195 141 116 134 93 116 134 93 154 190 126 107 133 88 154 190 126 154 190 126 154 190 126 154 190 126 100 130 83 100 130 83 143 187 119 155 200 126 143 187 119 108 140 88 155 200 126 143 187 119 143 187 119 143 187 119 143 187 119 143 187 119 100 130 83 143 187 119 155 200 126 108 140 88 108 140 88 108 140 88 176 215 143 176 215 143 108 140 88 108 140 88 108 140 88 108 140 88 108 140 88 155 200 126 143 187 119 108 140 88 143 187 119 143 187 119 143 187 119 100 130 83 100 130 83 143 187 119 100 130 83 143 187 119 100 130 83 100 130 83 100 130 83 100 130 83 143 187 119 143 187 119 108 140 88 108 140 88 108 140 88 108 140 88 123 150 100 123 150 100 216 224 164 151 156 114 170 163 145 170 163 145 170 163 145 243 234 208 170 163 145 170 163 145 170 163 145 216 224 164 216 224 164 151 156 114 123 150 100 176 215 143 123 150 100 176 215 143 123 150 100 176 215 143 176 215 143 155 200 126 108 140 88 123 150 100 155 200 126 155 200 126 108 140 88 155 200 126 108 140 88 108 140 88 143 187 119 100 130 83 143 187 119 154 190 126 100 130 83 154 190 126 154 190 126 154 190 126

216 224 164 151 156 114 176 215 143 176 215 143 155 200 126 155 200 126 143 187 119 143 187 119 143 187 119 154 190 126 154 190 126 154 190 126 154 190 126 154 190 126 154 190 126 154 190 126 154 190 126 154 190 126 166 192 134 166 192 134 166 192 134 175 195 141 185 199 146 185 199 146 185 199 150 185 199 150 195 206 160 195 206 160 195 206 160 136 144 112 205 215 171 215 222 176 215 222 176 150 155 123 150 155 123 150 155 123 150 155 123 150 155 123 215 222 176 215 222 176 215 222 176 215 222 176 215 222 176 150 155 123 215 222 176 215 222 176 215 222 176 215 222 176 150 155 123 150 155 123 150 155 123 215 222 176 143 150 119 143 150 119 150 155 123 215 222 176 215 222 176 215 222 176 215 222 176 150 155 123 215 222 176 224 228 180 224 228 180 224 228 180 224 228 180 156 159 126 224 228 180 224 228 180 156 159 126 234 231 186 240 235 191 240 235 191 240 235 191 240 235 191 240 235 191 240 235 191 240 235 191 240 235 191 240 235 191 234 231 186 234 231 186 240 235 191 240 235 191 240 235 191 168 164 133 163 161 130 240 235 191 168 164 133 234 231 186 234 231 186 234 231 186 163 161 130 234 231 186 234 231 186 234 231 186 234 231 186 234 231 186 156 159 126 150 155 123 150 155 123 150 155 123 143 150 119 143 150 119 205 215 171 205 215 171 143 150 119 143 150 119 195 206 160 136 144 112 129 139 105 129 139 105 129 139 102 129 139 102 129 139 102 185 199 146 129 139 102 129 139 102 122 136 98 122 136 98 122 136 98 122 136 98 122 136 98 122 136 98 122 136 98 122 136 98 122 136 98 122 136 98 116 134 93 116 134 93 116 134 93 116 134 93 116 134 93 122 136 98 175 195 141 122 136 98 175 195 141 185 199 146 122 136 98 122 136 98 185 199 146 185 199 146 185 199 150 185 199 150 185 199 146 185 199 150 185 199 150 185 199 146 185 199 146 185 199 146 129 139 102 185 199 150 185 199 150 185 199 150 185 199 150 129 139 102 185 199 146 175 195 141 175 195 141 122 136 98 185 199 146 185 199 146 185 199 146 185 199 146 122 136 98 175 195 141 122 136 98 166 192 134 166 192 134 166 192 134 154 190 126 107 133 88 154 190 126 154 190 126 100 130 83 143 187 119 108 140 88 143 187 119 155 200 126 108 140 88 143 187 119 143 187 119 143 187 119 154 190 126 100 130 83 154 190 126 100 130 83 143 187 119 108 140 88 108 140 88 108 140 88 123 150 100 123 150 100 123 150 100 176 215 143 108 140 88 108 140 88 155 200 126 155 200 126 155 200 126 155 200 126 108 140 88 108 140 88 108 140 88 108 140 88 143 187 119 143 187 119 143 187 119 143 187 119 143 187 119 154 190 126 143 187 119 143 187 119 100 130 83 108 140 88 143 187 119 108 140 88 108 140 88 108 140 88 108 140 88 155 200 126 123 150 100 151 156 114 151 156 114 170 163 145 170 163 145 154 168 161 170 163 145 170 163 145 170 163 145 170 163 145 243 234 208 170 163 145 151 156 114 216 224 164 151 156 114 151 156 114 123 150 100 176 215 143 123 150 100 123 150 100 123 150 100 155 200 126 155 200 126 176 215 143 155 200 126 108 140 88 155 200 126 108 140 88 108 140 88 155 200 126 143 187 119 143 187 119 100 130 83 100 130 83 143 187 119 100 130 83 100 130 83

216 224 164 176 215 143 176 215 143 176 215 143 176 215 143 155 200 126 155 200 126 143 187 119 143 187 119 154 190 126 154 190 126 154 190 126 107 133 88 154 190 126 154 190 126 154 190 126 154 190 126 166 192 134 166 192 134 166 192 134 175 195 141 175 195 141 185 199 146 185 199 146 185 199 150 185 199 150 185 199 150 195 206 160 195 206 160 205 215 171 205 215 171 215 222 176 215 222 176 150 155 123 143 150 119 143 150 119 150 155 123 215 222 176 215 222 176 143 150 119 215 222 176 150 155 123 215 222 176 215 222 176 215 222 176 150 155 123 143 150 119 143 150 119 215 222 176 150 155 123 215 222 176 143 150 119 143 150 119 143 150 119 143 150 119 143 150 119 143 150 119 215 222 176 215 222 176 150 155 123 224 228 180 224 228 180 224 228 180 224 228 180 156 159 126 156 159 126 224 228 180 224 228 180 234 231 186 234 231 186 240 235 191 240 235 191 240 235 191 240 235 191 237 230 186 237 230 186 168 164 133 240 235 191 163 161 130 240 235 191 240 235 191 240 235 191 240 235 191 240 235 191 240 235 191 240 235 191 240 235 191 163 161 130 163 161 130 163 161 130 163 161 130 163 161 130 234 231 186 234 231 186 234 231 186 234 231 186 156 159 126 156 159 126 156 159 126 215 222 176 150 155 123 150 155 123 205 215 171 205 215 171 205 215 171 143 150 119 143 150 119 136 144 112 136 144 112 129 139 105 129 139 102 129 139 102 129 139 102 122 136 98 122 136 98 122 136 98 122 136 98 122 136 98 122 136 98 122 136 98 116 134 93 116 134 93 116 134 93 116 134 93 116 134 93 116 134 93 116 134 93 116 134 93 116 134 93 166 192 134 116 134 93 116 134 93 116 134 93 116 134 93 116 134 93 175 195 141 122 136 98 122 136 98 185 199 146 185 199 146 185 199 150 185 199 150 185 199 150 185 199 150 185 199 150 185 199 150 129 139 102 185 199 146 185 199 146 185 199 150 185 199 150 185 199 150 185 199 150 185 199 150 129 139 102 129 139 102 185 199 146 185 199 146 185 199 146 185 199 146 185 199 146 122 136 98 122 136 98 122 136 98 175 195 141 122 136 98 116 134 93 116 134 93 116 134 93 107 133 88 154 190 126 154 190 126 107 133 88 107 133 88 100 130 83 100 130 83 143 187 119 143 187 119 143 187 119 143 187 119 143 187 119 143 187 119 143 187 119 100 130 83 143 187 119 100 130 83 108 140 88 108 140 88 108 140 88 123 150 100 123 150 100 123 150 100 151 156 114 123 150 100 176 215 143 155 200 126 155 200 126 108 140 88 155 200 126 108 140 88 108 140 88 155 200 126 108 140 88 143 187 119 155 200 126 100 130 83 143 187 119 143 187 119 154 190 126 154 190 126 154 190 126 143 187 119 143 187 119 143 187 119 143 187 119 143 187 119 155 200 126 143 187 119 155 200 126 123 150 100 123 150 100 151 156 114 151 156 114 170 163 145 154 168 161 243 234 208 243 234 208 170 163 145 243 234 208 243 234 208 243 234 208 243 234 208 216 224 164 216 224 164 151 156 114 151 156 114 151 156 114 176 215 143 123 150 100 123 150 100 123 150 100 176 215 143 123 150 100 123 150 100 123 150 100 108 140 88 155 200 126 108 140 88 108 140 88 108 140 88 108 140 88 100 130 83 100 130 83 100 130 83 108 140 88 100 130 83 100 130 83

216 224 164 216 224 164 176 215 143 176 215 143 176 215 143 155 200 126 155 200 126 143 187 119 154 190 126 154 190 126 154 190 126 107 133 88 154 190 126 154 190 126 154 190 126 154 190 126 154 190 126 166 192 134 166 192 134 175 195 141 185 199 146 175 195 141 185 199 146 185 199 146 185 199 150 185 199 150 185 199 150 129 139 105 195 206 160 136 144 112 205 215 171 205 215 171 215 222 176 150 155 123 143 150 119 143 150 119 215 222 176 215 222 176 143 150 119 215 222 176 215 222 176 215 222 176 143 150 119 215 222 176 215 222 176 150 155 123 215 222 176 205 215 171 143 150 119 143 150 119 215 222 176 215 222 176 143 150 119 143 150 119 205 215 171 205 215 171 205 215 171 205 215 171 150 155 123 215 222 176 224 228 180 224 228 180 224 228 180 156 159 126 156 159 126 224 228 180 224 228 180 234 231 186 234 231 186 234 231 186 240 235 191 240 235 191 237 230 186 240 235 191 240 235 191 237 230 186 237 230 186 240 235 191 168 164 133 240 235 191 240 235 191 240 235 191 168 164 133 240 235 191 240 235 191 240 235 191 240 235 191 163 161 130 163 161 130 163 161 130 234 231 186 234 231 186 234 231 186 234 231 186 234 231 186 163 161 130 163 161 130 224 228 180 156 159 126 150 155 123 150 155 123 143 150 119 143 150 119 205 215 171 215 222 176 205 215 171 143 150 119 136 144 112 136 144 112 129 139 105 129 139 105 129 139 102 122 136 98 122 136 98 175 195 141 122 136 98 122 136 98 116 134 93 122 136 98 116 134 93 116 134 93 116 134 93 116 134 93 116 134 93 166 192 134 116 134 93 166 192 134 116 134 93 116 134 93 116 134 93 116 134 93 166 192 134 116 134 93 166 192 134 166 192 134 116 134 93 122 136 98 122 136 98 122 136 98 185 199 146 185 199 150 185 199 150 185 199 150 185 199 150 195 206 160 185 199 150 185 199 150 185 199 150 185 199 150 185 199 150 185 199 150 185 199 150 195 206 160 129 139 105 129 139 102 129 139 102 185 199 146 129 139 102 185 199 146 185 199 146 129 139 102 122 136 98 122 136 98 122 136 98 122 136 98 116 134 93 116 134 93 116 134 93 166 192 134 107 133 88 166 192 134 166 192 134 166 192 134 154 190 126 107 133 88 143 187 119 143 187 119 143 187 119 143 187 119 143 187 119 143 187 119 143 187 119 143 187 119 143 187 119 154 190 126 143 187 119 108 140 88 108 140 88 123 150 100 123 150 100 123 150 100 123 150 100 151 156 114 176 215 143 176 215 143 123 150 100 123 150 100 108 140 88 155 200 126 108 140 88 108 140 88 155 200 126 108 140 88 155 200 126 108 140 88 143 187 119 143 187 119 154 190 126 166 192 134 154 190 126 154 190 126 154 190 126 154 190 126 100 130 83 143 187 119 100 130 83 143 187 119 143 187 119 108 140 88 123 150 100 123 150 100 151 156 114 151 156 114 170 163 145 154 168 161 221 240 230 243 234 208 154 168 161 154 168 161 154 168 161 170 163 145 243 234 208 216 224 164 216 224 164 216 224 164 216 224 164 151 156 114 216 224 164 123 150 100 123 150 100 176 215 143 176 215 143 176 215 143 123 150 100 123 150 100 176 215 143 155 200 126 123 150 100 123 150 100 108 140 88 155 200 126 155 200 126 143 187 119 100 130 83 108 140 88 108 140 88 143 187 119

176 215 143 176 215 143 176 215 143 176 215 143 176 215 143 155 200 126 143 187 119 143 187 119 154 190 126 154 190 126 154 190 126 154 190 126 154 190 126 154 190 126 154 190 126 154 190 126 107 133 88 166 192 134 166 192 134 175 195 141 185 199 146 185 199 146 185 199 146 129 139 102 185 199 150 129 139 105 129 139 105 185 199 150 185 199 150 195 206 160 195 206 160 136 144 112 143 150 119 143 150 119 143 150 119 143 150 119 205 215 171 143 150 119 143 150 119 205 215 171 143 150 119 143 150 119 143 150 119 215 222 176 215 222 176 150 155 123 215 222 176 215 222 176 215 222 176 215 222 176 215 222 176 215 222 176 150 155 123 205 215 171 205 215 171 205 215 171 205 215 171 215 222 176 215 222 176 215 222 176 224 228 180 224 228 180 224 228 180 156 159 126 224 228 180 224 228 180 224 228 180 234 231 186 234 231 186 234 231 186 240 235 191 240 235 191 240 235 191 168 164 133 237 230 186 237 230 186 168 164 133 168 164 133 168 164 133 240 235 191 168 164 133 168 164 133 163 161 130 168 164 133 168 164 133 168 164 133 163 161 130 163 161 130 163 161 130 163 161 130 156 159 126 163 161 130 234 231 186 163 161 130 234 231 186 163 161 130 156 159 126 156 159 126 156 159 126 150 155 123 215 222 176 150 155 123 205 215 171 215 222 176 215 222 176 143 150 119 143 150 119 136 144 112 129 139 105 129 139 105 129 139 102 129 139 102 122 136 98 122 136 98 122 136 98 122 136 98 116 134 93 116 134 93 116 134 93 116 134 93 107 133 88 116 134 93 166 192 134 107 133 88 107 133 88 107 133 88 116 134 93 116 134 93 116 134 93 107 133 88 107 133 88 107 133 88 116 134 93 166 192 134 166 192 134 175 195 141 166 192 134 175 195 141 175 195 141 185 199 146 185 199 146 129 139 105 185 199 150 185 199 150 195 206 160 129 139 105 129 139 105 129 139 105 129 139 105 185 199 150 185 199 150 129 139 105 129 139 105 129 139 105 129 139 102 185 199 150 185 199 150 129 139 102 185 199 146 129 139 102 122 136 98 122 136 98 122 136 98 175 195 141 122 136 98 116 134 93 116 134 93 116 134 93 116 134 93 166 192 134 166 192 134 116 134 93 116 134 93 107 133 88 100 130 83 100 130 83 154 190 126 154 190 126 100 130 83 143 187 119 100 130 83 143 187 119 100 130 83 143 187 119 100 130 83 100 130 83 108 140 88 108 140 88 123 150 100 123 150 100 123 150 100 123 150 100 151 156 114 216 224 164 123 150 100 176 215 143 123 150 100 176 215 143 123 150 100 123 150 100 123 150 100 108 140 88 155 200 126 108 140 88 155 200 126 143 187 119 143 187 119 154 190 126 154 190 126 107 133 88 100 130 83 100 130 83 100 130 83 100 130 83 143 187 119 143 187 119 143 187 119 108 140 88 108 140 88 123 150 100 123 150 100 151 156 114 170 163 145 170 163 145 243 234 208 243 234 208 243 234 208 154 168 161 154 168 161 243 234 208 243 234 208 243 234 208 216 224 164 216 224 164 216 224 164 216 224 164 151 156 114 216 224 164 176 215 143 176 215 143 176 215 143 123 150 100 123 150 100 123 150 100 176 215 143 176 215 143 123 150 100 123 150 100 123 150 100 176 215 143 155 200 126 108 140 88 108 140 88 108 140 88 108 140 88 123 150 100 155 200 126

155 200 126 176 215 143 155 200 126 155 200 126 155 200 126 155 200 126 143 187 119 154 190 126 154 190 126 154 190 126 154 190 126 154 190 126 154 190 126 154 190 126 154 190 126 154 190 126 154 190 126 166 192 134 166 192 134 175 195 141 175 195 141 122 136 98 129 139 102 185 199 146 185 199 146 129 139 102 185 199 150 185 199 150 195 206 160 195 206 160 195 206 160 195 206 160 205 215 171 136 144 112 143 150 119 205 215 171 205 215 171 143 150 119 205 215 171 205 215 171 205 215 171 143 150 119 205 215 171 205 215 171 143 150 119 143 150 119 215 222 176 215 222 176 215 222 176 215 222 176 215 222 176 215 222 176 215 222 176 215 222 176 215 222 176 215 222 176 215 222 176 215 222 176 215 222 176 224 228 180 224 228 180 224 228 180 224 228 180 156 159 126 224 228 180 224 228 180 224 228 180 224 228 180 234 231 186 234 231 186 240 235 191 240 235 191 240 235 191 240 235 191 237 230 186 168 164 133 168 164 133 240 235 191 240 235 191 240 235 191 240 235 191 240 235 191 163 161 130 240 235 191 240 235 191 240 235 191 240 235 191 234 231 186 234 231 186 163 161 130 234 231 186 234 231 186 234 231 186 163 161 130 234 231 186 163 161 130 163 161 130 156 159 126 156 159 126 150 155 123 150 155 123 215 222 176 215 222 176 215 222 176 215 222 176 143 150 119 143 150 119 136 144 112 129 139 105 129 139 105 129 139 102 129 139 102 122 136 98 122 136 98 175 195 141 175 195 141 116 134 93 116 134 93 107 133 88 107 133 88 116 134 93 107 133 88 166 192 134 107 133 88 107 133 88 107 133 88 154 190 126 107 133 88 107 133 88 107 133 88 166 192 134 154 190 126 166 192 134 166 192 134 166 192 134 175 195 141 175 195 141 175 195 141 175 195 141 185 199 146 185 199 146 185 199 150 185 199 150 185 199 150 129 139 105 129 139 105 129 139 105 185 199 150 129 139 105 185 199 150 185 199 150 129 139 105 129 139 105 129 139 105 129 139 102 185 199 146 185 199 150 129 139 102 185 199 146 129 139 102 122 136 98 122 136 98 122 136 98 175 195 141 122 136 98 116 134 93 116 134 93 166 192 134 166 192 134 166 192 134 166 192 134 166 192 134 116 134 93 107 133 88 154 190 126 154 190 126 154 190 126 154 190 126 154 190 126 143 187 119 143 187 119 143 187 119 100 130 83 143 187 119 143 187 119 108 140 88 108 140 88 108 140 88 123 150 100 123 150 100 123 150 100 176 215 143 176 215 143 216 224 164 176 215 143 176 215 143 123 150 100 176 215 143 176 215 143 176 215 143 155 200 126 155 200 126 155 200 126 108 140 88 155 200 126 155 200 126 143 187 119 154 190 126 154 190 126 107 133 88 100 130 83 143 187 119 100 130 83 100 130 83 143 187 119 100 130 83 100 130 83 108 140 88 108 140 88 123 150 100 123 150 100 176 215 143 151 156 114 243 234 208 243 234 208 243 234 208 170 163 145 243 234 208 243 234 208 243 234 208 216 224 164 216 224 164 216 224 164 216 224 164 216 224 164 151 156 114 216 224 164 176 215 143 176 215 143 176 215 143 176 215 143 176 215 143 123 150 100 123 150 100 151 156 114 151 156 114 123 150 100 123 150 100 176 215 143 176 215 143 123 150 100 123 150 100 123 150 100 123 150 100 123 150 100 123 150 100 123 150 100

155 200 126 155 200 126 155 200 126 155 200 126 155 200 126 143 187 119 143 187 119 154 190 126 154 190 126 154 190 126 154 190 126 107 133 88 166 192 134 166 192 134 166 192 134 166 192 134 166 192 134 166 192 134 166 192 134 175 195 141 175 195 141 122 136 98 122 136 98 185 199 146 185 199 146 185 199 150 185 199 150 185 199 150 185 199 150 129 139 105 195 206 160 195 206 160 195 206 160 136 144 112 195 206 160 205 215 171 205 215 171 205 215 171 143 150 119 205 215 171 205 215 171 205 215 171 205 215 171 143 150 119 205 215 171 215 222 176 215 222 176 215 222 176 215 222 176 215 222 176 215 222 176 150 155 123 150 155 123 150 155 123 215 222 176 215 222 176 215 222 176 215 222 176 224 228 180 224 228 180 224 228 180 224 228 180 234 231 186 156 159 126 234 231 186 234 231 186 224 228 180 234 231 186 234 231 186 234 231 186 240 235 191 240 235 191 240 235 191 237 230 186 240 235 191 168 164 133 240 235 191 168 164 133 240 235 191 168 164 133 168 164 133 168 164 133 168 164 133 240 235 191 163 161 130 163 161 130 163 161 130 163 161 130 163 161 130 163 161 130 163 161 130 234 231 186 234 231 186 234 231 186 234 231 186 234 231 186 234 231 186 234 231 186 224 228 180 156 159 126 215 222 176 215 222 176 150 155 123 215 222 176 143 150 119 143 150 119 136 144 112 136 144 112 129 139 105 129 139 102 129 139 102 122 136 98 122 136 98 122 136 98 122 136 98 116 134 93 116 134 93 116 134 93 166 192 134 107 133 88 107 133 88 107 133 88 107 133 88 107 133 88 154 190 126 154 190 126 154 190 126 107 133 88 107 133 88 154 190 126 154 190 126 116 134 93 107 133 88 166 192 134 166 192 134 166 192 134 175 195 141 175 195 141 175 195 141 185 199 146 185 199 146 185 199 146 129 139 102 129 139 105 185 199 150 185 199 150 129 139 105 129 139 105 185 199 150 185 199 150 185 199 150 129 139 105 129 139 102 129 139 105 185 199 150 185 199 146 185 199 146 129 139 102 129 139 102 122 136 98 122 136 98 122 136 98 175 195 141 175 195 141 175 195 141 122 136 98 166 192 134 166 192 134 116 134 93 166 192 134 166 192 134 166 192 134 166 192 134 107 133 88 154 190 126 154 190 126 154 190 126 100 130 83 100 130 83 100 130 83 100 130 83 100 130 83 108 140 88 108 140 88 108 140 88 108 140 88 123 150 100 123 150 100 123 150 100 176 215 143 123 150 100 176 215 143 151 156 114 151 156 114 176 215 143 176 215 143 176 215 143 176 215 143 176 215 143 176 215 143 155 200 126 155 200 126 155 200 126 108 140 88 155 200 126 143 187 119 143 187 119 154 190 126 107 133 88 107 133 88 100 130 83 100 130 83 100 130 83 100 130 83 100 130 83 100 130 83 143 187 119 108 140 88 108 140 88 123 150 100 123 150 100 123 150 100 151 156 114 216 224 164 216 224 164 243 234 208 243 234 208 243 234 208 243 234 208 243 234 208 243 234 208 216 224 164 216 224 164 216 224 164 216 224 164 216 224 164 216 224 164 216 224 164 176 215 143 176 215 143 151 156 114 151 156 114 151 156 114 151 156 114 151 156 114 216 224 164 176 215 143 176 215 143 151 156 114 123 150 100 123 150 100 123 150 100 123 150 100 123 150 100 123 150 100 123 150 100 123 150 100

143 187 119 143 187 119 155 200 126 155 200 126 143 187 119 143 187 119 154 190 126 154 190 126 154 190 126 154 190 126 154 190 126 166 192 134 166 192 134 166 192 134 166 192 134 175 195 141 175 195 141 166 192 134 175 195 141 175 195 141 175 195 141 122 136 98 122 136 98 185 199 146 185 199 150 185 199 146 185 199 150 185 199 150 129 139 105 129 139 105 185 199 150 195 206 160 195 206 160 195 206 160 205 215 171 205 215 171 143 150 119 143 150 119 143 150 119 205 215 171 215 222 176 205 215 171 143 150 119 143 150 119 205 215 171 205 215 171 215 222 176 215 222 176 215 222 176 224 228 180 215 222 176 215 222 176 224 228 180 215 222 176 215 222 176 215 222 176 215 222 176 224 228 180 224 228 180 224 228 180 234 231 186 234 231 186 234 231 186 156 159 126 234 231 186 234 231 186 234 231 186 234 231 186 234 231 186 234 231 186 240 235 191 237 230 186 237 230 186 240 235 191 168 164 133 237 230 186 237 230 186 168 164 133 240 235 191 168 164 133 240 235 191 240 235 191 240 235 191 163 161 130 163 161 130 163 161 130 163 161 130 163 161 130 163 161 130 156 159 126 156 159 126 234 231 186 234 231 186 234 231 186 163 161 130 234 231 186 234 231 186 163 161 130 234 231 186 156 159 126 224 228 180 215 222 176 215 222 176 150 155 123 150 155 123 143 150 119 136 144 112 136 144 112 129 139 105 129 139 102 129 139 102 122 136 98 122 136 98 122 136 98 116 134 93 116 134 93 107 133 88 116 134 93 166 192 134 107 133 88 154 190 126 107 133 88 107 133 88 107 133 88 154 190 126 107 133 88 107 133 88 107 133 88 154 190 126 154 190 126 166 192 134 107 133 88 107 133 88 154 190 126 166 192 134 166 192 134 175 195 141 175 195 141 175 195 141 185 199 146 185 199 150 185 199 146 185 199 146 185 199 150 185 199 150 129 139 105 185 199 150 185 199 150 195 206 160 129 139 105 185 199 150 129 139 105 129 139 102 185 199 150 185 199 150 129 139 102 185 199 146 129 139 102 185 199 146 122 136 98 122 136 98 175 195 141 175 195 141 175 195 141 175 195 141 122 136 98 175 195 141 116 134 93 116 134 93 166 192 134 175 195 141 175 195 141 175 195 141 116 134 93 107 133 88 107 133 88 107 133 88 100 130 83 143 187 119 154 190 126 100 130 83 143 187 119 108 140 88 108 140 88 155 200 126 108 140 88 123 150 100 176 215 143 176 215 143 123 150 100 176 215 143 151 156 114 151 156 114 151 156 114 176 215 143 151 156 114 176 215 143 176 215 143 155 200 126 155 200 126 155 200 126 155 200 126 155 200 126 108 140 88 155 200 126 155 200 126 143 187 119 143 187 119 154 190 126 100 130 83 100 130 83 143 187 119 143 187 119 100 130 83 108 140 88 100 130 83 100 130 83 108 140 88 123 150 100 123 150 100 123 150 100 151 156 114 151 156 114 216 224 164 176 215 143 216 224 164 216 224 164 243 234 208 243 234 208 243 234 208 216 224 164 243 234 208 216 224 164 216 224 164 216 224 164 151 156 114 176 215 143 216 224 164 216 224 164 151 156 114 151 156 114 151 156 114 151 156 114 151 156 114 151 156 114 151 156 114 216 224 164 151 156 114 151 156 114 176 215 143 151 156 114 123 150 100 123 150 100 151 156 114 151 156 114 151 156 114 151 156 114

143 187 119 143 187 119 143 187 119 143 187 119 143 187 119 154 190 126 154 190 126 154 190 126 154 190 126 154 190 126 166 192 134 166 192 134 166 192 134 166 192 134 175 195 141 175 195 141 175 195 141 175 195 141 175 195 141 175 195 141 175 195 141 175 195 141 175 195 141 175 195 141 185 199 146 129 139 102 185 199 146 129 139 102 129 139 102 185 199 150 185 199 150 185 199 150 195 206 160 195 206 160 195 206 160 143 150 119 143 150 119 143 150 119 143 150 119 205 215 171 205 215 171 150 155 123 215 222 176 205 215 171 205 215 171 215 222 176 215 222 176 150 155 123 150 155 123 224 228 180 150 155 123 224 228 180 224 228 180 150 155 123 215 222 176 224 228 180 224 228 180 224 228 180 234 231 186 234 231 186 234 231 186 234 231 186 163 161 130 234 231 186 234 231 186 234 231 186 234 231 186 234 231 186 240 235 191 240 235 191 240 235 191 237 230 186 237 230 186 168 164 133 240 235 191 237 230 186 168 164 133 168 164 133 240 235 191 168 164 133 240 235 191 240 235 191 168 164 133 163 161 130 163 161 130 163 161 130 163 161 130 163 161 130 163 161 130 234 231 186 234 231 186 234 231 186 234 231 186 234 231 186 163 161 130 234 231 186 163 161 130 163 161 130 156 159 126 156 159 126 224 228 180 156 159 126 150 155 123 150 155 123 143 150 119 143 150 119 136 144 112 136 144 112 129 139 105 129 139 102 129 139 102 122 136 98 122 136 98 116 134 93 116 134 93 116 134 93 107 133 88 154 190 126 107 133 88 107 133 88 154 190 126 107 133 88 154 190 126 107 133 88 107 133 88 107 133 88 107 133 88 107 133 88 107 133 88 107 133 88 154 190 126 107 133 88 107 133 88 154 190 126 166 192 134 166 192 134 175 195 141 175 195 141 175 195 141 185 199 146 185 199 146 129 139 102 129 139 102 185 199 146 185 199 150 129 139 105 185 199 150 195 206 160 129 139 105 129 139 105 185 199 150 129 139 105 129 139 102 185 199 150 129 139 102 129 139 102 129 139 102 185 199 146 129 139 102 122 136 98 185 199 146 175 195 141 175 195 141 175 195 141 175 195 141 122 136 98 175 195 141 175 195 141 166 192 134 175 195 141 175 195 141 175 195 141 116 134 93 116 134 93 107 133 88 107 133 88 154 190 126 154 190 126 154 190 126 154 190 126 100 130 83 100 130 83 100 130 83 143 187 119 155 200 126 108 140 88 155 200 126 155 200 126 123 150 100 123 150 100 176 215 143 151 156 114 151 156 114 216 224 164 176 215 143 176 215 143 176 215 143 176 215 143 155 200 126 155 200 126 155 200 126 108 140 88 155 200 126 155 200 126 155 200 126 155 200 126 155 200 126 143 187 119 143 187 119 100 130 83 100 130 83 100 130 83 100 130 83 108 140 88 108 140 88 108 140 88 108 140 88 108 140 88 123 150 100 176 215 143 123 150 100 123 150 100 176 215 143 176 215 143 216 224 164 151 156 114 151 156 114 170 163 145 243 234 208 170 163 145 243 234 208 170 163 145 216 224 164 216 224 164 216 224 164 216 224 164 216 224 164 151 156 114 151 156 114 151 156 114 170 163 145 170 163 145 170 163 145 151 156 114 170 163 145 216 224 164 170 163 145 151 156 114 151 156 114 216 224 164 151 156 114 216 224 164 151 156 114 151 156 114 151 156 114 151 156 114 151 156 114

154 190 126 154 190 126 143 187 119 143 187 119 154 190 126 154 190 126 154 190 126 154 190 126 154 190 126 154 190 126 166 192 134 166 192 134 175 195 141 175 195 141 175 195 141 175 195 141 175 195 141 175 195 141 175 195 141 175 195 141 175 195 141 122 136 98 175 195 141 185 199 146 185 199 146 185 199 146 185 199 146 129 139 102 129 139 102 185 199 146 185 199 150 185 199 150 195 206 160 195 206 160 195 206 160 205 215 171 205 215 171 136 144 112 205 215 171 205 215 171 215 222 176 215 222 176 215 222 176 143 150 119 205 215 171 143 150 119 215 222 176 150 155 123 215 222 176 224 228 180 224 228 180 224 228 180 224 228 180 224 228 180 224 228 180 224 228 180 224 228 180 234 231 186 234 231 186 234 231 186 234 231 186 234 231 186 234 231 186 234 231 186 234 231 186 163 161 130 234 231 186 234 231 186 234 231 186 240 235 191 240 235 191 237 230 186 237 230 186 165 161 130 240 235 191 240 235 191 237 230 186 168 164 133 240 235 191 168 164 133 168 164 133 163 161 130 163 161 130 163 161 130 163 161 130 163 161 130 234 231 186 234 231 186 234 231 186 234 231 186 234 231 186 234 231 186 234 231 186 234 231 186 240 235 191 234 231 186 234 231 186 234 231 186 234 231 186 156 159 126 156 159 126 150 155 123 150 155 123 150 155 123 215 222 176 136 144 112 136 144 112 129 139 105 129 139 105 129 139 105 129 139 102 122 136 98 122 136 98 116 134 93 116 134 93 116 134 93 107 133 88 107 133 88 107 133 88 107 133 88 154 190 126 107 133 88 107 133 88 107 133 88 154 190 126 154 190 126 154 190 126 154 190 126 154 190 126 154 190 126 154 190 126 107 133 88 154 190 126 154 190 126 166 192 134 175 195 141 175 195 141 185 199 146 185 199 146 185 199 146 129 139 102 129 139 102 129 139 102 185 199 146 185 199 146 185 199 150 185 199 150 129 139 105 129 139 105 129 139 105 129 139 105 129 139 102 129 139 102 185 199 150 185 199 150 185 199 150 185 199 146 129 139 102 129 139 102 122 136 98 185 199 146 185 199 146 175 195 141 175 195 141 122 136 98 122 136 98 175 195 141 175 195 141 175 195 141 175 195 141 175 195 141 175 195 141 122 136 98 116 134 93 107 133 88 107 133 88 154 190 126 154 190 126 154 190 126 100 130 83 154 190 126 100 130 83 100 130 83 143 187 119 143 187 119 155 200 126 155 200 126 155 200 126 123 150 100 176 215 143 123 150 100 151 156 114 151 156 114 216 224 164 216 224 164 176 215 143 176 215 143 176 215 143 155 200 126 155 200 126 143 187 119 155 200 126 155 200 126 108 140 88 155 200 126 155 200 126 108 140 88 155 200 126 100 130 83 100 130 83 100 130 83 100 130 83 108 140 88 108 140 88 108 140 88 108 140 88 108 140 88 108 140 88 108 140 88 123 150 100 155 200 126 176 215 143 176 215 143 176 215 143 151 156 114 216 224 164 151 156 114 170 163 145 243 234 208 243 234 208 243 234 208 216 224 164 216 224 164 216 224 164 176 215 143 151 156 114 151 156 114 216 224 164 151 156 114 151 156 114 151 156 114 243 234 208 243 234 208 243 234 208 170 163 145 216 224 164 170 163 145 216 224 164 216 224 164 216 224 164 216 224 164 151 156 114 151 156 114 151 156 114 151 156 114 151 156 114 216 224 164

154 190 126 154 190 126 154 190 126 154 190 126 154 190 126 154 190 126 166 192 134 166 192 134 166 192 134 166 192 134 166 192 134 166 192 134 175 195 141 175 195 141 175 195 141 175 195 141 175 195 141 175 195 141 175 195 141 175 195 141 175 195 141 175 195 141 175 195 141 185 199 146 185 199 146 185 199 146 185 199 146 129 139 102 129 139 102 185 199 150 185 199 150 185 199 150 195 206 160 195 206 160 195 206 160 205 215 171 205 215 171 143 150 119 205 215 171 215 222 176 215 222 176 215 222 176 150 155 123 150 155 123 215 222 176 205 215 171 215 222 176 150 155 123 215 222 176 215 222 176 224 228 180 224 228 180 224 228 180 224 228 180 156 159 126 224 228 180 234 231 186 234 231 186 234 231 186 234 231 186 234 231 186 234 231 186 234 231 186 163 161 130 163 161 130 234 231 186 234 231 186 163 161 130 234 231 186 240 235 191 240 235 191 237 230 186 237 230 186 168 164 133 237 230 186 240 235 191 168 164 133 168 164 133 168 164 133 168 164 133 240 235 191 163 161 130 234 231 186 234 231 186 234 231 186 234 231 186 234 231 186 234 231 186 163 161 130 163 161 130 234 231 186 234 231 186 234 231 186 234 231 186 163 161 130 163 161 130 163 161 130 163 161 130 163 161 130 156 159 126 156 159 126 224 228 180 150 155 123 150 155 123 143 150 119 136 144 112 136 144 112 129 139 105 129 139 105 129 139 105 129 139 102 122 136 98 122 136 98 116 134 93 166 192 134 116 134 93 107 133 88 107 133 88 107 133 88 107 133 88 107 133 88 107 133 88 100 130 83 154 190 126 154 190 126 154 190 126 154 190 126 154 190 126 154 190 126 154 190 126 154 190 126 107 133 88 154 190 126 166 192 134 166 192 134 175 195 141 185 199 146 185 199 146 185 199 146 129 139 102 185 199 146 185 199 146 129 139 102 185 199 146 185 199 146 185 199 150 185 199 150 129 139 105 185 199 150 129 139 105 129 139 105 185 199 150 185 199 146 185 199 146 129 139 102 129 139 105 129 139 102 129 139 102 129 139 102 129 139 102 185 199 146 122 136 98 122 136 98 122 136 98 122 136 98 175 195 141 175 195 141 175 195 141 185 199 146 185 199 146 175 195 141 122 136 98 116 134 93 116 134 93 107 133 88 154 190 126 107 133 88 154 190 126 154 190 126 107 133 88 100 130 83 100 130 83 100 130 83 143 187 119 143 187 119 100 130 83 108 140 88 123 150 100 123 150 100 123 150 100 123 150 100 176 215 143 176 215 143 216 224 164 216 224 164 176 215 143 176 215 143 176 215 143 155 200 126 155 200 126 143 187 119 143 187 119 108 140 88 143 187 119 155 200 126 155 200 126 155 200 126 155 200 126 143 187 119 108 140 88 143 187 119 108 140 88 108 140 88 108 140 88 123 150 100 108 140 88 108 140 88 155 200 126 108 140 88 123 150 100 176 215 143 108 140 88 123 150 100 123 150 100 123 150 100 216 224 164 151 156 114 216 224 164 216 224 164 243 234 208 243 234 208 216 224 164 216 224 164 216 224 164 216 224 164 176 215 143 216 224 164 216 224 164 216 224 164 151 156 114 170 163 145 216 224 164 170 163 145 170 163 145 243 234 208 170 163 145 170 163 145 216 224 164 170 163 145 170 163 145 151 156 114 151 156 114 151 156 114 151 156 114 151 156 114 151 156 114 151 156 114

154 190 126 154 190 126 166 192 134 154 190 126 154 190 126 166 192 134 166 192 134 166 192 134 166 192 134 166 192 134 166 192 134 166 192 134 175 195 141 175 195 141 185 199 146 185 199 146 185 199 150 185 199 146 122 136 98 122 136 98 175 195 141 175 195 141 185 199 146 185 199 146 185 199 146 129 139 102 129 139 102 129 139 102 129 139 102 185 199 150 185 199 150 185 199 150 195 206 160 136 144 112 195 206 160 205 215 171 136 144 112 143 150 119 205 215 171 205 215 171 215 222 176 215 222 176 215 222 176 143 150 119 143 150 119 143 150 119 215 222 176 215 222 176 224 228 180 224 228 180 224 228 180 224 228 180 224 228 180 224 228 180 234 231 186 234 231 186 240 235 191 234 231 186 240 235 191 240 235 191 240 235 191 163 161 130 163 161 130 163 161 130 163 161 130 163 161 130 234 231 186 234 231 186 240 235 191 240 235 191 240 235 191 240 235 191 237 230 186 165 161 130 240 235 191 168 164 133 168 164 133 163 161 130 168 164 133 240 235 191 240 235 191 240 235 191 240 235 191 240 235 191 240 235 191 163 161 130 163 161 130 234 231 186 234 231 186 234 231 186 234 231 186 234 231 186 240 235 191 234 231 186 163 161 130 234 231 186 234 231 186 234 231 186 156 159 126 156 159 126 224 228 180 150 155 123 150 155 123 150 155 123 150 155 123 136 144 112 136 144 112 129 139 105 129 139 105 129 139 102 129 139 102 122 136 98 122 136 98 116 134 93 116 134 93 107 133 88 107 133 88 107 133 88 100 130 83 100 130 83 100 130 83 100 130 83 154 190 126 154 190 126 154 190 126 154 190 126 154 190 126 107 133 88 154 190 126 107 133 88 107 133 88 107 133 88 154 190 126 166 192 134 175 195 141 185 199 146 185 199 146 185 199 146 185 199 146 185 199 146 185 199 146 185 199 146 185 199 146 185 199 146 129 139 102 185 199 146 129 139 105 129 139 105 185 199 150 129 139 102 185 199 150 185 199 150 185 199 150 185 199 146 185 199 150 185 199 150 185 199 150 129 139 102 129 139 102 129 139 102 122 136 98 122 136 98 122 136 98 122 136 98 175 195 141 185 199 146 185 199 146 185 199 146 185 199 150 185 199 146 185 199 146 122 136 98 116 134 93 116 134 93 116 134 93 154 190 126 166 192 134 154 190 126 154 190 126 154 190 126 100 130 83 143 187 119 100 130 83 143 187 119 154 190 126 108 140 88 108 140 88 123 150 100 123 150 100 176 215 143 176 215 143 176 215 143 123 150 100 151 156 114 176 215 143 176 215 143 155 200 126 176 215 143 155 200 126 155 200 126 143 187 119 100 130 83 143 187 119 143 187 119 143 187 119 108 140 88 155 200 126 155 200 126 155 200 126 108 140 88 108 140 88 108 140 88 123 150 100 123 150 100 108 140 88 176 215 143 155 200 126 123 150 100 108 140 88 123 150 100 155 200 126 176 215 143 123 150 100 123 150 100 176 215 143 123 150 100 151 156 114 216 224 164 216 224 164 216 224 164 216 224 164 216 224 164 176 215 143 216 224 164 176 215 143 176 215 143 176 215 143 151 156 114 151 156 114 151 156 114 170 163 145 170 163 145 216 224 164 170 163 145 216 224 164 170 163 145 170 163 145 170 163 145 216 224 164 243 234 208 170 163 145 151 156 114 170 163 145 170 163 145 170 163 145 170 163 145 170 163 145

166 192 134 166 192 134 166 192 134 166 192 134 166 192 134 166 192 134 166 192 134 175 195 141 175 195 141 175 195 141 175 195 141 166 192 134 175 195 141 185 199 146 185 199 146 185 199 146 185 199 146 129 139 102 122 136 98 122 136 98 175 195 141 175 195 141 185 199 146 185 199 146 122 136 98 122 136 98 185 199 146 185 199 146 185 199 146 185 199 146 185 199 150 185 199 150 195 206 160 136 144 112 195 206 160 136 144 112 136 144 112 205 215 171 205 215 171 205 215 171 215 222 176 150 155 123 143 150 119 143 150 119 205 215 171 215 222 176 215 222 176 215 222 176 215 222 176 156 159 126 224 228 180 224 228 180 224 228 180 224 228 180 234 231 186 234 231 186 234 231 186 240 235 191 234 231 186 163 161 130 240 235 191 163 161 130 240 235 191 234 231 186 163 161 130 234 231 186 234 231 186 234 231 186 240 235 191 240 235 191 240 235 191 240 235 191 237 230 186 165 161 130 168 164 133 168 164 133 163 161 130 240 235 191 240 235 191 240 235 191 240 235 191 240 235 191 240 235 191 240 235 191 168 164 133 163 161 130 163 161 130 234 231 186 234 231 186 163 161 130 234 231 186 163 161 130 163 161 130 163 161 130 163 161 130 234 231 186 163 161 130 156 159 126 156 159 126 156 159 126 224 228 180 150 155 123 150 155 123 143 150 119 143 150 119 136 144 112 136 144 112 129 139 105 129 139 102 129 139 102 129 139 102 122 136 98 116 134 93 116 134 93 116 134 93 107 133 88 107 133 88 107 133 88 100 130 83 143 187 119 100 130 83 100 130 83 100 130 83 154 190 126 154 190 126 107 133 88 107 133 88 107 133 88 100 130 83 107 133 88 154 190 126 154 190 126 154 190 126 166 192 134 175 195 141 185 199 146 185 199 146 129 139 102 185 199 146 129 139 102 129 139 102 185 199 146 185 199 146 129 139 102 185 199 146 185 199 146 185 199 146 185 199 150 129 139 102 129 139 102 129 139 102 129 139 105 129 139 102 129 139 102 185 199 146 185 199 150 185 199 150 129 139 102 129 139 102 129 139 102 122 136 98 175 195 141 175 195 141 185 199 146 185 199 146 185 199 146 185 199 146 185 199 146 185 199 146 129 139 102 129 139 102 122 136 98 122 136 98 166 192 134 166 192 134 107 133 88 166 192 134 107 133 88 107 133 88 107 133 88 107 133 88 154 190 126 143 187 119 143 187 119 143 187 119 100 130 83 108 140 88 123 150 100 176 215 143 123 150 100 123 150 100 123 150 100 123 150 100 176 215 143 176 215 143 176 215 143 155 200 126 155 200 126 155 200 126 155 200 126 155 200 126 100 130 83 108 140 88 108 140 88 108 140 88 108 140 88 155 200 126 108 140 88 108 140 88 108 140 88 108 140 88 123 150 100 123 150 100 176 215 143 176 215 143 123 150 100 155 200 126 123 150 100 123 150 100 123 150 100 123 150 100 123 150 100 123 150 100 176 215 143 176 215 143 123 150 100 176 215 143 176 215 143 216 224 164 216 224 164 216 224 164 216 224 164 216 224 164 151 156 114 216 224 164 151 156 114 123 150 100 151 156 114 151 156 114 216 224 164 170 163 145 243 234 208 243 234 208 170 163 145 243 234 208 170 163 145 243 234 208 243 234 208 243 234 208 170 163 145 243 234 208 243 234 208 170 163 145 216 224 164 216 224 164 216 224 164 216 224 164

175 195 141 166 192 134 166 192 134 166 192 134 166 192 134 175 195 141 175 195 141 175 195 141 175 195 141 122 136 98 175 195 141 175 195 141 175 195 141 175 195 141 185 199 146 185 199 146 185 199 146 129 139 102 185 199 146 185 199 146 175 195 141 175 195 141 185 199 146 185 199 146 129 139 102 185 199 146 185 199 146 185 199 146 129 139 102 185 199 146 185 199 146 185 199 150 185 199 150 129 139 105 195 206 160 195 206 160 205 215 171 205 215 171 205 215 171 143 150 119 205 215 171 143 150 119 150 155 123 143 150 119 143 150 119 143 150 119 215 222 176 215 222 176 224 228 180 150 155 123 224 228 180 224 228 180 224 228 180 224 228 180 234 231 186 163 161 130 234 231 186 234 231 186 240 235 191 240 235 191 240 235 191 240 235 191 240 235 191 240 235 191 234 231 186 234 231 186 234 231 186 234 231 186 240 235 191 240 235 191 240 235 191 168 164 133 240 235 191 168 164 133 168 164 133 240 235 191 240 235 191 240 235 191 240 235 191 240 235 191 237 230 186 168 164 133 168 164 133 168 164 133 168 164 133 163 161 130 163 161 130 234 231 186 163 161 130 156 159 126 156 159 126 163 161 130 156 159 126 163 161 130 234 231 186 156 159 126 156 159 126 156 159 126 156 159 126 224 228 180 156 159 126 150 155 123 150 155 123 143 150 119 136 144 112 136 144 112 136 144 112 129 139 105 129 139 102 129 139 102 129 139 102 122 136 98 122 136 98 116 134 93 116 134 93 107 133 88 107 133 88 107 133 88 100 130 83 100 130 83 100 130 83 143 187 119 143 187 119 143 187 119 154 190 126 100 130 83 154 190 126 100 130 83 154 190 126 154 190 126 154 190 126 154 190 126 154 190 126 166 192 134 175 195 141 175 195 141 185 199 146 122 136 98 129 139 102 185 199 146 129 139 102 185 199 146 185 199 146 185 199 146 185 199 146 185 199 146 185 199 150 185 199 146 129 139 102 129 139 102 129 139 102 185 199 146 129 139 102 129 139 102 185 199 150 185 199 146 185 199 150 129 139 102 185 199 146 129 139 102 185 199 146 185 199 146 185 199 146 185 199 146 185 199 150 185 199 146 185 199 146 185 199 146 129 139 102 129 139 102 122 136 98 122 136 98 175 195 141 116 134 93 116 134 93 116 134 93 154 190 126 166 192 134 154 190 126 154 190 126 154 190 126 154 190 126 100 130 83 100 130 83 154 190 126 100 130 83 108 140 88 123 150 100 123 150 100 123 150 100 176 215 143 176 215 143 176 215 143 176 215 143 176 215 143 176 215 143 155 200 126 155 200 126 108 140 88 155 200 126 155 200 126 108 140 88 143 187 119 108 140 88 108 140 88 123 150 100 155 200 126 123 150 100 123 150 100 123 150 100 123 150 100 108 140 88 155 200 126 176 215 143 123 150 100 123 150 100 123 150 100 123 150 100 123 150 100 123 150 100 123 150 100 123 150 100 176 215 143 123 150 100 123 150 100 176 215 143 176 215 143 176 215 143 176 215 143 216 224 164 216 224 164 216 224 164 176 215 143 216 224 164 216 224 164 151 156 114 216 224 164 151 156 114 151 156 114 216 224 164 216 224 164 243 234 208 243 234 208 243 234 208 243 234 208 170 163 145 243 234 208 170 163 145 243 234 208 243 234 208 216 224 164 216 224 164 216 224 164 216 224 164 216 224 164 216 224 164 216 224 164

175 195 141 175 195 141 175 195 141 175 195 141 175 195 141 175 195 141 175 195 141 175 195 141 175 195 141 122 136 98 175 195 141 175 195 141 185 199 146 185 199 146 185 199 146 129 139 102 129 139 102 129 139 102 129 139 102 185 199 146 122 136 98 185 199 146 185 199 146 129 139 102 185 199 146 185 199 146 185 199 146 129 139 102 185 199 146 185 199 146 129 139 102 185 199 146 185 199 150 129 139 105 195 206 160 195 206 160 195 206 160 136 144 112 136 144 112 143 150 119 205 215 171 205 215 171 205 215 171 143 150 119 143 150 119 205 215 171 205 215 171 215 222 176 215 222 176 150 155 123 224 228 180 224 228 180 224 228 180 234 231 186 234 231 186 163 161 130 234 231 186 234 231 186 240 235 191 240 235 191 240 235 191 240 235 191 240 235 191 240 235 191 240 235 191 240 235 191 240 235 191 240 235 191 240 235 191 240 235 191 240 235 191 240 235 191 240 235 191 168 164 133 240 235 191 240 235 191 240 235 191 240 235 191 240 235 191 237 230 186 237 230 186 168 164 133 168 164 133 163 161 130 163 161 130 163 161 130 234 231 186 156 159 126 156 159 126 156 159 126 224 228 180 224 228 180 156 159 126 224 228 180 156 159 126 156 159 126 156 159 126 156 159 126 224 228 180 224 228 180 224 228 180 150 155 123 143 150 119 143 150 119 136 144 112 136 144 112 136 144 112 129 139 105 129 139 102 129 139 102 122 136 98 122 136 98 116 134 93 116 134 93 116 134 93 107 133 88 107 133 88 100 130 83 100 130 83 143 187 119 143 187 119 154 190 126 143 187 119 143 187 119 143 187 119 100 130 83 100 130 83 100 130 83 154 190 126 154 190 126 154 190 126 166 192 134 166 192 134 166 192 134 175 195 141 185 199 146 185 199 146 122 136 98 175 195 141 185 199 146 122 136 98 185 199 146 185 199 146 129 139 102 185 199 146 185 199 146 185 199 146 185 199 150 129 139 102 185 199 146 185 199 146 185 199 146 185 199 146 129 139 102 185 199 146 185 199 150 185 199 146 129 139 102 185 199 146 129 139 102 185 199 146 185 199 146 185 199 146 185 199 150 185 199 146 129 139 102 185 199 146 129 139 102 129 139 102 122 136 98 122 136 98 122 136 98 116 134 93 116 134 93 116 134 93 166 192 134 166 192 134 166 192 134 107 133 88 166 192 134 154 190 126 107 133 88 107 133 88 154 190 126 143 187 119 100 130 83 108 140 88 108 140 88 155 200 126 123 150 100 176 215 143 151 156 114 123 150 100 176 215 143 176 215 143 176 215 143 176 215 143 123 150 100 155 200 126 155 200 126 108 140 88 108 140 88 108 140 88 123 150 100 108 140 88 123 150 100 123 150 100 123 150 100 123 150 100 176 215 143 123 150 100 155 200 126 123 150 100 123 150 100 123 150 100 123 150 100 176 215 143 151 156 114 176 215 143 123 150 100 123 150 100 151 156 114 123 150 100 123 150 100 176 215 143 176 215 143 176 215 143 176 215 143 123 150 100 123 150 100 176 215 143 176 215 143 176 215 143 176 215 143 151 156 114 151 156 114 216 224 164 151 156 114 151 156 114 151 156 114 216 224 164 170 163 145 243 234 208 243 234 208 170 163 145 243 234 208 170 163 145 170 163 145 243 234 208 243 234 208 216 224 164 216 224 164 216 224 164 151 156 114 216 224 164 151 156 114 216 224 164

185 199 146 185 199 146 185 199 146 185 199 146 185 199 146 185 199 146 175 195 141 175 195 141 175 195 141 122 136 98 175 195 141 175 195 141 185 199 146 185 199 146 185 199 146 185 199 146 185 199 150 185 199 146 185 199 146 185 199 146 185 199 146 185 199 146 185 199 146 185 199 146 185 199 146 185 199 146 185 199 146 185 199 146 185 199 146 185 199 146 185 199 146 185 199 146 185 199 146 185 199 150 185 199 150 195 206 160 195 206 160 195 206 160 195 206 160 205 215 171 205 215 171 143 150 119 143 150 119 143 150 119 143 150 119 205 215 171 215 222 176 215 222 176 215 222 176 215 222 176 224 228 180 224 228 180 224 228 180 224 228 180 234 231 186 234 231 186 234 231 186 163 161 130 234 231 186 163 161 130 163 161 130 240 235 191 168 164 133 240 235 191 237 230 186 240 235 191 237 230 186 237 230 186 240 235 191 240 235 191 168 164 133 163 161 130 163 161 130 168 164 133 240 235 191 240 235 191 240 235 191 240 235 191 168 164 133 237 230 186 237 230 186 168 164 133 240 235 191 163 161 130 163 161 130 163 161 130 163 161 130 156 159 126 156 159 126 156 159 126 224 228 180 156 159 126 224 228 180 224 228 180 224 228 180 224 228 180 224 228 180 224 228 180 224 228 180 156 159 126 224 228 180 150 155 123 143 150 119 143 150 119 136 144 112 136 144 112 136 144 112 129 139 105 129 139 102 122 136 98 122 136 98 122 136 98 116 134 93 116 134 93 107 133 88 107 133 88 107 133 88 107 133 88 100 130 83 100 130 83 154 190 126 143 187 119 154 190 126 100 130 83 154 190 126 143 187 119 143 187 119 100 130 83 100 130 83 154 190 126 154 190 126 166 192 134 166 192 134 166 192 134 175 195 141 185 199 146 185 199 146 185 199 146 185 199 146 185 199 146 185 199 146 185 199 146 185 199 146 185 199 146 185 199 146 185 199 146 185 199 150 185 199 150 185 199 150 185 199 146 185 199 146 185 199 146 129 139 102 185 199 146 185 199 146 185 199 150 185 199 150 185 199 150 185 199 146 185 199 150 185 199 146 185 199 146 185 199 146 185 199 146 185 199 150 185 199 146 129 139 102 129 139 102 129 139 102 122 136 98 122 136 98 175 195 141 116 134 93 116 134 93 166 192 134 166 192 134 166 192 134 166 192 134 166 192 134 166 192 134 116 134 93 107 133 88 107 133 88 100 130 83 154 190 126 100 130 83 100 130 83 108 140 88 108 140 88 123 150 100 176 215 143 151 156 114 176 215 143 176 215 143 176 215 143 176 215 143 155 200 126 123 150 100 176 215 143 108 140 88 108 140 88 123 150 100 123 150 100 123 150 100 176 215 143 123 150 100 123 150 100 176 215 143 123 150 100 123 150 100 123 150 100 176 215 143 155 200 126 123 150 100 123 150 100 123 150 100 151 156 114 151 156 114 176 215 143 151 156 114 151 156 114 176 215 143 176 215 143 176 215 143 176 215 143 176 215 143 176 215 143 123 150 100 176 215 143 176 215 143 176 215 143 176 215 143 176 215 143 176 215 143 151 156 114 176 215 143 176 215 143 151 156 114 151 156 114 151 156 114 216 224 164 216 224 164 216 224 164 216 224 164 216 224 164 243 234 208 243 234 208 170 163 145 170 163 145 243 234 208 216 224 164 216 224 164 216 224 164 216 224 164 170 163 145 216 224 164 216 224 164

185 199 146 185 199 146 185 199 146 185 199 146 185 199 146 129 139 102 185 199 146 175 195 141 175 195 141 175 195 141 175 195 141 185 199 146 185 199 146 185 199 146 185 199 146 185 199 146 129 139 102 129 139 102 185 199 146 129 139 102 129 139 102 122 136 98 122 136 98 122 136 98 122 136 98 122 136 98 185 199 146 129 139 102 185 199 146 129 139 102 185 199 146 185 199 146 185 199 146 185 199 146 185 199 150 195 206 160 136 144 112 136 144 112 195 206 160 195 206 160 136 144 112 143 150 119 143 150 119 136 144 112 143 150 119 143 150 119 205 215 171 215 222 176 215 222 176 215 222 176 215 222 176 224 228 180 224 228 180 224 228 180 224 228 180 156 159 126 156 159 126 163 161 130 163 161 130 163 161 130 234 231 186 240 235 191 240 235 191 237 230 186 237 230 186 237 230 186 237 230 186 237 230 186 168 164 133 168 164 133 240 235 191 168 164 133 240 235 191 234 231 186 240 235 191 168 164 133 240 235 191 240 235 191 168 164 133 240 235 191 168 164 133 168 164 133 168 164 133 163 161 130 163 161 130 163 161 130 156 159 126 156 159 126 150 155 123 150 155 123 150 155 123 150 155 123 150 155 123 156 159 126 156 159 126 156 159 126 156 159 126 156 159 126 224 228 180 156 159 126 150 155 123 150 155 123 143 150 119 143 150 119 136 144 112 136 144 112 129 139 105 129 139 102 122 136 98 122 136 98 116 134 93 116 134 93 116 134 93 107 133 88 107 133 88 107 133 88 100 130 83 107 133 88 100 130 83 154 190 126 143 187 119 100 130 83 154 190 126 100 130 83 100 130 83 100 130 83 108 140 88 108 140 88 100 130 83 143 187 119 154 190 126 154 190 126 166 192 134 166 192 134 175 195 141 175 195 141 185 199 146 129 139 102 185 199 146 185 199 146 185 199 146 185 199 146 185 199 146 185 199 150 185 199 146 185 199 150 185 199 150 185 199 150 185 199 150 185 199 150 185 199 146 185 199 146 129 139 102 185 199 150 185 199 150 185 199 150 185 199 150 185 199 150 185 199 150 185 199 150 185 199 150 185 199 150 185 199 150 185 199 150 185 199 150 129 139 102 129 139 102 185 199 146 129 139 102 122 136 98 175 195 141 122 136 98 122 136 98 175 195 141 166 192 134 166 192 134 166 192 134 166 192 134 166 192 134 116 134 93 107 133 88 107 133 88 107 133 88 100 130 83 100 130 83 100 130 83 108 140 88 108 140 88 108 140 88 123 150 100 176 215 143 176 215 143 176 215 143 176 215 143 176 215 143 176 215 143 176 215 143 155 200 126 176 215 143 176 215 143 123 150 100 123 150 100 123 150 100 123 150 100 123 150 100 123 150 100 123 150 100 123 150 100 151 156 114 151 156 114 176 215 143 123 150 100 176 215 143 123 150 100 151 156 114 151 156 114 151 156 114 151 156 114 216 224 164 151 156 114 216 224 164 151 156 114 176 215 143 151 156 114 176 215 143 123 150 100 123 150 100 123 150 100 176 215 143 123 150 100 176 215 143 176 215 143 176 215 143 123 150 100 176 215 143 176 215 143 151 156 114 151 156 114 151 156 114 216 224 164 216 224 164 151 156 114 216 224 164 216 224 164 170 163 145 170 163 145 243 234 208 243 234 208 243 234 208 243 234 208 216 224 164 216 224 164 216 224 164 151 156 114 216 224 164 216 224 164 151 156 114

185 199 150 185 199 150 185 199 150 185 199 146 185 199 146 185 199 146 185 199 146 185 199 146 185 199 146 185 199 146 185 199 146 185 199 146 185 199 150 185 199 146 185 199 146 185 199 150 185 199 150 185 199 150 129 139 102 129 139 102 122 136 98 122 136 98 185 199 146 175 195 141 122 136 98 122 136 98 185 199 146 122 136 98 185 199 146 122 136 98 122 136 98 185 199 146 185 199 146 185 199 146 185 199 150 129 139 105 129 139 105 136 144 112 136 144 112 136 144 112 136 144 112 136 144 112 136 144 112 136 144 112 136 144 112 205 215 171 205 215 171 215 222 176 215 222 176 150 155 123 215 222 176 224 228 180 156 159 126 156 159 126 156 159 126 156 159 126 224 228 180 156 159 126 234 231 186 234 231 186 234 231 186 240 235 191 237 230 186 237 230 186 232 225 178 237 230 186 237 230 186 165 161 130 165 161 130 168 164 133 240 235 191 168 164 133 163 161 130 163 161 130 240 235 191 240 235 191 240 235 191 168 164 133 168 164 133 240 235 191 240 235 191 168 164 133 163 161 130 163 161 130 156 159 126 156 159 126 156 159 126 150 155 123 150 155 123 150 155 123 150 155 123 150 155 123 150 155 123 215 222 176 224 228 180 156 159 126 224 228 180 156 159 126 224 228 180 150 155 123 150 155 123 143 150 119 143 150 119 136 144 112 136 144 112 136 144 112 129 139 105 129 139 102 122 136 98 122 136 98 116 134 93 107 133 88 107 133 88 107 133 88 107 133 88 107 133 88 100 130 83 143 187 119 154 190 126 154 190 126 100 130 83 143 187 119 143 187 119 100 130 83 100 130 83 108 140 88 108 140 88 108 140 88 108 140 88 143 187 119 154 190 126 154 190 126 166 192 134 166 192 134 175 195 141 175 195 141 175 195 141 185 199 146 185 199 146 185 199 146 185 199 146 185 199 146 185 199 150 185 199 150 185 199 150 185 199 150 185 199 150 185 199 150 129 139 105 185 199 150 185 199 150 185 199 146 185 199 150 185 199 146 185 199 150 185 199 150 185 199 150 185 199 150 195 206 160 195 206 160 195 206 160 185 199 150 185 199 150 185 199 150 185 199 150 129 139 102 185 199 146 185 199 146 185 199 146 122 136 98 175 195 141 122 136 98 122 136 98 175 195 141 175 195 141 175 195 141 166 192 134 116 134 93 116 134 93 116 134 93 116 134 93 107 133 88 100 130 83 100 130 83 100 130 83 108 140 88 108 140 88 108 140 88 108 140 88 108 140 88 155 200 126 155 200 126 176 215 143 176 215 143 176 215 143 123 150 100 176 215 143 155 200 126 155 200 126 155 200 126 123 150 100 176 215 143 123 150 100 123 150 100 176 215 143 123 150 100 151 156 114 151 156 114 151 156 114 151 156 114 151 156 114 151 156 114 151 156 114 151 156 114 151 156 114 151 156 114 216 224 164 216 224 164 216 224 164 216 224 164 216 224 164 216 224 164 216 224 164 151 156 114 176 215 143 123 150 100 151 156 114 176 215 143 176 215 143 123 150 100 176 215 143 176 215 143 176 215 143 123 150 100 176 215 143 151 156 114 151 156 114 216 224 164 216 224 164 216 224 164 216 224 164 216 224 164 216 224 164 216 224 164 170 163 145 243 234 208 243 234 208 170 163 145 170 163 145 170 163 145 243 234 208 170 163 145 151 156 114 170 163 145 151 156 114 151 156 114 216 224 164

185 199 150 195 206 160 185 199 150 129 139 105 185 199 150 185 199 150 185 199 150 185 199 146 185 199 146 185 199 146 185 199 150 185 199 150 185 199 150 185 199 150 185 199 150 185 199 150 185 199 150 129 139 102 129 139 102 185 199 146 185 199 146 175 195 141 122 136 98 122 136 98 122 136 98 175 195 141 175 195 141 122 136 98 185 199 146 129 139 102 175 195 141 185 199 146 129 139 102 185 199 146 185 199 150 129 139 105 185 199 150 129 139 105 195 206 160 195 206 160 129 139 105 136 144 112 136 144 112 136 144 112 136 144 112 195 206 160 205 215 171 215 222 176 215 222 176 215 222 176 215 222 176 215 222 176 224 228 180 224 228 180 224 228 180 224 228 180 156 159 126 234 231 186 224 228 180 234 231 186 234 231 186 240 235 191 237 230 186 232 225 178 232 225 178 232 225 178 165 161 130 165 161 130 168 164 133 168 164 133 168 164 133 163 161 130 168 164 133 234 231 186 234 231 186 168 164 133 168 164 133 168 164 133 240 235 191 168 164 133 240 235 191 168 164 133 163 161 130 163 161 130 156 159 126 156 159 126 156 159 126 150 155 123 150 155 123 143 150 119 215 222 176 215 222 176 150 155 123 215 222 176 224 228 180 156 159 126 224 228 180 156 159 126 224 228 180 150 155 123 143 150 119 143 150 119 136 144 112 136 144 112 136 144 112 129 139 105 129 139 102 129 139 102 122 136 98 122 136 98 116 134 93 116 134 93 154 190 126 154 190 126 107 133 88 100 130 83 100 130 83 143 187 119 143 187 119 100 130 83 100 130 83 143 187 119 100 130 83 100 130 83 108 140 88 108 140 88 108 140 88 108 140 88 123 150 100 155 200 126 143 187 119 154 190 126 154 190 126 166 192 134 166 192 134 175 195 141 175 195 141 185 199 146 185 199 146 185 199 150 185 199 150 185 199 150 185 199 150 195 206 160 195 206 160 195 206 160 195 206 160 129 139 105 185 199 150 185 199 150 185 199 150 185 199 150 185 199 146 185 199 150 185 199 150 185 199 150 185 199 150 195 206 160 195 206 160 195 206 160 195 206 160 136 144 112 185 199 150 185 199 150 129 139 105 129 139 105 185 199 146 129 139 102 129 139 102 122 136 98 122 136 98 122 136 98 116 134 93 116 134 93 122 136 98 175 195 141 175 195 141 166 192 134 116 134 93 107 133 88 107 133 88 107 133 88 100 130 83 100 130 83 100 130 83 108 140 88 108 140 88 155 200 126 123 150 100 108 140 88 155 200 126 108 140 88 123 150 100 176 215 143 123 150 100 155 200 126 155 200 126 155 200 126 155 200 126 123 150 100 123 150 100 176 215 143 123 150 100 151 156 114 176 215 143 151 156 114 151 156 114 151 156 114 151 156 114 151 156 114 216 224 164 151 156 114 151 156 114 151 156 114 216 224 164 151 156 114 216 224 164 216 224 164 151 156 114 151 156 114 151 156 114 151 156 114 151 156 114 151 156 114 151 156 114 151 156 114 151 156 114 216 224 164 176 215 143 123 150 100 123 150 100 123 150 100 123 150 100 123 150 100 123 150 100 123 150 100 216 224 164 216 224 164 216 224 164 176 215 143 216 224 164 216 224 164 151 156 114 151 156 114 170 163 145 243 234 208 170 163 145 170 163 145 243 234 208 243 234 208 243 234 208 243 234 208 243 234 208 170 163 145 243 234 208 216 224 164 216 224 164

195 206 160 195 206 160 195 206 160 129 139 105 185 199 150 185 199 150 129 139 105 185 199 150 185 199 150 185 199 150 185 199 150 185 199 150 185 199 150 129 139 105 185 199 150 185 199 150 185 199 150 185 199 150 185 199 150 129 139 102 129 139 102 129 139 102 122 136 98 122 136 98 122 136 98 175 195 141 185 199 146 185 199 146 185 199 146 185 199 146 185 199 146 185 199 146 122 136 98 185 199 146 185 199 150 185 199 150 195 206 160 129 139 105 185 199 150 129 139 105 129 139 105 129 139 105 195 206 160 195 206 160 195 206 160 195 206 160 205 215 171 215 222 176 224 228 180 224 228 180 224 228 180 224 228 180 224 228 180 150 155 123 150 155 123 150 155 123 224 228 180 224 228 180 234 231 186 234 231 186 240 235 191 240 235 191 237 230 186 232 225 178 228 229 164 232 225 178 165 161 130 165 161 130 168 164 133 168 164 133 168 164 133 163 161 130 234 231 186 163 161 130 240 235 191 240 235 191 240 235 191 168 164 133 240 235 191 240 235 191 237 230 186 168 164 133 163 161 130 163 161 130 234 231 186 156 159 126 150 155 123 150 155 123 143 150 119 143 150 119 215 222 176 215 222 176 215 222 176 215 222 176 215 222 176 156 159 126 224 228 180 150 155 123 150 155 123 150 155 123 143 150 119 136 144 112 136 144 112 136 144 112 195 206 160 129 139 105 129 139 102 129 139 102 122 136 98 122 136 98 116 134 93 116 134 93 107 133 88 107 133 88 107 133 88 100 130 83 100 130 83 143 187 119 100 130 83 100 130 83 143 187 119 100 130 83 100 130 83 108 140 88 108 140 88 155 200 126 155 200 126 108 140 88 123 150 100 155 200 126 143 187 119 154 190 126 154 190 126 166 192 134 166 192 134 175 195 141 185 199 146 185 199 146 185 199 150 185 199 150 195 206 160 185 199 150 195 206 160 195 206 160 205 215 171 195 206 160 195 206 160 129 139 105 195 206 160 185 199 150 185 199 150 185 199 150 129 139 102 185 199 150 185 199 150 185 199 150 185 199 150 195 206 160 195 206 160 195 206 160 205 215 171 195 206 160 195 206 160 185 199 150 185 199 150 129 139 105 129 139 102 129 139 102 122 136 98 122 136 98 122 136 98 122 136 98 116 134 93 175 195 141 175 195 141 175 195 141 175 195 141 116 134 93 116 134 93 107 133 88 107 133 88 100 130 83 100 130 83 100 130 83 108 140 88 108 140 88 108 140 88 123 150 100 123 150 100 155 200 126 155 200 126 155 200 126 155 200 126 176 215 143 123 150 100 176 215 143 155 200 126 123 150 100 123 150 100 123 150 100 155 200 126 123 150 100 151 156 114 151 156 114 151 156 114 151 156 114 151 156 114 170 163 145 170 163 145 170 163 145 216 224 164 170 163 145 151 156 114 151 156 114 151 156 114 151 156 114 216 224 164 151 156 114 151 156 114 151 156 114 216 224 164 151 156 114 170 163 145 151 156 114 216 224 164 216 224 164 151 156 114 216 224 164 176 215 143 151 156 114 123 150 100 123 150 100 176 215 143 176 215 143 123 150 100 151 156 114 176 215 143 176 215 143 176 215 143 176 215 143 155 200 126 176 215 143 151 156 114 216 224 164 216 224 164 216 224 164 243 234 208 243 234 208 170 163 145 243 234 208 243 234 208 243 234 208 170 163 145 170 163 145 243 234 208 243 234 208 176 215 143

195 206 160 195 206 160 136 144 112 136 144 112 195 206 160 195 206 160 185 199 150 185 199 150 185 199 150 185 199 150 195 206 160 185 199 150 129 139 105 129 139 105 185 199 150 129 139 105 129 139 102 129 139 102 129 139 102 129 139 102 185 199 146 129 139 102 122 136 98 175 195 141 175 195 141 175 195 141 185 199 146 185 199 146 185 199 146 185 199 146 185 199 146 185 199 146 185 199 146 185 199 146 185 199 150 185 199 150 195 206 160 129 139 105 195 206 160 185 199 150 195 206 160 195 206 160 195 206 160 195 206 160 195 206 160 205 215 171 205 215 171 215 222 176 215 222 176 156 159 126 224 228 180 224 228 180 150 155 123 150 155 123 150 155 123 215 222 176 224 228 180 224 228 180 234 231 186 234 231 186 234 231 186 240 235 191 237 230 186 232 225 178 232 225 178 162 157 124 165 161 130 165 161 130 168 164 133 168 164 133 163 161 130 163 161 130 234 231 186 234 231 186 240 235 191 240 235 191 168 164 133 240 235 191 240 235 191 240 235 191 168 164 133 168 164 133 163 161 130 163 161 130 156 159 126 156 159 126 150 155 123 150 155 123 143 150 119 205 215 171 143 150 119 143 150 119 143 150 119 150 155 123 150 155 123 150 155 123 150 155 123 150 155 123 150 155 123 143 150 119 143 150 119 143 150 119 136 144 112 136 144 112 136 144 112 129 139 105 129 139 105 129 139 102 122 136 98 122 136 98 116 134 93 116 134 93 107 133 88 154 190 126 107 133 88 107 133 88 100 130 83 143 187 119 100 130 83 143 187 119 100 130 83 100 130 83 143 187 119 100 130 83 143 187 119 143 187 119 155 200 126 155 200 126 155 200 126 143 187 119 143 187 119 154 190 126 154 190 126 166 192 134 175 195 141 175 195 141 185 199 146 129 139 102 185 199 150 185 199 150 195 206 160 136 144 112 195 206 160 195 206 160 136 144 112 136 144 112 129 139 105 136 144 112 185 199 150 129 139 105 185 199 150 129 139 102 129 139 102 185 199 146 185 199 150 129 139 105 129 139 105 185 199 150 195 206 160 195 206 160 136 144 112 136 144 112 129 139 105 129 139 105 129 139 105 129 139 102 129 139 102 122 136 98 122 136 98 122 136 98 122 136 98 122 136 98 116 134 93 166 192 134 116 134 93 116 134 93 116 134 93 107 133 88 107 133 88 107 133 88 107 133 88 100 130 83 100 130 83 108 140 88 108 140 88 108 140 88 108 140 88 123 150 100 176 215 143 176 215 143 123 150 100 123 150 100 108 140 88 123 150 100 123 150 100 176 215 143 176 215 143 123 150 100 123 150 100 123 150 100 123 150 100 151 156 114 151 156 114 151 156 114 151 156 114 170 163 145 170 163 145 170 163 145 170 163 145 170 163 145 170 163 145 170 163 145 170 163 145 170 163 145 170 163 145 216 224 164 151 156 114 170 163 145 170 163 145 170 163 145 170 163 145 151 156 114 170 163 145 216 224 164 216 224 164 216 224 164 216 224 164 216 224 164 151 156 114 151 156 114 151 156 114 123 150 100 123 150 100 151 156 114 151 156 114 176 215 143 176 215 143 176 215 143 176 215 143 176 215 143 123 150 100 123 150 100 176 215 143 216 224 164 216 224 164 216 224 164 216 224 164 170 163 145 170 163 145 243 234 208 243 234 208 243 234 208 170 163 145 243 234 208 243 234 208 216 224 164 216 224 164

205 215 171 205 215 171 205 215 171 195 206 160 195 206 160 195 206 160 195 206 160 195 206 160 195 206 160 195 206 160 195 206 160 195 206 160 185 199 150 185 199 150 185 199 150 129 139 102 129 139 102 185 199 146 185 199 146 185 199 146 129 139 102 129 139 102 122 136 98 175 195 141 175 195 141 175 195 141 185 199 146 185 199 146 185 199 150 185 199 146 129 139 102 185 199 150 185 199 150 185 199 150 195 206 160 195 206 160 195 206 160 195 206 160 195 206 160 195 206 160 195 206 160 195 206 160 195 206 160 195 206 160 205 215 171 205 215 171 205 215 171 215 222 176 224 228 180 224 228 180 224 228 180 150 155 123 150 155 123 215 222 176 224 228 180 215 222 176 224 228 180 224 228 180 224 228 180 234 231 186 240 235 191 240 235 191 240 235 191 237 230 186 165 161 130 162 157 124 232 225 178 165 161 130 168 164 133 168 164 133 240 235 191 234 231 186 234 231 186 163 161 130 240 235 191 240 235 191 240 235 191 168 164 133 168 164 133 163 161 130 163 161 130 163 161 130 163 161 130 156 159 126 156 159 126 156 159 126 150 155 123 150 155 123 143 150 119 136 144 112 143 150 119 143 150 119 205 215 171 205 215 171 215 222 176 143 150 119 143 150 119 143 150 119 143 150 119 143 150 119 136 144 112 136 144 112 136 144 112 136 144 112 129 139 105 129 139 105 129 139 105 129 139 102 122 136 98 122 136 98 116 134 93 116 134 93 116 134 93 166 192 134 107 133 88 154 190 126 107 133 88 143 187 119 143 187 119 143 187 119 100 130 83 143 187 119 143 187 119 143 187 119 143 187 119 143 187 119 143 187 119 143 187 119 143 187 119 143 187 119 154 190 126 154 190 126 154 190 126 166 192 134 175 195 141 175 195 141 175 195 141 185 199 146 185 199 150 185 199 150 185 199 150 129 139 105 195 206 160 136 144 112 136 144 112 136 144 112 129 139 105 195 206 160 129 139 105 129 139 105 129 139 105 129 139 105 185 199 150 185 199 150 185 199 150 185 199 150 129 139 105 185 199 150 195 206 160 195 206 160 136 144 112 129 139 105 129 139 105 129 139 105 129 139 102 129 139 102 129 139 102 122 136 98 122 136 98 122 136 98 175 195 141 116 134 93 116 134 93 116 134 93 116 134 93 107 133 88 107 133 88 107 133 88 107 133 88 107 133 88 100 130 83 100 130 83 100 130 83 108 140 88 108 140 88 108 140 88 123 150 100 123 150 100 176 215 143 176 215 143 123 150 100 155 200 126 155 200 126 123 150 100 155 200 126 176 215 143 176 215 143 123 150 100 123 150 100 151 156 114 151 156 114 151 156 114 170 163 145 170 163 145 170 163 145 170 163 145 243 234 208 170 163 145 170 163 145 170 163 145 170 163 145 154 168 161 154 168 161 154 168 161 170 163 145 170 163 145 170 163 145 170 163 145 170 163 145 170 163 145 243 234 208 216 224 164 216 224 164 216 224 164 216 224 164 151 156 114 216 224 164 216 224 164 216 224 164 151 156 114 151 156 114 216 224 164 151 156 114 151 156 114 176 215 143 176 215 143 176 215 143 176 215 143 155 200 126 123 150 100 123 150 100 176 215 143 176 215 143 151 156 114 151 156 114 151 156 114 151 156 114 170 163 145 170 163 145 170 163 145 243 234 208 243 234 208 170 163 145 243 234 208 216 224 164 216 224 164 216 224 164

205 215 171 205 215 171 143 150 119 205 215 171 195 206 160 195 206 160 195 206 160 195 206 160 195 206 160 195 206 160 195 206 160 195 206 160 129 139 105 185 199 150 129 139 105 129 139 105 185 199 150 185 199 150 185 199 146 185 199 150 185 199 146 185 199 146 129 139 102 185 199 146 185 199 146 185 199 146 185 199 146 185 199 150 185 199 150 129 139 102 185 199 150 185 199 150 185 199 150 195 206 160 195 206 160 195 206 160 195 206 160 136 144 112 195 206 160 195 206 160 195 206 160 195 206 160 195 206 160 195 206 160 205 215 171 205 215 171 215 222 176 215 222 176 215 222 176 224 228 180 224 228 180 150 155 123 224 228 180 224 228 180 215 222 176 150 155 123 215 222 176 224 228 180 224 228 180 234 231 186 234 231 186 163 161 130 240 235 191 237 230 186 237 230 186 165 161 130 165 161 130 165 161 130 168 164 133 168 164 133 240 235 191 240 235 191 240 235 191 234 231 186 234 231 186 168 164 133 163 161 130 163 161 130 163 161 130 163 161 130 163 161 130 163 161 130 156 159 126 156 159 126 156 159 126 150 155 123 150 155 123 143 150 119 136 144 112 136 144 112 136 144 112 136 144 112 136 144 112 136 144 112 143 150 119 143 150 119 143 150 119 143 150 119 136 144 112 136 144 112 136 144 112 136 144 112 136 144 112 129 139 105 129 139 105 129 139 102 129 139 102 129 139 102 122 136 98 122 136 98 116 134 93 166 192 134 166 192 134 166 192 134 107 133 88 107 133 88 107 133 88 100 130 83 143 187 119 143 187 119 143 187 119 143 187 119 143 187 119 143 187 119 143 187 119 143 187 119 143 187 119 143 187 119 154 190 126 154 190 126 154 190 126 154 190 126 166 192 134 166 192 134 175 195 141 175 195 141 175 195 141 185 199 146 185 199 146 185 199 150 129 139 105 185 199 150 195 206 160 129 139 105 129 139 105 195 206 160 129 139 105 185 199 150 129 139 105 129 139 105 129 139 105 185 199 150 185 199 150 129 139 105 185 199 150 185 199 150 185 199 150 185 199 150 129 139 105 129 139 105 129 139 105 129 139 102 129 139 102 129 139 102 129 139 102 129 139 102 129 139 102 122 136 98 122 136 98 122 136 98 175 195 141 122 136 98 116 134 93 116 134 93 107 133 88 107 133 88 107 133 88 100 130 83 107 133 88 100 130 83 100 130 83 100 130 83 108 140 88 108 140 88 108 140 88 108 140 88 108 140 88 176 215 143 176 215 143 123 150 100 123 150 100 176 215 143 123 150 100 123 150 100 123 150 100 123 150 100 123 150 100 151 156 114 151 156 114 151 156 114 170 163 145 170 163 145 154 168 161 154 168 161 170 163 145 170 163 145 243 234 208 154 168 161 154 168 161 154 168 161 154 168 161 154 168 161 145 168 178 154 168 161 221 240 230 154 168 161 154 168 161 170 163 145 243 234 208 243 234 208 243 234 208 170 163 145 170 163 145 170 163 145 170 163 145 170 163 145 170 163 145 151 156 114 170 163 145 170 163 145 216 224 164 216 224 164 216 224 164 151 156 114 176 215 143 176 215 143 176 215 143 176 215 143 123 150 100 123 150 100 176 215 143 123 150 100 151 156 114 151 156 114 151 156 114 151 156 114 170 163 145 216 224 164 243 234 208 243 234 208 243 234 208 243 234 208 243 234 208 243 234 208 216 224 164 216 224 164 216 224 164

215 222 176 205 215 171 205 215 171 205 215 171 205 215 171 205 215 171 205 215 171 205 215 171 205 215 171 195 206 160 195 206 160 136 144 112 195 206 160 195 206 160 185 199 150 185 199 150 185 199 150 129 139 105 129 139 102 185 199 150 185 199 150 129 139 102 129 139 102 185 199 146 185 199 146 185 199 146 185 199 150 185 199 150 185 199 150 185 199 150 185 199 150 185 199 150 195 206 160 195 206 160 195 206 160 195 206 160 195 206 160 195 206 160 195 206 160 195 206 160 195 206 160 195 206 160 195 206 160 205 215 171 205 215 171 205 215 171 215 222 176 215 222 176 215 222 176 224 228 180 224 228 180 224 228 180 224 228 180 224 228 180 150 155 123 215 222 176 215 222 176 224 228 180 224 228 180 224 228 180 234 231 186 234 231 186 240 235 191 240 235 191 237 230 186 165 161 130 237 230 186 165 161 130 165 161 130 240 235 191 240 235 191 163 161 130 163 161 130 163 161 130 234 231 186 163 161 130 163 161 130 163 161 130 163 161 130 156 159 126 156 159 126 156 159 126 156 159 126 156 159 126 156 159 126 150 155 123 150 155 123 143 150 119 136 144 112 136 144 112 136 144 112 136 144 112 129 139 105 136 144 112 195 206 160 143 150 119 143 150 119 136 144 112 136 144 112 136 144 112 136 144 112 136 144 112 129 139 105 129 139 105 129 139 105 129 139 102 129 139 102 122 136 98 122 136 98 122 136 98 116 134 93 116 134 93 166 192 134 166 192 134 166 192 134 154 190 126 154 190 126 100 130 83 143 187 119 100 130 83 143 187 119 143 187 119 143 187 119 143 187 119 154 190 126 154 190 126 154 190 126 154 190 126 154 190 126 154 190 126 154 190 126 166 192 134 166 192 134 166 192 134 166 192 134 175 195 141 175 195 141 185 199 146 185 199 146 185 199 150 185 199 150 129 139 105 129 139 105 129 139 105 185 199 150 129 139 105 129 139 105 129 139 105 129 139 105 185 199 150 185 199 150 185 199 150 185 199 150 129 139 105 185 199 150 185 199 150 185 199 150 185 199 150 129 139 105 129 139 105 129 139 102 129 139 102 129 139 102 129 139 102 129 139 102 185 199 146 185 199 146 185 199 146 185 199 146 175 195 141 175 195 141 116 134 93 116 134 93 116 134 93 107 133 88 107 133 88 107 133 88 100 130 83 100 130 83 100 130 83 100 130 83 108 140 88 108 140 88 108 140 88 108 140 88 155 200 126 155 200 126 123 150 100 123 150 100 123 150 100 176 215 143 176 215 143 155 200 126 123 150 100 123 150 100 176 215 143 176 215 143 151 156 114 170 163 145 170 163 145 170 163 145 170 163 145 154 168 161 154 168 161 154 168 161 154 168 161 154 168 161 154 168 161 221 240 230 154 168 161 154 168 161 145 168 178 145 168 178 221 240 230 221 240 230 154 168 161 154 168 161 154 168 161 154 168 161 170 163 145 243 234 208 170 163 145 243 234 208 170 163 145 170 163 145 170 163 145 243 234 208 170 163 145 170 163 145 170 163 145 216 224 164 170 163 145 216 224 164 151 156 114 216 224 164 176 215 143 176 215 143 123 150 100 176 215 143 176 215 143 176 215 143 123 150 100 151 156 114 216 224 164 216 224 164 151 156 114 216 224 164 170 163 145 170 163 145 170 163 145 243 234 208 243 234 208 243 234 208 243 234 208 216 224 164 216 224 164 216 224 164

215 222 176 215 222 176 205 215 171 143 150 119 205 215 171 205 215 171 205 215 171 205 215 171 205 215 171 136 144 112 195 206 160 195 206 160 195 206 160 195 206 160 195 206 160 195 206 160 129 139 105 129 139 105 129 139 102 185 199 146 129 139 102 185 199 150 185 199 146 185 199 150 185 199 150 185 199 150 185 199 150 185 199 150 195 206 160 195 206 160 195 206 160 195 206 160 195 206 160 195 206 160 195 206 160 195 206 160 195 206 160 195 206 160 195 206 160 195 206 160 205 215 171 205 215 171 205 215 171 205 215 171 205 215 171 215 222 176 215 222 176 215 222 176 215 222 176 224 228 180 224 228 180 224 228 180 156 159 126 150 155 123 224 228 180 215 222 176 224 228 180 224 228 180 224 228 180 156 159 126 156 159 126 234 231 186 163 161 130 240 235 191 240 235 191 168 164 133 237 230 186 168 164 133 168 164 133 168 164 133 168 164 133 163 161 130 234 231 186 234 231 186 163 161 130 163 161 130 156 159 126 156 159 126 156 159 126 156 159 126 156 159 126 156 159 126 156 159 126 156 159 126 150 155 123 150 155 123 143 150 119 143 150 119 136 144 112 136 144 112 129 139 105 129 139 105 129 139 105 185 199 150 129 139 105 136 144 112 136 144 112 136 144 112 129 139 105 195 206 160 129 139 105 129 139 105 129 139 105 129 139 105 129 139 102 129 139 102 122 136 98 122 136 98 122 136 98 122 136 98 116 134 93 166 192 134 166 192 134 116 134 93 166 192 134 107 133 88 107 133 88 154 190 126 154 190 126 154 190 126 154 190 126 154 190 126 154 190 126 154 190 126 154 190 126 107 133 88 154 190 126 154 190 126 154 190 126 166 192 134 166 192 134 166 192 134 166 192 134 166 192 134 175 195 141 175 195 141 185 199 146 185 199 146 185 199 146 185 199 150 129 139 105 129 139 105 185 199 150 185 199 150 129 139 105 129 139 105 129 139 105 129 139 105 129 139 102 129 139 105 129 139 102 129 139 102 129 139 105 129 139 105 185 199 150 129 139 105 185 199 150 129 139 105 129 139 102 129 139 102 129 139 102 129 139 102 129 139 102 185 199 146 122 136 98 185 199 146 185 199 146 185 199 146 129 139 102 122 136 98 116 134 93 116 134 93 107 133 88 107 133 88 107 133 88 107 133 88 100 130 83 100 130 83 100 130 83 108 140 88 108 140 88 108 140 88 108 140 88 123 150 100 123 150 100 123 150 100 123 150 100 123 150 100 123 150 100 123 150 100 176 215 143 176 215 143 176 215 143 123 150 100 123 150 100 151 156 114 151 156 114 170 163 145 170 163 145 154 168 161 154 168 161 154 168 161 154 168 161 154 168 161 154 168 161 221 240 230 145 168 178 154 168 161 145 168 178 145 168 178 145 168 178 145 168 178 145 168 178 145 168 178 145 168 178 145 168 178 145 168 178 154 168 161 154 168 161 243 234 208 243 234 208 170 163 145 170 163 145 170 163 145 170 163 145 243 234 208 243 234 208 243 234 208 243 234 208 170 163 145 243 234 208 170 163 145 216 224 164 151 156 114 216 224 164 176 215 143 176 215 143 123 150 100 176 215 143 123 150 100 123 150 100 123 150 100 176 215 143 216 224 164 151 156 114 151 156 114 216 224 164 170 163 145 243 234 208 170 163 145 243 234 208 170 163 145 243 234 208 243 234 208 243 234 208 170 163 145 170 163 145

215 222 176 215 222 176 150 155 123 215 222 176 215 222 176 215 222 176 215 222 176 205 215 171 205 215 171 205 215 171 205 215 171 195 206 160 205 215 171 136 144 112 195 206 160 129 139 105 129 139 105 129 139 105 185 199 150 185 199 150 185 199 150 185 199 150 185 199 150 185 199 150 185 199 150 185 199 150 195 206 160 195 206 160 195 206 160 195 206 160 195 206 160 195 206 160 195 206 160 205 215 171 205 215 171 205 215 171 205 215 171 205 215 171 205 215 171 195 206 160 205 215 171 205 215 171 205 215 171 205 215 171 205 215 171 215 222 176 215 222 176 215 222 176 224 228 180 224 228 180 224 228 180 224 228 180 224 228 180 156 159 126 224 228 180 150 155 123 224 228 180 224 228 180 224 228 180 224 228 180 156 159 126 224 228 180 163 161 130 234 231 186 163 161 130 168 164 133 168 164 133 163 161 130 168 164 133 168 164 133 168 164 133 163 161 130 163 161 130 163 161 130 163 161 130 156 159 126 156 159 126 224 228 180 224 228 180 156 159 126 150 155 123 150 155 123 224 228 180 224 228 180 150 155 123 150 155 123 143 150 119 136 144 112 136 144 112 129 139 105 129 139 105 129 139 105 185 199 150 129 139 105 129 139 105 129 139 105 129 139 105 129 139 105 129 139 105 129 139 105 129 139 105 129 139 105 129 139 105 129 139 102 129 139 102 129 139 102 129 139 102 185 199 146 122 136 98 175 195 141 116 134 93 166 192 134 116 134 93 107 133 88 116 134 93 107 133 88 107 133 88 107 133 88 154 190 126 154 190 126 154 190 126 154 190 126 154 190 126 154 190 126 154 190 126 154 190 126 154 190 126 166 192 134 166 192 134 166 192 134 175 195 141 166 192 134 166 192 134 175 195 141 175 195 141 185 199 146 185 199 146 185 199 146 185 199 146 185 199 146 129 139 102 129 139 102 129 139 105 129 139 102 129 139 102 129 139 105 129 139 105 185 199 150 129 139 105 129 139 102 129 139 102 129 139 102 129 139 102 129 139 102 185 199 150 129 139 102 129 139 102 129 139 102 129 139 102 129 139 102 129 139 102 185 199 146 122 136 98 129 139 102 185 199 146 185 199 146 129 139 102 122 136 98 129 139 102 122 136 98 116 134 93 116 134 93 116 134 93 107 133 88 107 133 88 100 130 83 100 130 83 100 130 83 108 140 88 108 140 88 108 140 88 123 150 100 123 150 100 123 150 100 123 150 100 151 156 114 123 150 100 123 150 100 123 150 100 176 215 143 151 156 114 176 215 143 123 150 100 151 156 114 123 150 100 151 156 114 151 156 114 170 163 145 154 168 161 154 168 161 145 168 178 145 168 178 154 168 161 145 168 178 145 168 178 145 168 178 145 168 178 145 168 178 145 168 178 145 168 178 145 168 178 130 163 178 130 163 178 130 163 178 145 168 178 145 168 178 145 168 178 208 240 255 221 240 230 221 240 230 154 168 161 154 168 161 170 163 145 154 168 161 243 234 208 243 234 208 243 234 208 243 234 208 170 163 145 170 163 145 216 224 164 216 224 164 216 224 164 216 224 164 216 224 164 216 224 164 176 215 143 123 150 100 123 150 100 151 156 114 176 215 143 151 156 114 123 150 100 151 156 114 216 224 164 216 224 164 216 224 164 170 163 145 243 234 208 170 163 145 170 163 145 243 234 208 243 234 208 170 163 145 170 163 145 170 163 145 216 224 164

224 228 180 150 155 123 215 222 176 215 222 176 215 222 176 215 222 176 215 222 176 215 222 176 215 222 176 205 215 171 205 215 171 205 215 171 205 215 171 205 215 171 195 206 160 129 139 105 185 199 150 185 199 150 185 199 150 185 199 150 129 139 105 185 199 150 185 199 150 195 206 160 185 199 150 195 206 160 195 206 160 195 206 160 195 206 160 195 206 160 195 206 160 195 206 160 205 215 171 205 215 171 205 215 171 205 215 171 205 215 171 205 215 171 205 215 171 205 215 171 205 215 171 205 215 171 205 215 171 205 215 171 143 150 119 215 222 176 215 222 176 215 222 176 224 228 180 224 228 180 224 228 180 156 159 126 156 159 126 156 159 126 224 228 180 156 159 126 224 228 180 224 228 180 156 159 126 156 159 126 156 159 126 156 159 126 156 159 126 156 159 126 156 159 126 163 161 130 163 161 130 163 161 130 163 161 130 163 161 130 163 161 130 163 161 130 163 161 130 163 161 130 163 161 130 156 159 126 156 159 126 224 228 180 156 159 126 150 155 123 150 155 123 150 155 123 215 222 176 150 155 123 150 155 123 143 150 119 143 150 119 136 144 112 129 139 105 129 139 105 129 139 105 129 139 105 129 139 105 129 139 105 129 139 102 129 139 102 129 139 102 129 139 102 129 139 102 129 139 102 129 139 105 129 139 102 129 139 102 129 139 102 129 139 102 185 199 146 185 199 146 122 136 98 122 136 98 122 136 98 116 134 93 166 192 134 166 192 134 166 192 134 166 192 134 166 192 134 154 190 126 107 133 88 154 190 126 154 190 126 107 133 88 107 133 88 154 190 126 154 190 126 166 192 134 166 192 134 166 192 134 166 192 134 166 192 134 166 192 134 166 192 134 175 195 141 175 195 141 175 195 141 185 199 146 185 199 146 185 199 150 185 199 150 185 199 146 129 139 102 129 139 102 129 139 102 129 139 102 129 139 102 129 139 102 129 139 102 185 199 150 129 139 105 129 139 102 129 139 102 185 199 146 185 199 146 129 139 102 185 199 146 185 199 146 129 139 102 129 139 102 122 136 98 185 199 146 185 199 146 129 139 102 185 199 146 122 136 98 185 199 146 122 136 98 122 136 98 122 136 98 185 199 146 175 195 141 116 134 93 116 134 93 107 133 88 107 133 88 107 133 88 107 133 88 100 130 83 100 130 83 108 140 88 108 140 88 108 140 88 123 150 100 123 150 100 123 150 100 123 150 100 151 156 114 151 156 114 216 224 164 123 150 100 151 156 114 151 156 114 151 156 114 151 156 114 151 156 114 151 156 114 151 156 114 170 163 145 170 163 145 170 163 145 154 168 161 145 168 178 145 168 178 145 168 178 130 163 178 145 168 178 145 168 178 145 168 178 145 168 178 145 168 178 130 163 178 145 168 178 130 163 178 130 163 178 186 234 255 130 163 178 130 163 178 130 163 178 145 168 178 208 240 255 208 240 255 145 168 178 154 168 161 221 240 230 221 240 230 243 234 208 243 234 208 243 234 208 170 163 145 170 163 145 170 163 145 243 234 208 243 234 208 216 224 164 216 224 164 216 224 164 216 224 164 151 156 114 151 156 114 151 156 114 151 156 114 151 156 114 216 224 164 176 215 143 151 156 114 151 156 114 216 224 164 151 156 114 170 163 145 170 163 145 170 163 145 243 234 208 243 234 208 243 234 208 170 163 145 170 163 145 243 234 208 243 234 208 216 224 164

224 228 180 224 228 180 224 228 180 224 228 180 224 228 180 224 228 180 224 228 180 215 222 176 224 228 180 215 222 176 205 215 171 205 215 171 205 215 171 136 144 112 136 144 112 136 144 112 195 206 160 185 199 150 195 206 160 185 199 150 185 199 150 185 199 150 195 206 160 195 206 160 129 139 105 195 206 160 195 206 160 195 206 160 205 215 171 205 215 171 195 206 160 205 215 171 215 222 176 205 215 171 205 215 171 205 215 171 205 215 171 205 215 171 215 222 176 205 215 171 205 215 171 205 215 171 205 215 171 215 222 176 205 215 171 215 222 176 224 228 180 215 222 176 224 228 180 156 159 126 150 155 123 150 155 123 224 228 180 156 159 126 150 155 123 150 155 123 224 228 180 150 155 123 224 228 180 150 155 123 150 155 123 150 155 123 224 228 180 156 159 126 156 159 126 156 159 126 163 161 130 234 231 186 234 231 186 234 231 186 163 161 130 163 161 130 234 231 186 156 159 126 156 159 126 156 159 126 224 228 180 156 159 126 150 155 123 150 155 123 150 155 123 215 222 176 150 155 123 150 155 123 150 155 123 143 150 119 136 144 112 136 144 112 129 139 105 129 139 105 129 139 105 129 139 102 185 199 150 129 139 102 129 139 102 129 139 102 129 139 102 185 199 146 129 139 102 129 139 102 129 139 102 129 139 102 185 199 146 185 199 146 129 139 102 122 136 98 122 136 98 122 136 98 175 195 141 122 136 98 122 136 98 166 192 134 175 195 141 116 134 93 116 134 93 116 134 93 166 192 134 154 190 126 154 190 126 154 190 126 154 190 126 154 190 126 154 190 126 166 192 134 154 190 126 166 192 134 166 192 134 166 192 134 175 195 141 175 195 141 175 195 141 175 195 141 175 195 141 185 199 146 185 199 146 185 199 150 185 199 150 185 199 150 129 139 102 129 139 102 129 139 102 185 199 146 185 199 146 185 199 146 129 139 102 185 199 146 185 199 146 185 199 150 129 139 102 185 199 146 185 199 146 129 139 102 129 139 102 185 199 146 129 139 102 122 136 98 122 136 98 122 136 98 185 199 146 129 139 102 185 199 146 185 199 146 129 139 102 175 195 141 122 136 98 122 136 98 122 136 98 122 136 98 185 199 146 116 134 93 107 133 88 107 133 88 107 133 88 100 130 83 100 130 83 108 140 88 108 140 88 108 140 88 123 150 100 123 150 100 123 150 100 151 156 114 176 215 143 151 156 114 151 156 114 151 156 114 151 156 114 151 156 114 151 156 114 216 224 164 151 156 114 216 224 164 216 224 164 170 163 145 170 163 145 154 168 161 154 168 161 154 168 161 154 168 161 145 168 178 145 168 178 130 163 178 130 163 178 130 163 178 130 163 178 145 168 178 208 240 255 208 240 255 130 163 178 186 234 255 145 168 178 130 163 178 130 163 178 130 163 178 186 234 255 186 234 255 208 240 255 208 240 255 145 168 178 208 240 255 221 240 230 221 240 230 221 240 230 243 234 208 243 234 208 170 163 145 170 163 145 243 234 208 170 163 145 243 234 208 243 234 208 243 234 208 216 224 164 216 224 164 216 224 164 170 163 145 151 156 114 216 224 164 216 224 164 151 156 114 176 215 143 151 156 114 151 156 114 216 224 164 216 224 164 170 163 145 170 163 145 170 163 145 170 163 145 243 234 208 170 163 145 170 163 145 154 168 161 243 234 208 243 234 208 243 234 208 216 224 164

224 228 180 224 228 180 224 228 180 224 228 180 224 228 180 224 228 180 224 228 180 224 228 180 224 228 180 150 155 123 215 222 176 143 150 119 143 150 119 143 150 119 205 215 171 195 206 160 195 206 160 195 206 160 185 199 150 129 139 105 185 199 150 185 199 150 195 206 160 129 139 105 129 139 105 195 206 160 195 206 160 195 206 160 195 206 160 205 215 171 205 215 171 205 215 171 205 215 171 143 150 119 143 150 119 143 150 119 205 215 171 205 215 171 215 222 176 215 222 176 215 222 176 215 222 176 215 222 176 215 222 176 215 222 176 215 222 176 224 228 180 224 228 180 224 228 180 156 159 126 150 155 123 215 222 176 215 222 176 150 155 123 150 155 123 150 155 123 150 155 123 150 155 123 150 155 123 150 155 123 150 155 123 150 155 123 150 155 123 150 155 123 150 155 123 150 155 123 156 159 126 156 159 126 156 159 126 156 159 126 156 159 126 156 159 126 156 159 126 156 159 126 156 159 126 156 159 126 156 159 126 150 155 123 150 155 123 150 155 123 150 155 123 150 155 123 143 150 119 143 150 119 143 150 119 143 150 119 136 144 112 136 144 112 129 139 105 129 139 105 129 139 102 185 199 150 185 199 150 129 139 102 129 139 102 185 199 146 122 136 98 129 139 102 129 139 102 185 199 146 185 199 146 129 139 102 129 139 102 129 139 102 122 136 98 122 136 98 122 136 98 122 136 98 122 136 98 122 136 98 116 134 93 116 134 93 116 134 93 116 134 93 107 133 88 166 192 134 166 192 134 107 133 88 154 190 126 154 190 126 154 190 126 166 192 134 107 133 88 154 190 126 166 192 134 166 192 134 166 192 134 175 195 141 175 195 141 175 195 141 175 195 141 185 199 146 185 199 146 185 199 146 185 199 146 185 199 146 129 139 102 129 139 102 129 139 102 129 139 102 185 199 146 185 199 146 185 199 146 129 139 102 185 199 146 185 199 146 185 199 146 185 199 146 185 199 150 185 199 150 129 139 102 185 199 146 129 139 102 129 139 102 122 136 98 122 136 98 185 199 146 175 195 141 185 199 146 185 199 146 122 136 98 122 136 98 122 136 98 122 136 98 116 134 93 122 136 98 116 134 93 116 134 93 116 134 93 116 134 93 107 133 88 107 133 88 100 130 83 100 130 83 100 130 83 108 140 88 108 140 88 108 140 88 123 150 100 123 150 100 123 150 100 151 156 114 151 156 114 151 156 114 151 156 114 170 163 145 170 163 145 216 224 164 151 156 114 151 156 114 151 156 114 216 224 164 170 163 145 170 163 145 154 168 161 154 168 161 154 168 161 154 168 161 145 168 178 145 168 178 145 168 178 130 163 178 186 234 255 130 163 178 130 163 178 186 234 255 208 240 255 130 163 178 130 163 178 130 163 178 130 163 178 130 163 178 186 234 255 186 234 255 186 234 255 186 234 255 208 240 255 130 163 178 208 240 255 208 240 255 208 240 255 154 168 161 221 240 230 221 240 230 170 163 145 154 168 161 154 168 161 154 168 161 154 168 161 154 168 161 170 163 145 170 163 145 243 234 208 170 163 145 170 163 145 170 163 145 170 163 145 170 163 145 151 156 114 151 156 114 216 224 164 151 156 114 151 156 114 216 224 164 151 156 114 170 163 145 243 234 208 170 163 145 243 234 208 243 234 208 170 163 145 170 163 145 170 163 145 243 234 208 243 234 208 243 234 208 243 234 208

234 231 186 234 231 186 234 231 186 234 231 186 234 231 186 224 228 180 224 228 180 224 228 180 224 228 180 224 228 180 150 155 123 215 222 176 215 222 176 205 215 171 205 215 171 205 215 171 205 215 171 195 206 160 195 206 160 195 206 160 195 206 160 195 206 160 195 206 160 195 206 160 185 199 150 185 199 150 195 206 160 195 206 160 205 215 171 205 215 171 205 215 171 205 215 171 143 150 119 143 150 119 205 215 171 205 215 171 205 215 171 215 222 176 215 222 176 150 155 123 215 222 176 215 222 176 215 222 176 215 222 176 215 222 176 215 222 176 224 228 180 224 228 180 224 228 180 156 159 126 156 159 126 150 155 123 215 222 176 150 155 123 150 155 123 143 150 119 143 150 119 143 150 119 143 150 119 143 150 119 143 150 119 143 150 119 150 155 123 215 222 176 150 155 123 150 155 123 150 155 123 150 155 123 156 159 126 150 155 123 150 155 123 150 155 123 150 155 123 150 155 123 224 228 180 156 159 126 150 155 123 150 155 123 150 155 123 150 155 123 150 155 123 143 150 119 143 150 119 143 150 119 143 150 119 136 144 112 136 144 112 129 139 105 129 139 105 129 139 102 129 139 102 185 199 146 129 139 102 129 139 102 129 139 102 185 199 146 129 139 102 185 199 146 185 199 146 185 199 146 185 199 146 122 136 98 122 136 98 122 136 98 122 136 98 122 136 98 175 195 141 122 136 98 122 136 98 122 136 98 116 134 93 116 134 93 116 134 93 116 134 93 166 192 134 154 190 126 166 192 134 107 133 88 107 133 88 107 133 88 166 192 134 107 133 88 166 192 134 166 192 134 166 192 134 166 192 134 175 195 141 175 195 141 185 199 146 185 199 146 185 199 146 185 199 146 185 199 150 185 199 146 185 199 150 185 199 150 185 199 146 185 199 146 185 199 150 185 199 146 185 199 146 185 199 146 185 199 146 185 199 150 185 199 150 185 199 146 185 199 150 185 199 146 185 199 150 185 199 150 129 139 102 185 199 146 129 139 102 185 199 146 185 199 146 185 199 146 185 199 146 122 136 98 185 199 146 122 136 98 122 136 98 116 134 93 122 136 98 116 134 93 116 134 93 116 134 93 116 134 93 107 133 88 107 133 88 107 133 88 107 133 88 107 133 88 100 130 83 100 130 83 100 130 83 108 140 88 108 140 88 123 150 100 155 200 126 123 150 100 123 150 100 151 156 114 151 156 114 151 156 114 216 224 164 170 163 145 243 234 208 243 234 208 216 224 164 216 224 164 151 156 114 170 163 145 170 163 145 170 163 145 154 168 161 154 168 161 221 240 230 145 168 178 145 168 178 130 163 178 130 163 178 130 163 178 130 163 178 186 234 255 186 234 255 186 234 255 186 234 255 130 163 178 130 163 178 130 163 178 186 234 255 186 234 255 208 240 255 130 163 178 186 234 255 130 163 178 208 240 255 130 163 178 208 240 255 145 168 178 208 240 255 221 240 230 221 240 230 221 240 230 221 240 230 154 168 161 154 168 161 154 168 161 154 168 161 154 168 161 154 168 161 154 168 161 154 168 161 154 168 161 170 163 145 170 163 145 170 163 145 170 163 145 243 234 208 216 224 164 216 224 164 151 156 114 151 156 114 151 156 114 151 156 114 216 224 164 216 224 164 243 234 208 243 234 208 243 234 208 243 234 208 243 234 208 243 234 208 243 234 208 243 234 208 243 234 208 216 224 164

224 228 180 234 231 186 234 231 186 234 231 186 234 231 186 234 231 186 234 231 186 234 231 186 234 231 186 156 159 126 150 155 123 215 222 176 215 222 176 215 222 176 205 215 171 205 215 171 143 150 119 143 150 119 195 206 160 195 206 160 195 206 160 195 206 160 195 206 160 136 144 112 195 206 160 195 206 160 195 206 160 195 206 160 205 215 171 143 150 119 205 215 171 205 215 171 215 222 176 205 215 171 215 222 176 205 215 171 205 215 171 205 215 171 215 222 176 215 222 176 215 222 176 215 222 176 215 222 176 215 222 176 215 222 176 215 222 176 215 222 176 224 228 180 224 228 180 150 155 123 150 155 123 150 155 123 150 155 123 150 155 123 143 150 119 143 150 119 205 215 171 143 150 119 143 150 119 143 150 119 143 150 119 143 150 119 143 150 119 143 150 119 143 150 119 143 150 119 143 150 119 143 150 119 143 150 119 150 155 123 143 150 119 143 150 119 150 155 123 150 155 123 150 155 123 150 155 123 150 155 123 150 155 123 143 150 119 143 150 119 143 150 119 143 150 119 136 144 112 136 144 112 136 144 112 136 144 112 129 139 105 129 139 105 129 139 105 129 139 102 129 139 102 129 139 102 122 136 98 122 136 98 122 136 98 185 199 146 122 136 98 185 199 146 129 139 102 185 199 146 122 136 98 122 136 98 122 136 98 122 136 98 122 136 98 122 136 98 175 195 141 122 136 98 122 136 98 116 134 93 116 134 93 116 134 93 116 134 93 116 134 93 166 192 134 107 133 88 107 133 88 107 133 88 107 133 88 154 190 126 154 190 126 107 133 88 154 190 126 166 192 134 166 192 134 166 192 134 175 195 141 185 199 146 185 199 146 185 199 146 185 199 146 185 199 150 185 199 150 185 199 150 185 199 150 185 199 150 185 199 150 185 199 150 185 199 146 129 139 102 185 199 146 185 199 146 185 199 150 185 199 150 185 199 150 185 199 150 185 199 150 185 199 150 185 199 150 129 139 105 129 139 102 129 139 102 185 199 146 185 199 150 185 199 146 129 139 102 185 199 146 122 136 98 175 195 141 122 136 98 116 134 93 116 134 93 116 134 93 116 134 93 107 133 88 107 133 88 107 133 88 107 133 88 100 130 83 100 130 83 100 130 83 100 130 83 100 130 83 108 140 88 108 140 88 123 150 100 123 150 100 123 150 100 123 150 100 123 150 100 151 156 114 151 156 114 216 224 164 151 156 114 170 163 145 170 163 145 243 234 208 243 234 208 216 224 164 170 163 145 170 163 145 170 163 145 170 163 145 170 163 145 154 168 161 154 168 161 145 168 178 145 168 178 145 168 178 130 163 178 186 234 255 130 163 178 186 234 255 186 234 255 130 163 178 186 234 255 186 234 255 130 163 178 130 163 178 130 163 178 186 234 255 186 234 255 186 234 255 130 163 178 186 234 255 130 163 178 208 240 255 145 168 178 208 240 255 208 240 255 208 240 255 208 240 255 221 240 230 221 240 230 221 240 230 221 240 230 221 240 230 154 168 161 145 168 178 145 168 178 145 168 178 154 168 161 221 240 230 221 240 230 154 168 161 170 163 145 170 163 145 243 234 208 243 234 208 216 224 164 216 224 164 170 163 145 170 163 145 170 163 145 170 163 145 170 163 145 170 163 145 170 163 145 243 234 208 243 234 208 170 163 145 243 234 208 170 163 145 243 234 208 243 234 208 170 163 145 216 224 164

234 231 186 234 231 186 234 231 186 234 231 186 240 235 191 234 231 186 240 235 191 234 231 186 163 161 130 156 159 126 224 228 180 224 228 180 224 228 180 215 222 176 215 222 176 205 215 171 205 215 171 205 215 171 205 215 171 205 215 171 205 215 171 205 215 171 136 144 112 195 206 160 195 206 160 195 206 160 205 215 171 205 215 171 205 215 171 205 215 171 215 222 176 215 222 176 215 222 176 215 222 176 215 222 176 215 222 176 143 150 119 215 222 176 215 222 176 215 222 176 215 222 176 215 222 176 215 222 176 215 222 176 224 228 180 150 155 123 150 155 123 150 155 123 224 228 180 150 155 123 150 155 123 150 155 123 215 222 176 143 150 119 143 150 119 143 150 119 143 150 119 143 150 119 205 215 171 205 215 171 205 215 171 136 144 112 143 150 119 136 144 112 136 144 112 136 144 112 143 150 119 136 144 112 143 150 119 143 150 119 143 150 119 143 150 119 205 215 171 143 150 119 143 150 119 143 150 119 143 150 119 143 150 119 143 150 119 143 150 119 143 150 119 136 144 112 136 144 112 136 144 112 136 144 112 136 144 112 129 139 105 129 139 105 129 139 102 129 139 102 185 199 146 122 136 98 122 136 98 122 136 98 175 195 141 122 136 98 122 136 98 175 195 141 122 136 98 122 136 98 122 136 98 122 136 98 116 134 93 116 134 93 116 134 93 122 136 98 175 195 141 122 136 98 122 136 98 116 134 93 107 133 88 107 133 88 107 133 88 107 133 88 107 133 88 107 133 88 107 133 88 154 190 126 107 133 88 166 192 134 166 192 134 154 190 126 166 192 134 166 192 134 166 192 134 166 192 134 175 195 141 175 195 141 185 199 146 185 199 146 185 199 150 185 199 150 185 199 150 185 199 150 185 199 150 185 199 150 185 199 150 185 199 150 185 199 150 185 199 150 185 199 150 129 139 102 185 199 150 185 199 150 185 199 150 185 199 150 185 199 150 185 199 150 185 199 150 185 199 150 129 139 105 185 199 150 185 199 150 185 199 150 129 139 102 185 199 146 185 199 146 185 199 146 175 195 141 122 136 98 116 134 93 116 134 93 116 134 93 107 133 88 107 133 88 107 133 88 107 133 88 100 130 83 100 130 83 100 130 83 100 130 83 100 130 83 108 140 88 108 140 88 108 140 88 123 150 100 123 150 100 176 215 143 123 150 100 123 150 100 123 150 100 151 156 114 216 224 164 151 156 114 170 163 145 243 234 208 170 163 145 170 163 145 243 234 208 170 163 145 170 163 145 170 163 145 243 234 208 170 163 145 154 168 161 154 168 161 145 168 178 145 168 178 208 240 255 130 163 178 130 163 178 130 163 178 186 234 255 186 234 255 130 163 178 130 163 178 130 163 178 130 163 178 130 163 178 186 234 255 186 234 255 186 234 255 208 240 255 208 240 255 186 234 255 186 234 255 186 234 255 208 240 255 208 240 255 208 240 255 221 240 230 221 240 230 221 240 230 221 240 230 221 240 230 154 168 161 154 168 161 154 168 161 145 168 178 208 240 255 221 240 230 221 240 230 221 240 230 154 168 161 154 168 161 221 240 230 243 234 208 243 234 208 243 234 208 170 163 145 216 224 164 170 163 145 170 163 145 170 163 145 243 234 208 170 163 145 170 163 145 243 234 208 216 224 164 243 234 208 216 224 164 243 234 208 170 163 145 243 234 208 216 224 164 216 224 164 243 234 208

234 231 186 234 231 186 234 231 186 240 235 191 240 235 191 240 235 191 234 231 186 163 161 130 163 161 130 234 231 186 224 228 180 224 228 180 224 228 180 150 155 123 215 222 176 215 222 176 215 222 176 215 222 176 205 215 171 143 150 119 143 150 119 205 215 171 205 215 171 195 206 160 195 206 160 195 206 160 205 215 171 205 215 171 205 215 171 205 215 171 215 222 176 215 222 176 215 222 176 150 155 123 150 155 123 215 222 176 215 222 176 215 222 176 215 222 176 215 222 176 150 155 123 150 155 123 215 222 176 215 222 176 215 222 176 150 155 123 215 222 176 215 222 176 215 222 176 150 155 123 150 155 123 150 155 123 215 222 176 215 222 176 205 215 171 205 215 171 143 150 119 205 215 171 136 144 112 136 144 112 136 144 112 136 144 112 136 144 112 136 144 112 136 144 112 136 144 112 136 144 112 136 144 112 136 144 112 136 144 112 136 144 112 136 144 112 136 144 112 136 144 112 136 144 112 136 144 112 136 144 112 143 150 119 136 144 112 136 144 112 136 144 112 136 144 112 136 144 112 136 144 112 136 144 112 129 139 105 129 139 105 129 139 102 129 139 102 129 139 102 129 139 102 129 139 102 175 195 141 175 195 141 175 195 141 122 136 98 122 136 98 122 136 98 122 136 98 122 136 98 175 195 141 122 136 98 116 134 93 166 192 134 116 134 93 166 192 134 175 195 141 122 136 98 116 134 93 116 134 93 107 133 88 154 190 126 154 190 126 107 133 88 107 133 88 154 190 126 154 190 126 154 190 126 154 190 126 154 190 126 166 192 134 166 192 134 166 192 134 166 192 134 166 192 134 175 195 141 175 195 141 175 195 141 185 199 146 129 139 102 185 199 150 185 199 150 185 199 150 185 199 150 185 199 150 129 139 105 185 199 150 185 199 150 185 199 150 185 199 150 185 199 150 185 199 150 185 199 150 185 199 150 185 199 150 185 199 150 129 139 105 129 139 105 185 199 150 185 199 150 129 139 105 185 199 150 185 199 150 129 139 105 129 139 102 129 139 102 129 139 102 129 139 102 122 136 98 116 134 93 116 134 93 116 134 93 107 133 88 107 133 88 107 133 88 107 133 88 100 130 83 100 130 83 108 140 88 108 140 88 108 140 88 108 140 88 108 140 88 123 150 100 123 150 100 123 150 100 123 150 100 123 150 100 123 150 100 151 156 114 151 156 114 151 156 114 170 163 145 151 156 114 170 163 145 170 163 145 170 163 145 170 163 145 170 163 145 154 168 161 154 168 161 154 168 161 154 168 161 154 168 161 154 168 161 145 168 178 145 168 178 145 168 178 208 240 255 130 163 178 130 163 178 186 234 255 186 234 255 130 163 178 130 163 178 130 163 178 186 234 255 121 158 178 130 163 178 130 163 178 186 234 255 130 163 178 186 234 255 208 240 255 208 240 255 208 240 255 208 240 255 208 240 255 208 240 255 208 240 255 208 240 255 221 240 230 221 240 230 221 240 230 154 168 161 145 168 178 145 168 178 145 168 178 145 168 178 208 240 255 208 240 255 145 168 178 221 240 230 154 168 161 145 168 178 154 168 161 154 168 161 154 168 161 154 168 161 170 163 145 170 163 145 170 163 145 170 163 145 170 163 145 170 163 145 170 163 145 170 163 145 243 234 208 170 163 145 151 156 114 170 163 145 170 163 145 243 234 208 216 224 164 216 224 164 216 224 164 216 224 164

234 231 186 240 235 191 240 235 191 240 235 191 240 235 191 240 235 191 240 235 191 240 235 191 240 235 191 234 231 186 234 231 186 156 159 126 224 228 180 224 228 180 224 228 180 150 155 123 215 222 176 215 222 176 215 222 176 143 150 119 143 150 119 205 215 171 205 215 171 136 144 112 205 215 171 205 215 171 205 215 171 143 150 119 143 150 119 205 215 171 215 222 176 215 222 176 215 222 176 150 155 123 215 222 176 150 155 123 215 222 176 215 222 176 215 222 176 150 155 123 150 155 123 215 222 176 215 222 176 150 155 123 215 222 176 215 222 176 215 222 176 150 155 123 150 155 123 150 155 123 150 155 123 150 155 123 215 222 176 150 155 123 215 222 176 215 222 176 205 215 171 143 150 119 205 215 171 136 144 112 136 144 112 136 144 112 129 139 105 136 144 112 195 206 160 136 144 112 136 144 112 129 139 105 129 139 105 136 144 112 195 206 160 195 206 160 136 144 112 136 144 112 136 144 112 136 144 112 136 144 112 136 144 112 136 144 112 136 144 112 136 144 112 195 206 160 136 144 112 136 144 112 136 144 112 129 139 105 129 139 102 129 139 102 129 139 102 129 139 102 129 139 102 185 199 146 185 199 146 175 195 141 122 136 98 116 134 93 122 136 98 116 134 93 116 134 93 175 195 141 122 136 98 122 136 98 175 195 141 116 134 93 166 192 134 166 192 134 175 195 141 122 136 98 175 195 141 116 134 93 116 134 93 154 190 126 107 133 88 154 190 126 154 190 126 154 190 126 154 190 126 154 190 126 166 192 134 166 192 134 166 192 134 166 192 134 166 192 134 175 195 141 175 195 141 175 195 141 175 195 141 185 199 146 185 199 146 185 199 146 185 199 150 185 199 150 185 199 150 185 199 150 185 199 150 185 199 150 195 206 160 185 199 150 195 206 160 129 139 105 129 139 105 129 139 105 185 199 150 185 199 150 185 199 150 129 139 105 185 199 150 185 199 150 185 199 150 185 199 150 185 199 150 185 199 150 185 199 150 129 139 105 185 199 150 129 139 102 129 139 102 122 136 98 122 136 98 116 134 93 107 133 88 107 133 88 107 133 88 107 133 88 107 133 88 100 130 83 108 140 88 108 140 88 108 140 88 108 140 88 108 140 88 108 140 88 123 150 100 123 150 100 123 150 100 123 150 100 123 150 100 151 156 114 151 156 114 151 156 114 151 156 114 151 156 114 170 163 145 243 234 208 170 163 145 170 163 145 243 234 208 170 163 145 154 168 161 154 168 161 154 168 161 221 240 230 221 240 230 154 168 161 154 168 161 145 168 178 145 168 178 145 168 178 145 168 178 130 163 178 130 163 178 186 234 255 186 234 255 186 234 255 130 163 178 121 158 178 121 158 178 121 158 178 174 227 255 186 234 255 186 234 255 130 163 178 186 234 255 186 234 255 208 240 255 145 168 178 208 240 255 208 240 255 208 240 255 208 240 255 208 240 255 221 240 230 221 240 230 154 168 161 154 168 161 145 168 178 145 168 178 145 168 178 208 240 255 208 240 255 145 168 178 145 168 178 145 168 178 145 168 178 145 168 178 208 240 255 221 240 230 154 168 161 154 168 161 221 240 230 154 168 161 243 234 208 243 234 208 170 163 145 154 168 161 154 168 161 243 234 208 243 234 208 243 234 208 170 163 145 170 163 145 170 163 145 216 224 164 216 224 164 216 224 164 216 224 164 176 215 143

240 235 191 240 235 191 240 235 191 240 235 191 237 230 186 240 235 191 240 235 191 240 235 191 240 235 191 240 235 191 163 161 130 234 231 186 224 228 180 224 228 180 156 159 126 150 155 123 215 222 176 150 155 123 215 222 176 150 155 123 205 215 171 205 215 171 205 215 171 205 215 171 205 215 171 205 215 171 205 215 171 143 150 119 205 215 171 215 222 176 215 222 176 224 228 180 224 228 180 224 228 180 215 222 176 215 222 176 215 222 176 215 222 176 150 155 123 150 155 123 215 222 176 215 222 176 215 222 176 215 222 176 215 222 176 150 155 123 150 155 123 215 222 176 215 222 176 215 222 176 150 155 123 150 155 123 215 222 176 143 150 119 143 150 119 143 150 119 215 222 176 143 150 119 205 215 171 136 144 112 136 144 112 129 139 105 129 139 105 129 139 105 129 139 105 129 139 105 129 139 105 195 206 160 185 199 150 129 139 105 129 139 105 136 144 112 129 139 105 129 139 105 129 139 105 129 139 105 195 206 160 195 206 160 136 144 112 129 139 105 136 144 112 136 144 112 129 139 105 129 139 105 129 139 105 129 139 102 129 139 102 129 139 102 185 199 146 129 139 102 185 199 146 122 136 98 122 136 98 122 136 98 122 136 98 116 134 93 116 134 93 116 134 93 116 134 93 166 192 134 175 195 141 122 136 98 116 134 93 122 136 98 166 192 134 175 195 141 175 195 141 116 134 93 116 134 93 116 134 93 116 134 93 166 192 134 154 190 126 154 190 126 107 133 88 107 133 88 107 133 88 107 133 88 154 190 126 107 133 88 166 192 134 166 192 134 175 195 141 175 195 141 175 195 141 175 195 141 175 195 141 185 199 146 185 199 146 185 199 146 185 199 150 185 199 150 185 199 150 129 139 105 129 139 105 185 199 150 195 206 160 129 139 105 185 199 150 129 139 105 185 199 150 185 199 150 185 199 150 185 199 150 195 206 160 195 206 160 185 199 150 185 199 150 185 199 150 185 199 150 129 139 105 185 199 150 185 199 150 129 139 105 129 139 102 129 139 102 122 136 98 122 136 98 116 134 93 107 133 88 107 133 88 107 133 88 107 133 88 107 133 88 100 130 83 100 130 83 108 140 88 108 140 88 123 150 100 123 150 100 123 150 100 123 150 100 151 156 114 151 156 114 151 156 114 151 156 114 151 156 114 151 156 114 151 156 114 151 156 114 216 224 164 170 163 145 170 163 145 243 234 208 243 234 208 243 234 208 243 234 208 154 168 161 154 168 161 154 168 161 154 168 161 154 168 161 145 168 178 145 168 178 145 168 178 145 168 178 145 168 178 130 163 178 130 163 178 130 163 178 186 234 255 186 234 255 186 234 255 130 163 178 121 158 178 121 158 178 121 158 178 121 158 178 174 227 255 121 158 178 121 158 178 130 163 178 186 234 255 186 234 255 208 240 255 145 168 178 208 240 255 208 240 255 145 168 178 208 240 255 208 240 255 221 240 230 221 240 230 154 168 161 145 168 178 145 168 178 145 168 178 145 168 178 130 163 178 145 168 178 130 163 178 130 163 178 130 163 178 130 163 178 208 240 255 208 240 255 208 240 255 145 168 178 221 240 230 154 168 161 154 168 161 243 234 208 243 234 208 154 168 161 154 168 161 154 168 161 154 168 161 170 163 145 243 234 208 170 163 145 243 234 208 216 224 164 243 234 208 216 224 164 176 215 143 176 215 143 176 215 143

237 230 186 240 235 191 237 230 186 237 230 186 237 230 186 168 164 133 240 235 191 240 235 191 237 230 186 168 164 133 163 161 130 234 231 186 234 231 186 234 231 186 156 159 126 224 228 180 215 222 176 215 222 176 215 222 176 150 155 123 215 222 176 205 215 171 215 222 176 215 222 176 215 222 176 215 222 176 215 222 176 215 222 176 215 222 176 215 222 176 224 228 180 224 228 180 224 228 180 224 228 180 224 228 180 215 222 176 150 155 123 150 155 123 150 155 123 215 222 176 215 222 176 215 222 176 215 222 176 150 155 123 150 155 123 150 155 123 150 155 123 150 155 123 215 222 176 143 150 119 143 150 119 150 155 123 150 155 123 143 150 119 143 150 119 215 222 176 215 222 176 143 150 119 136 144 112 136 144 112 129 139 105 129 139 105 129 139 105 185 199 150 185 199 150 185 199 150 195 206 160 185 199 150 129 139 105 129 139 105 185 199 150 129 139 105 129 139 105 129 139 105 185 199 150 129 139 105 195 206 160 129 139 105 195 206 160 136 144 112 129 139 105 129 139 105 129 139 105 129 139 105 129 139 105 129 139 102 129 139 102 129 139 102 129 139 102 129 139 102 185 199 146 185 199 146 185 199 146 122 136 98 122 136 98 116 134 93 116 134 93 116 134 93 166 192 134 166 192 134 166 192 134 122 136 98 175 195 141 175 195 141 175 195 141 175 195 141 122 136 98 116 134 93 116 134 93 116 134 93 116 134 93 116 134 93 166 192 134 166 192 134 166 192 134 154 190 126 154 190 126 166 192 134 154 190 126 166 192 134 166 192 134 166 192 134 175 195 141 185 199 146 185 199 146 185 199 146 185 199 146 185 199 146 185 199 146 185 199 146 185 199 146 185 199 150 185 199 150 185 199 150 185 199 150 195 206 160 195 206 160 195 206 160 129 139 105 129 139 105 129 139 105 185 199 150 185 199 150 185 199 150 195 206 160 129 139 105 195 206 160 185 199 150 195 206 160 185 199 150 129 139 105 129 139 105 129 139 105 129 139 102 129 139 102 129 139 102 129 139 102 122 136 98 116 134 93 107 133 88 100 130 83 100 130 83 100 130 83 100 130 83 100 130 83 108 140 88 108 140 88 123 150 100 123 150 100 123 150 100 123 150 100 123 150 100 123 150 100 151 156 114 151 156 114 151 156 114 151 156 114 170 163 145 216 224 164 151 156 114 170 163 145 170 163 145 170 163 145 243 234 208 216 224 164 170 163 145 170 163 145 154 168 161 145 168 178 145 168 178 145 168 178 145 168 178 145 168 178 145 168 178 130 163 178 130 163 178 130 163 178 130 163 178 186 234 255 186 234 255 208 240 255 130 163 178 186 234 255 186 234 255 186 234 255 174 227 255 121 158 178 174 227 255 116 156 172 121 158 178 174 227 255 174 227 255 186 234 255 130 163 178 186 234 255 130 163 178 208 240 255 208 240 255 208 240 255 208 240 255 208 240 255 145 168 178 221 240 230 145 168 178 145 168 178 145 168 178 130 163 178 130 163 178 130 163 178 130 163 178 130 163 178 130 163 178 130 163 178 186 234 255 208 240 255 130 163 178 145 168 178 145 168 178 221 240 230 221 240 230 243 234 208 221 240 230 154 168 161 154 168 161 154 168 161 221 240 230 221 240 230 221 240 230 243 234 208 170 163 145 243 234 208 216 224 164 216 224 164 216 224 164 176 215 143 176 215 143 155 200 126

237 230 186 165 161 130 240 235 191 237 230 186 237 230 186 165 161 130 237 230 186 240 235 191 240 235 191 168 164 133 240 235 191 234 231 186 234 231 186 234 231 186 156 159 126 224 228 180 150 155 123 150 155 123 215 222 176 215 222 176 215 222 176 215 222 176 215 222 176 215 222 176 215 222 176 215 222 176 215 222 176 215 222 176 215 222 176 224 228 180 224 228 180 224 228 180 224 228 180 156 159 126 224 228 180 150 155 123 215 222 176 215 222 176 143 150 119 215 222 176 150 155 123 215 222 176 215 222 176 143 150 119 143 150 119 143 150 119 150 155 123 215 222 176 215 222 176 143 150 119 143 150 119 205 215 171 143 150 119 143 150 119 143 150 119 205 215 171 143 150 119 143 150 119 136 144 112 129 139 105 129 139 105 129 139 105 129 139 105 185 199 150 129 139 105 185 199 150 129 139 105 129 139 105 129 139 105 129 139 105 129 139 105 129 139 105 129 139 105 129 139 105 185 199 150 195 206 160 185 199 150 129 139 105 185 199 150 136 144 112 129 139 105 185 199 150 129 139 105 129 139 105 129 139 102 129 139 102 185 199 146 129 139 102 129 139 102 122 136 98 129 139 102 185 199 146 122 136 98 122 136 98 122 136 98 116 134 93 116 134 93 166 192 134 166 192 134 166 192 134 116 134 93 116 134 93 175 195 141 116 134 93 122 136 98 122 136 98 116 134 93 116 134 93 166 192 134 116 134 93 116 134 93 166 192 134 166 192 134 116 134 93 166 192 134 166 192 134 166 192 134 166 192 134 166 192 134 166 192 134 166 192 134 175 195 141 175 195 141 175 195 141 185 199 146 185 199 146 185 199 146 185 199 146 129 139 102 185 199 146 185 199 150 185 199 150 185 199 150 129 139 105 185 199 150 195 206 160 195 206 160 129 139 105 129 139 105 129 139 105 129 139 105 185 199 150 129 139 105 185 199 150 129 139 105 129 139 105 185 199 150 195 206 160 185 199 150 129 139 105 129 139 105 185 199 150 185 199 150 129 139 102 129 139 102 185 199 146 122 136 98 122 136 98 116 134 93 107 133 88 107 133 88 143 187 119 100 130 83 100 130 83 108 140 88 108 140 88 108 140 88 123 150 100 123 150 100 123 150 100 151 156 114 151 156 114 151 156 114 151 156 114 151 156 114 151 156 114 170 163 145 170 163 145 243 234 208 151 156 114 170 163 145 170 163 145 170 163 145 170 163 145 170 163 145 170 163 145 154 168 161 154 168 161 154 168 161 145 168 178 145 168 178 145 168 178 130 163 178 130 163 178 130 163 178 130 163 178 186 234 255 186 234 255 186 234 255 130 163 178 130 163 178 130 163 178 186 234 255 186 234 255 186 234 255 121 158 178 121 158 178 174 227 255 174 227 255 174 227 255 174 227 255 174 227 255 174 227 255 130 163 178 186 234 255 186 234 255 186 234 255 145 168 178 208 240 255 145 168 178 145 168 178 145 168 178 208 240 255 145 168 178 145 168 178 145 168 178 130 163 178 186 234 255 186 234 255 130 163 178 186 234 255 130 163 178 130 163 178 130 163 178 186 234 255 130 163 178 208 240 255 208 240 255 145 168 178 221 240 230 221 240 230 154 168 161 154 168 161 154 168 161 154 168 161 221 240 230 221 240 230 221 240 230 243 234 208 243 234 208 243 234 208 216 224 164 216 224 164 216 224 164 176 215 143 176 215 143 155 200 126

237 230 186 237 230 186 237 230 186 237 230 186 237 230 186 165 161 130 165 161 130 168 164 133 168 164 133 240 235 191 240 235 191 240 235 191 240 235 191 163 161 130 163 161 130 156 159 126 156 159 126 215 222 176 224 228 180 224 228 180 224 228 180 224 228 180 224 228 180 224 228 180 224 228 180 224 228 180 224 228 180 224 228 180 215 222 176 224 228 180 224 228 180 224 228 180 224 228 180 156 159 126 156 159 126 150 155 123 215 222 176 150 155 123 143 150 119 205 215 171 150 155 123 143 150 119 150 155 123 143 150 119 143 150 119 205 215 171 205 215 171 215 222 176 150 155 123 143 150 119 143 150 119 143 150 119 143 150 119 136 144 112 143 150 119 136 144 112 136 144 112 136 144 112 136 144 112 129 139 105 129 139 105 129 139 105 129 139 102 185 199 150 185 199 150 129 139 102 129 139 105 129 139 105 185 199 150 129 139 105 129 139 102 129 139 102 185 199 150 185 199 150 185 199 150 185 199 150 129 139 105 129 139 105 185 199 150 185 199 150 129 139 105 185 199 150 129 139 105 129 139 105 185 199 150 129 139 102 185 199 146 129 139 102 129 139 102 185 199 146 185 199 146 185 199 146 185 199 146 122 136 98 122 136 98 175 195 141 166 192 134 166 192 134 116 134 93 166 192 134 175 195 141 116 134 93 166 192 134 116 134 93 175 195 141 116 134 93 116 134 93 166 192 134 166 192 134 116 134 93 166 192 134 166 192 134 116 134 93 166 192 134 166 192 134 166 192 134 166 192 134 166 192 134 166 192 134 166 192 134 175 195 141 175 195 141 185 199 146 185 199 146 185 199 146 185 199 146 185 199 146 185 199 146 185 199 146 185 199 150 185 199 150 185 199 150 185 199 150 185 199 150 185 199 150 195 206 160 195 206 160 129 139 105 129 139 105 185 199 150 129 139 102 185 199 150 129 139 105 129 139 102 129 139 105 185 199 150 195 206 160 195 206 160 136 144 112 185 199 150 129 139 105 129 139 105 185 199 150 185 199 150 185 199 146 129 139 102 122 136 98 122 136 98 116 134 93 116 134 93 107 133 88 100 130 83 100 130 83 143 187 119 108 140 88 108 140 88 123 150 100 123 150 100 151 156 114 151 156 114 151 156 114 151 156 114 170 163 145 151 156 114 170 163 145 170 163 145 170 163 145 243 234 208 243 234 208 170 163 145 170 163 145 170 163 145 170 163 145 243 234 208 154 168 161 154 168 161 154 168 161 154 168 161 145 168 178 145 168 178 145 168 178 208 240 255 208 240 255 130 163 178 130 163 178 130 163 178 186 234 255 130 163 178 186 234 255 130 163 178 130 163 178 186 234 255 186 234 255 130 163 178 130 163 178 130 163 178 186 234 255 174 227 255 186 234 255 186 234 255 186 234 255 174 227 255 186 234 255 186 234 255 186 234 255 186 234 255 208 240 255 186 234 255 208 240 255 208 240 255 208 240 255 208 240 255 208 240 255 145 168 178 130 163 178 208 240 255 208 240 255 186 234 255 130 163 178 130 163 178 186 234 255 130 163 178 130 163 178 186 234 255 186 234 255 130 163 178 208 240 255 208 240 255 208 240 255 208 240 255 145 168 178 145 168 178 221 240 230 221 240 230 221 240 230 221 240 230 154 168 161 154 168 161 243 234 208 243 234 208 243 234 208 170 163 145 216 224 164 216 224 164 176 215 143 176 215 143 155 200 126

237 230 186 165 161 130 237 230 186 237 230 186 237 230 186 165 161 130 168 164 133 168 164 133 168 164 133 240 235 191 240 235 191 168 164 133 240 235 191 163 161 130 163 161 130 156 159 126 224 228 180 224 228 180 224 228 180 234 231 186 224 228 180 224 228 180 224 228 180 234 231 186 234 231 186 224 228 180 224 228 180 224 228 180 224 228 180 224 228 180 224 228 180 224 228 180 156 159 126 156 159 126 224 228 180 150 155 123 150 155 123 150 155 123 150 155 123 205 215 171 205 215 171 143 150 119 143 150 119 143 150 119 143 150 119 143 150 119 143 150 119 143 150 119 143 150 119 143 150 119 205 215 171 143 150 119 136 144 112 136 144 112 136 144 112 136 144 112 136 144 112 136 144 112 136 144 112 129 139 105 129 139 105 129 139 102 129 139 102 129 139 102 129 139 102 129 139 102 129 139 102 129 139 102 129 139 102 129 139 102 129 139 102 185 199 146 129 139 102 129 139 105 129 139 105 129 139 105 129 139 105 185 199 150 185 199 150 185 199 150 129 139 105 129 139 105 129 139 105 129 139 105 129 139 102 129 139 102 185 199 146 129 139 102 129 139 102 185 199 146 122 136 98 185 199 146 185 199 146 122 136 98 122 136 98 116 134 93 116 134 93 166 192 134 116 134 93 166 192 134 116 134 93 116 134 93 166 192 134 175 195 141 175 195 141 175 195 141 116 134 93 166 192 134 116 134 93 116 134 93 116 134 93 116 134 93 166 192 134 166 192 134 166 192 134 166 192 134 166 192 134 166 192 134 166 192 134 175 195 141 175 195 141 185 199 146 185 199 146 185 199 146 185 199 146 185 199 146 185 199 146 185 199 150 185 199 146 185 199 150 185 199 150 129 139 105 185 199 150 185 199 150 129 139 105 129 139 105 129 139 105 129 139 105 129 139 105 129 139 102 185 199 150 185 199 150 129 139 102 129 139 102 185 199 150 185 199 150 129 139 105 129 139 105 129 139 105 129 139 105 129 139 105 185 199 150 185 199 150 129 139 105 129 139 102 122 136 98 122 136 98 116 134 93 116 134 93 107 133 88 107 133 88 100 130 83 100 130 83 108 140 88 108 140 88 123 150 100 123 150 100 123 150 100 151 156 114 151 156 114 151 156 114 170 163 145 170 163 145 170 163 145 170 163 145 170 163 145 154 168 161 170 163 145 170 163 145 170 163 145 243 234 208 154 168 161 154 168 161 154 168 161 154 168 161 154 168 161 154 168 161 145 168 178 145 168 178 130 163 178 130 163 178 208 240 255 130 163 178 130 163 178 130 163 178 130 163 178 121 158 178 121 158 178 186 234 255 130 163 178 130 163 178 130 163 178 186 234 255 186 234 255 121 158 178 121 158 178 121 158 178 186 234 255 186 234 255 186 234 255 186 234 255 130 163 178 186 234 255 186 234 255 186 234 255 186 234 255 130 163 178 130 163 178 186 234 255 145 168 178 208 240 255 145 168 178 145 168 178 145 168 178 208 240 255 208 240 255 130 163 178 130 163 178 130 163 178 130 163 178 121 158 178 121 158 178 121 158 178 121 158 178 186 234 255 186 234 255 186 234 255 130 163 178 130 163 178 130 163 178 130 163 178 130 163 178 145 168 178 145 168 178 145 168 178 154 168 161 221 240 230 221 240 230 221 240 230 243 234 208 243 234 208 216 224 164 216 224 164 176 215 143 176 215 143 176 215 143 155 200 126

237 230 186 237 230 186 237 230 186 237 230 186 168 164 133 165 161 130 168 164 133 240 235 191 240 235 191 240 235 191 168 164 133 168 164 133 240 235 191 163 161 130 163 161 130 234 231 186 234 231 186 224 228 180 234 231 186 234 231 186 234 231 186 234 231 186 224 228 180 234 231 186 234 231 186 163 161 130 224 228 180 224 228 180 234 231 186 224 228 180 224 228 180 234 231 186 224 228 180 156 159 126 156 159 126 150 155 123 215 222 176 150 155 123 215 222 176 215 222 176 205 215 171 143 150 119 143 150 119 136 144 112 136 144 112 136 144 112 205 215 171 136 144 112 143 150 119 143 150 119 205 215 171 143 150 119 205 215 171 136 144 112 136 144 112 129 139 105 136 144 112 129 139 105 129 139 105 129 139 105 129 139 102 129 139 102 129 139 102 185 199 146 185 199 146 185 199 146 185 199 146 185 199 146 129 139 102 129 139 102 185 199 146 185 199 146 185 199 146 185 199 150 185 199 150 185 199 150 129 139 105 185 199 150 195 206 160 195 206 160 195 206 160 185 199 150 129 139 105 129 139 102 129 139 102 129 139 102 185 199 146 129 139 102 129 139 102 185 199 146 185 199 146 185 199 146 185 199 146 122 136 98 122 136 98 175 195 141 175 195 141 116 134 93 116 134 93 166 192 134 166 192 134 166 192 134 166 192 134 175 195 141 175 195 141 175 195 141 122 136 98 166 192 134 166 192 134 166 192 134 116 134 93 166 192 134 166 192 134 166 192 134 116 134 93 166 192 134 166 192 134 166 192 134 175 195 141 175 195 141 185 199 146 185 199 146 185 199 146 185 199 150 185 199 150 185 199 146 185 199 150 185 199 146 185 199 150 185 199 150 185 199 150 185 199 150 129 139 105 129 139 105 129 139 105 129 139 102 129 139 102 129 139 105 129 139 105 129 139 102 185 199 150 129 139 102 185 199 150 185 199 150 185 199 150 185 199 150 185 199 150 185 199 150 129 139 105 185 199 150 185 199 150 185 199 150 185 199 150 129 139 105 129 139 102 129 139 102 175 195 141 122 136 98 107 133 88 107 133 88 100 130 83 100 130 83 108 140 88 108 140 88 123 150 100 123 150 100 123 150 100 123 150 100 151 156 114 151 156 114 216 224 164 151 156 114 170 163 145 170 163 145 170 163 145 154 168 161 154 168 161 154 168 161 154 168 161 154 168 161 243 234 208 154 168 161 154 168 161 154 168 161 154 168 161 154 168 161 154 168 161 145 168 178 145 168 178 130 163 178 130 163 178 186 234 255 130 163 178 186 234 255 186 234 255 130 163 178 121 158 178 121 158 178 121 158 178 121 158 178 121 158 178 130 163 178 186 234 255 130 163 178 121 158 178 121 158 178 121 158 178 174 227 255 186 234 255 186 234 255 186 234 255 130 163 178 186 234 255 186 234 255 186 234 255 186 234 255 186 234 255 186 234 255 130 163 178 208 240 255 208 240 255 145 168 178 145 168 178 130 163 178 145 168 178 130 163 178 130 163 178 130 163 178 130 163 178 130 163 178 130 163 178 121 158 178 121 158 178 174 227 255 174 227 255 186 234 255 130 163 178 121 158 178 130 163 178 130 163 178 130 163 178 186 234 255 130 163 178 145 168 178 208 240 255 208 240 255 154 168 161 221 240 230 243 234 208 243 234 208 216 224 164 216 224 164 176 215 143 176 215 143 176 215 143 176 215 143 155 200 126

237 230 186 237 230 186 237 230 186 165 161 130 237 230 186 237 230 186 237 230 186 240 235 191 240 235 191 240 235 191 168 164 133 168 164 133 163 161 130 163 161 130 163 161 130 234 231 186 156 159 126 234 231 186 224 228 180 234 231 186 234 231 186 234 231 186 234 231 186 234 231 186 163 161 130 163 161 130 234 231 186 234 231 186 234 231 186 156 159 126 156 159 126 224 228 180 156 159 126 156 159 126 150 155 123 150 155 123 150 155 123 150 155 123 143 150 119 150 155 123 143 150 119 143 150 119 205 215 171 136 144 112 136 144 112 136 144 112 136 144 112 136 144 112 136 144 112 136 144 112 136 144 112 136 144 112 136 144 112 136 144 112 129 139 105 129 139 105 129 139 105 129 139 105 129 139 105 129 139 105 129 139 102 129 139 102 129 139 102 185 199 146 185 199 146 185 199 146 129 139 102 129 139 102 185 199 146 185 199 146 129 139 102 185 199 146 185 199 146 185 199 150 185 199 150 185 199 150 185 199 150 195 206 160 195 206 160 195 206 160 195 206 160 136 144 112 129 139 105 129 139 105 185 199 150 185 199 146 129 139 102 129 139 102 185 199 146 185 199 146 185 199 146 185 199 146 129 139 102 129 139 102 122 136 98 175 195 141 175 195 141 175 195 141 166 192 134 166 192 134 166 192 134 166 192 134 166 192 134 175 195 141 175 195 141 122 136 98 122 136 98 175 195 141 116 134 93 166 192 134 166 192 134 166 192 134 116 134 93 116 134 93 166 192 134 166 192 134 175 195 141 175 195 141 175 195 141 185 199 146 185 199 146 129 139 102 185 199 146 185 199 146 185 199 150 185 199 150 185 199 150 185 199 150 185 199 150 185 199 150 185 199 150 185 199 150 129 139 102 185 199 150 129 139 102 129 139 102 129 139 102 129 139 102 129 139 102 129 139 102 185 199 150 129 139 102 185 199 150 129 139 105 185 199 150 185 199 150 185 199 150 129 139 105 185 199 150 185 199 150 195 206 160 185 199 150 129 139 105 129 139 105 129 139 102 129 139 102 122 136 98 116 134 93 116 134 93 107 133 88 100 130 83 100 130 83 108 140 88 108 140 88 108 140 88 176 215 143 123 150 100 151 156 114 151 156 114 151 156 114 216 224 164 170 163 145 170 163 145 154 168 161 154 168 161 154 168 161 154 168 161 154 168 161 154 168 161 154 168 161 154 168 161 154 168 161 154 168 161 154 168 161 154 168 161 145 168 178 145 168 178 145 168 178 145 168 178 130 163 178 130 163 178 130 163 178 130 163 178 130 163 178 121 158 178 121 158 178 121 158 178 121 158 178 174 227 255 174 227 255 174 227 255 174 227 255 121 158 178 130 163 178 121 158 178 174 227 255 174 227 255 174 227 255 186 234 255 130 163 178 186 234 255 121 158 178 121 158 178 130 163 178 130 163 178 186 234 255 130 163 178 130 163 178 130 163 178 186 234 255 130 163 178 130 163 178 130 163 178 130 163 178 130 163 178 130 163 178 130 163 178 130 163 178 121 158 178 130 163 178 121 158 178 121 158 178 174 227 255 174 227 255 121 158 178 121 158 178 121 158 178 121 158 178 121 158 178 121 158 178 121 158 178 121 158 178 130 163 178 186 234 255 208 240 255 208 240 255 221 240 230 221 240 230 243 234 208 243 234 208 216 224 164 216 224 164 216 224 164 123 150 100 176 215 143 123 150 100 123 150 100

237 230 186 237 230 186 232 225 178 237 230 186 232 225 178 237 230 186 237 230 186 237 230 186 237 230 186 240 235 191 237 230 186 168 164 133 168 164 133 163 161 130 163 161 130 163 161 130 234 231 186 234 231 186 234 231 186 234 231 186 234 231 186 234 231 186 234 231 186 234 231 186 240 235 191 234 231 186 234 231 186 234 231 186 156 159 126 156 159 126 224 228 180 224 228 180 156 159 126 150 155 123 150 155 123 150 155 123 143 150 119 215 222 176 150 155 123 143 150 119 143 150 119 143 150 119 143 150 119 136 144 112 136 144 112 129 139 105 129 139 105 129 139 105 136 144 112 129 139 105 129 139 105 129 139 105 129 139 105 129 139 105 129 139 105 129 139 105 129 139 105 129 139 105 129 139 102 129 139 102 129 139 102 129 139 102 129 139 102 129 139 102 122 136 98 129 139 102 185 199 146 185 199 146 185 199 146 185 199 146 185 199 150 185 199 150 185 199 150 185 199 150 185 199 150 185 199 150 195 206 160 195 206 160 195 206 160 195 206 160 195 206 160 136 144 112 129 139 105 185 199 150 185 199 150 129 139 102 185 199 146 185 199 150 185 199 150 185 199 146 185 199 150 185 199 146 129 139 102 129 139 102 129 139 102 122 136 98 175 195 141 122 136 98 122 136 98 166 192 134 116 134 93 166 192 134 175 195 141 166 192 134 116 134 93 122 136 98 175 195 141 116 134 93 175 195 141 175 195 141 175 195 141 175 195 141 166 192 134 166 192 134 166 192 134 166 192 134 175 195 141 175 195 141 185 199 146 185 199 146 185 199 146 185 199 146 185 199 150 185 199 150 185 199 150 129 139 105 129 139 105 129 139 102 129 139 102 129 139 102 185 199 150 185 199 150 129 139 105 185 199 150 185 199 150 185 199 146 129 139 102 185 199 146 185 199 150 185 199 146 129 139 102 129 139 102 185 199 146 129 139 102 185 199 150 129 139 105 129 139 105 185 199 150 185 199 150 185 199 150 185 199 150 129 139 105 129 139 105 129 139 105 129 139 102 122 136 98 122 136 98 116 134 93 116 134 93 107 133 88 100 130 83 100 130 83 100 130 83 108 140 88 155 200 126 123 150 100 123 150 100 151 156 114 216 224 164 151 156 114 216 224 164 170 163 145 170 163 145 154 168 161 154 168 161 154 168 161 154 168 161 154 168 161 145 168 178 145 168 178 221 240 230 145 168 178 145 168 178 145 168 178 145 168 178 145 168 178 145 168 178 145 168 178 130 163 178 130 163 178 130 163 178 130 163 178 121 158 178 121 158 178 121 158 178 121 158 178 174 227 255 121 158 178 174 227 255 174 227 255 121 158 178 174 227 255 174 227 255 174 227 255 121 158 178 174 227 255 174 227 255 174 227 255 186 234 255 186 234 255 186 234 255 130 163 178 121 158 178 174 227 255 121 158 178 121 158 178 130 163 178 186 234 255 130 163 178 186 234 255 186 234 255 130 163 178 130 163 178 130 163 178 121 158 178 121 158 178 121 158 178 186 234 255 130 163 178 174 227 255 121 158 178 121 158 178 121 158 178 121 158 178 121 158 178 116 156 172 174 227 255 121 158 178 121 158 178 121 158 178 174 227 255 174 227 255 186 234 255 186 234 255 208 240 255 208 240 255 221 240 230 221 240 230 221 240 230 243 234 208 216 224 164 216 224 164 151 156 114 216 224 164 176 215 143 176 215 143 176 215 143

232 225 178 232 225 178 232 225 178 232 225 178 165 161 130 165 161 130 237 230 186 237 230 186 168 164 133 168 164 133 168 164 133 168 164 133 240 235 191 163 161 130 163 161 130 163 161 130 234 231 186 234 231 186 234 231 186 234 231 186 234 231 186 234 231 186 234 231 186 234 231 186 234 231 186 163 161 130 234 231 186 163 161 130 234 231 186 224 228 180 224 228 180 156 159 126 156 159 126 156 159 126 150 155 123 150 155 123 143 150 119 205 215 171 143 150 119 143 150 119 136 144 112 143 150 119 136 144 112 136 144 112 129 139 105 129 139 105 129 139 105 129 139 105 129 139 105 129 139 105 129 139 105 129 139 105 129 139 105 185 199 150 129 139 105 129 139 105 129 139 102 129 139 102 129 139 102 129 139 102 129 139 102 129 139 102 129 139 102 129 139 102 122 136 98 185 199 146 185 199 146 129 139 102 185 199 146 185 199 150 185 199 150 185 199 150 185 199 150 185 199 150 185 199 150 195 206 160 195 206 160 195 206 160 195 206 160 195 206 160 195 206 160 136 144 112 129 139 105 129 139 105 185 199 150 129 139 105 185 199 150 185 199 150 129 139 102 185 199 150 185 199 150 129 139 102 129 139 102 129 139 102 122 136 98 122 136 98 175 195 141 122 136 98 175 195 141 175 195 141 166 192 134 175 195 141 175 195 141 122 136 98 166 192 134 116 134 93 116 134 93 122 136 98 175 195 141 175 195 141 122 136 98 122 136 98 116 134 93 166 192 134 166 192 134 166 192 134 175 195 141 175 195 141 185 199 146 185 199 146 185 199 150 185 199 150 185 199 150 185 199 150 185 199 150 185 199 150 185 199 150 185 199 150 185 199 150 185 199 150 185 199 150 185 199 150 129 139 105 185 199 150 185 199 150 129 139 102 129 139 102 185 199 146 129 139 102 129 139 102 129 139 102 185 199 146 185 199 146 185 199 146 185 199 150 185 199 150 185 199 150 185 199 150 195 206 160 185 199 150 129 139 105 185 199 150 129 139 105 129 139 105 129 139 102 185 199 146 185 199 146 122 136 98 107 133 88 107 133 88 100 130 83 154 190 126 100 130 83 108 140 88 108 140 88 123 150 100 123 150 100 123 150 100 151 156 114 151 156 114 170 163 145 170 163 145 154 168 161 154 168 161 221 240 230 154 168 161 145 168 178 145 168 178 145 168 178 145 168 178 145 168 178 145 168 178 130 163 178 145 168 178 145 168 178 145 168 178 130 163 178 130 163 178 121 158 178 130 163 178 130 163 178 121 158 178 121 158 178 121 158 178 121 158 178 121 158 178 121 158 178 116 156 172 116 156 172 121 158 178 121 158 178 174 227 255 121 158 178 174 227 255 174 227 255 121 158 178 174 227 255 174 227 255 121 158 178 186 234 255 130 163 178 121 158 178 121 158 178 121 158 178 121 158 178 174 227 255 186 234 255 186 234 255 130 163 178 121 158 178 121 158 178 121 158 178 121 158 178 121 158 178 116 156 172 116 156 172 121 158 178 121 158 178 121 158 178 121 158 178 121 158 178 121 158 178 121 158 178 116 156 172 116 156 172 116 156 172 116 156 172 116 156 172 116 156 172 116 156 172 116 156 172 121 158 178 186 234 255 186 234 255 208 240 255 208 240 255 145 168 178 221 240 230 243 234 208 243 234 208 243 234 208 151 156 114 151 156 114 216 224 164 151 156 114 151 156 114 176 215 143

232 225 178 232 225 178 165 161 130 165 161 130 232 225 178 165 161 130 165 161 130 165 161 130 165 161 130 240 235 191 168 164 133 240 235 191 240 235 191 168 164 133 163 161 130 234 231 186 234 231 186 234 231 186 234 231 186 234 231 186 234 231 186 163 161 130 240 235 191 163 161 130 234 231 186 234 231 186 234 231 186 163 161 130 234 231 186 156 159 126 156 159 126 156 159 126 224 228 180 150 155 123 150 155 123 150 155 123 143 150 119 205 215 171 205 215 171 143 150 119 136 144 112 136 144 112 136 144 112 136 144 112 195 206 160 129 139 105 129 139 105 129 139 105 129 139 102 129 139 102 129 139 105 129 139 102 185 199 150 185 199 150 129 139 105 129 139 102 129 139 102 129 139 102 185 199 146 185 199 146 185 199 146 129 139 102 122 136 98 122 136 98 122 136 98 175 195 141 185 199 146 185 199 146 185 199 146 185 199 150 185 199 150 185 199 150 195 206 160 195 206 160 195 206 160 195 206 160 205 215 171 195 206 160 136 144 112 195 206 160 205 215 171 136 144 112 129 139 105 129 139 105 185 199 150 129 139 105 185 199 150 129 139 102 185 199 150 185 199 146 185 199 150 129 139 102 185 199 146 129 139 102 122 136 98 122 136 98 175 195 141 122 136 98 175 195 141 175 195 141 175 195 141 175 195 141 116 134 93 116 134 93 116 134 93 116 134 93 166 192 134 175 195 141 175 195 141 175 195 141 175 195 141 116 134 93 116 134 93 166 192 134 175 195 141 166 192 134 175 195 141 175 195 141 185 199 146 185 199 150 195 206 160 185 199 150 185 199 150 185 199 150 185 199 150 185 199 150 185 199 150 129 139 105 185 199 150 185 199 150 185 199 150 185 199 150 185 199 150 185 199 150 129 139 105 129 139 102 185 199 146 185 199 146 185 199 146 185 199 146 129 139 102 185 199 146 185 199 146 185 199 146 185 199 150 129 139 105 129 139 105 185 199 150 195 206 160 129 139 105 129 139 105 185 199 150 195 206 160 185 199 150 185 199 150 129 139 102 129 139 102 122 136 98 116 134 93 107 133 88 154 190 126 143 187 119 100 130 83 143 187 119 143 187 119 108 140 88 123 150 100 151 156 114 151 156 114 170 163 145 170 163 145 170 163 145 154 168 161 221 240 230 154 168 161 154 168 161 145 168 178 145 168 178 145 168 178 145 168 178 130 163 178 130 163 178 130 163 178 130 163 178 208 240 255 130 163 178 130 163 178 130 163 178 121 158 178 174 227 255 121 158 178 121 158 178 121 158 178 121 158 178 174 227 255 174 227 255 116 156 172 116 156 172 116 156 172 116 156 172 116 156 172 174 227 255 174 227 255 174 227 255 121 158 178 121 158 178 121 158 178 174 227 255 174 227 255 174 227 255 121 158 178 121 158 178 121 158 178 174 227 255 174 227 255 174 227 255 186 234 255 121 158 178 121 158 178 121 158 178 121 158 178 121 158 178 116 156 172 116 156 172 116 156 172 116 156 172 166 224 247 121 158 178 174 227 255 121 158 178 174 227 255 121 158 178 121 158 178 116 156 172 174 227 255 116 156 172 116 156 172 116 156 172 116 156 172 166 224 247 166 224 247 174 227 255 174 227 255 186 234 255 186 234 255 130 163 178 208 240 255 221 240 230 243 234 208 154 168 161 170 163 145 170 163 145 216 224 164 151 156 114 170 163 145 151 156 114 176 215 143

232 225 178 162 157 124 232 225 178 232 225 178 237 230 186 162 157 124 237 230 186 237 230 186 237 230 186 237 230 186 168 164 133 168 164 133 168 164 133 168 164 133 240 235 191 234 231 186 240 235 191 234 231 186 163 161 130 234 231 186 234 231 186 234 231 186 240 235 191 240 235 191 163 161 130 163 161 130 163 161 130 163 161 130 163 161 130 163 161 130 156 159 126 224 228 180 224 228 180 156 159 126 215 222 176 150 155 123 143 150 119 143 150 119 143 150 119 143 150 119 136 144 112 136 144 112 129 139 105 195 206 160 129 139 105 129 139 105 129 139 105 185 199 150 129 139 102 185 199 146 185 199 146 129 139 102 185 199 150 129 139 105 129 139 102 129 139 102 129 139 102 122 136 98 185 199 146 185 199 146 129 139 102 129 139 102 122 136 98 122 136 98 175 195 141 175 195 141 185 199 146 129 139 102 185 199 146 185 199 150 185 199 150 129 139 105 195 206 160 195 206 160 195 206 160 195 206 160 195 206 160 136 144 112 136 144 112 195 206 160 195 206 160 136 144 112 129 139 105 129 139 105 129 139 105 185 199 150 185 199 150 129 139 102 129 139 102 129 139 102 129 139 102 129 139 102 122 136 98 122 136 98 122 136 98 122 136 98 175 195 141 175 195 141 175 195 141 122 136 98 122 136 98 122 136 98 116 134 93 175 195 141 166 192 134 116 134 93 166 192 134 175 195 141 175 195 141 175 195 141 122 136 98 116 134 93 166 192 134 175 195 141 175 195 141 175 195 141 175 195 141 185 199 146 185 199 150 185 199 150 195 206 160 129 139 105 185 199 150 185 199 150 129 139 105 185 199 150 195 206 160 185 199 150 195 206 160 185 199 150 185 199 150 129 139 105 129 139 105 129 139 105 129 139 105 129 139 102 185 199 146 185 199 150 185 199 150 185 199 150 185 199 146 185 199 150 185 199 146 185 199 150 185 199 150 129 139 105 185 199 150 185 199 150 195 206 160 129 139 105 185 199 150 185 199 150 185 199 150 129 139 105 129 139 105 129 139 102 129 139 102 122 136 98 116 134 93 107 133 88 154 190 126 154 190 126 100 130 83 100 130 83 108 140 88 108 140 88 123 150 100 151 156 114 151 156 114 170 163 145 170 163 145 154 168 161 154 168 161 154 168 161 154 168 161 145 168 178 145 168 178 145 168 178 130 163 178 130 163 178 130 163 178 130 163 178 130 163 178 130 163 178 130 163 178 130 163 178 121 158 178 121 158 178 121 158 178 121 158 178 121 158 178 121 158 178 174 227 255 174 227 255 121 158 178 116 156 172 116 156 172 116 156 172 116 156 172 166 224 247 174 227 255 174 227 255 174 227 255 121 158 178 121 158 178 174 227 255 174 227 255 174 227 255 174 227 255 121 158 178 121 158 178 121 158 178 121 158 178 174 227 255 174 227 255 174 227 255 174 227 255 121 158 178 121 158 178 116 156 172 116 156 172 116 156 172 116 156 172 166 224 247 166 224 247 166 224 247 166 224 247 174 227 255 116 156 172 116 156 172 121 158 178 121 158 178 116 156 172 116 156 172 166 224 247 116 156 172 111 154 168 116 156 172 166 224 247 166 224 247 166 224 247 174 227 255 174 227 255 121 158 178 121 158 178 130 163 178 208 240 255 208 240 255 221 240 230 154 168 161 221 240 230 243 234 208 243 234 208 170 163 145 170 163 145 243 234 208 216 224 164

232 225 178 232 225 178 232 225 178 232 225 178 232 225 178 232 225 178 165 161 130 237 230 186 237 230 186 237 230 186 168 164 133 240 235 191 240 235 191 240 235 191 240 235 191 240 235 191 240 235 191 163 161 130 240 235 191 240 235 191 234 231 186 240 235 191 240 235 191 163 161 130 163 161 130 234 231 186 234 231 186 163 161 130 234 231 186 234 231 186 234 231 186 224 228 180 234 231 186 224 228 180 150 155 123 150 155 123 143 150 119 143 150 119 143 150 119 205 215 171 136 144 112 195 206 160 136 144 112 195 206 160 195 206 160 129 139 105 185 199 150 129 139 102 129 139 102 185 199 146 185 199 146 129 139 102 185 199 146 129 139 102 129 139 102 129 139 102 129 139 102 129 139 102 185 199 146 185 199 146 129 139 102 185 199 146 129 139 102 175 195 141 175 195 141 175 195 141 175 195 141 185 199 146 185 199 146 185 199 150 185 199 150 185 199 150 185 199 150 195 206 160 195 206 160 136 144 112 136 144 112 195 206 160 195 206 160 195 206 160 136 144 112 136 144 112 129 139 105 185 199 150 185 199 150 129 139 105 129 139 105 129 139 102 129 139 102 122 136 98 122 136 98 122 136 98 122 136 98 175 195 141 122 136 98 122 136 98 175 195 141 175 195 141 122 136 98 122 136 98 116 134 93 116 134 93 116 134 93 175 195 141 175 195 141 166 192 134 166 192 134 175 195 141 175 195 141 116 134 93 116 134 93 175 195 141 175 195 141 175 195 141 175 195 141 175 195 141 185 199 146 185 199 146 185 199 150 185 199 150 195 206 160 129 139 105 185 199 150 129 139 105 185 199 150 185 199 150 195 206 160 129 139 105 195 206 160 195 206 160 195 206 160 185 199 150 185 199 150 185 199 150 185 199 150 185 199 150 185 199 150 185 199 146 185 199 150 129 139 102 185 199 150 185 199 150 185 199 150 185 199 150 185 199 150 129 139 105 185 199 150 195 206 160 195 206 160 195 206 160 185 199 150 195 206 160 185 199 150 129 139 105 129 139 105 129 139 102 129 139 102 122 136 98 116 134 93 166 192 134 107 133 88 154 190 126 107 133 88 100 130 83 108 140 88 108 140 88 123 150 100 123 150 100 151 156 114 170 163 145 170 163 145 154 168 161 154 168 161 145 168 178 145 168 178 145 168 178 145 168 178 130 163 178 130 163 178 186 234 255 130 163 178 130 163 178 186 234 255 121 158 178 121 158 178 121 158 178 121 158 178 121 158 178 121 158 178 174 227 255 174 227 255 121 158 178 174 227 255 116 156 172 116 156 172 116 156 172 116 156 172 116 156 172 166 224 247 166 224 247 174 227 255 174 227 255 174 227 255 174 227 255 174 227 255 174 227 255 121 158 178 121 158 178 174 227 255 121 158 178 121 158 178 174 227 255 121 158 178 174 227 255 174 227 255 121 158 178 121 158 178 116 156 172 116 156 172 116 156 172 166 224 247 166 224 247 174 227 255 166 224 247 166 224 247 116 156 172 166 224 247 166 224 247 116 156 172 116 156 172 116 156 172 116 156 172 116 156 172 116 156 172 116 156 172 111 154 168 111 154 168 166 224 247 116 156 172 166 224 247 166 224 247 166 224 247 174 227 255 174 227 255 121 158 178 186 234 255 130 163 178 208 240 255 145 168 178 145 168 178 154 168 161 154 168 161 243 234 208 154 168 161 243 234 208 170 163 145 216 224 164

232 225 178 162 157 124 232 225 178 232 225 178 232 225 178 232 225 178 165 161 130 237 230 186 237 230 186 165 161 130 168 164 133 237 230 186 168 164 133 240 235 191 168 164 133 240 235 191 168 164 133 168 164 133 240 235 191 240 235 191 163 161 130 240 235 191 163 161 130 168 164 133 234 231 186 240 235 191 163 161 130 163 161 130 234 231 186 234 231 186 234 231 186 234 231 186 234 231 186 234 231 186 156 159 126 150 155 123 150 155 123 143 150 119 136 144 112 205 215 171 136 144 112 195 206 160 129 139 105 195 206 160 136 144 112 129 139 105 129 139 102 129 139 102 129 139 102 185 199 146 129 139 102 129 139 102 185 199 146 129 139 102 129 139 102 129 139 102 185 199 146 185 199 146 185 199 146 122 136 98 185 199 146 129 139 102 129 139 102 122 136 98 175 195 141 175 195 141 122 136 98 185 199 146 185 199 150 185 199 150 195 206 160 185 199 150 195 206 160 195 206 160 195 206 160 195 206 160 195 206 160 195 206 160 136 144 112 136 144 112 136 144 112 195 206 160 129 139 105 129 139 105 185 199 150 129 139 105 129 139 102 129 139 102 122 136 98 122 136 98 122 136 98 122 136 98 122 136 98 122 136 98 116 134 93 122 136 98 116 134 93 116 134 93 116 134 93 116 134 93 116 134 93 166 192 134 166 192 134 175 195 141 116 134 93 122 136 98 166 192 134 175 195 141 116 134 93 116 134 93 166 192 134 175 195 141 175 195 141 175 195 141 175 195 141 185 199 146 185 199 150 185 199 150 195 206 160 195 206 160 195 206 160 129 139 105 129 139 105 185 199 150 185 199 150 195 206 160 195 206 160 195 206 160 195 206 160 195 206 160 195 206 160 195 206 160 185 199 150 185 199 150 129 139 105 185 199 150 129 139 105 185 199 150 185 199 150 129 139 105 185 199 150 185 199 150 185 199 150 185 199 150 185 199 150 185 199 150 185 199 150 185 199 150 195 206 160 136 144 112 129 139 105 195 206 160 129 139 105 129 139 105 129 139 105 129 139 102 122 136 98 122 136 98 175 195 141 116 134 93 107 133 88 107 133 88 107 133 88 100 130 83 108 140 88 108 140 88 123 150 100 151 156 114 151 156 114 170 163 145 243 234 208 243 234 208 154 168 161 145 168 178 145 168 178 208 240 255 145 168 178 130 163 178 130 163 178 130 163 178 121 158 178 121 158 178 121 158 178 121 158 178 121 158 178 121 158 178 121 158 178 174 227 255 121 158 178 174 227 255 174 227 255 121 158 178 116 156 172 116 156 172 116 156 172 116 156 172 111 154 168 166 224 247 166 224 247 166 224 247 174 227 255 174 227 255 174 227 255 174 227 255 121 158 178 121 158 178 121 158 178 174 227 255 174 227 255 121 158 178 174 227 255 174 227 255 174 227 255 174 227 255 121 158 178 121 158 178 116 156 172 116 156 172 116 156 172 166 224 247 166 224 247 174 227 255 166 224 247 116 156 172 116 156 172 166 224 247 116 156 172 116 156 172 116 156 172 116 156 172 116 156 172 116 156 172 166 224 247 166 224 247 166 224 247 111 154 168 159 221 240 159 221 240 166 224 247 166 224 247 166 224 247 116 156 172 116 156 172 116 156 172 121 158 178 174 227 255 121 158 178 130 163 178 130 163 178 145 168 178 208 240 255 221 240 230 221 240 230 154 168 161 221 240 230 243 234 208 243 234 208

232 225 178 232 225 178 232 225 178 228 229 164 228 229 164 232 225 178 232 225 178 232 225 178 232 225 178 165 161 130 237 230 186 237 230 186 237 230 186 237 230 186 237 230 186 237 230 186 237 230 186 240 235 191 240 235 191 240 235 191 240 235 191 234 231 186 240 235 191 240 235 191 240 235 191 240 235 191 240 235 191 234 231 186 234 231 186 240 235 191 240 235 191 240 235 191 234 231 186 234 231 186 156 159 126 224 228 180 215 222 176 143 150 119 143 150 119 205 215 171 205 215 171 136 144 112 136 144 112 185 199 150 195 206 160 129 139 105 129 139 102 129 139 102 129 139 102 185 199 146 129 139 102 185 199 146 185 199 146 129 139 102 185 199 146 185 199 146 185 199 146 185 199 146 122 136 98 185 199 146 185 199 146 129 139 102 129 139 102 122 136 98 122 136 98 122 136 98 122 136 98 185 199 146 185 199 150 185 199 150 195 206 160 129 139 105 195 206 160 195 206 160 195 206 160 195 206 160 195 206 160 136 144 112 136 144 112 195 206 160 195 206 160 136 144 112 136 144 112 185 199 150 185 199 150 129 139 105 129 139 102 129 139 102 122 136 98 122 136 98 175 195 141 122 136 98 122 136 98 116 134 93 116 134 93 116 134 93 116 134 93 116 134 93 116 134 93 166 192 134 166 192 134 116 134 93 166 192 134 166 192 134 175 195 141 175 195 141 116 134 93 175 195 141 175 195 141 175 195 141 175 195 141 166 192 134 175 195 141 122 136 98 175 195 141 185 199 146 185 199 150 185 199 150 195 206 160 195 206 160 195 206 160 195 206 160 185 199 150 185 199 150 185 199 150 195 206 160 195 206 160 195 206 160 205 215 171 205 215 171 205 215 171 195 206 160 195 206 160 195 206 160 195 206 160 185 199 150 185 199 150 185 199 150 185 199 150 185 199 150 185 199 150 185 199 150 185 199 150 129 139 105 129 139 105 185 199 150 185 199 150 185 199 150 195 206 160 195 206 160 195 206 160 195 206 160 195 206 160 195 206 160 129 139 105 129 139 105 129 139 102 122 136 98 122 136 98 116 134 93 107 133 88 107 133 88 100 130 83 100 130 83 143 187 119 155 200 126 108 140 88 123 150 100 151 156 114 151 156 114 243 234 208 170 163 145 154 168 161 145 168 178 145 168 178 145 168 178 208 240 255 145 168 178 130 163 178 186 234 255 130 163 178 121 158 178 121 158 178 121 158 178 121 158 178 174 227 255 121 158 178 174 227 255 174 227 255 121 158 178 121 158 178 121 158 178 174 227 255 116 156 172 116 156 172 111 154 168 166 224 247 166 224 247 166 224 247 166 224 247 174 227 255 174 227 255 186 234 255 174 227 255 186 234 255 174 227 255 174 227 255 174 227 255 174 227 255 174 227 255 174 227 255 121 158 178 174 227 255 174 227 255 116 156 172 116 156 172 116 156 172 166 224 247 166 224 247 116 156 172 116 156 172 116 156 172 174 227 255 166 224 247 166 224 247 166 224 247 116 156 172 116 156 172 111 154 168 116 156 172 116 156 172 116 156 172 166 224 247 116 156 172 116 156 172 116 156 172 166 224 247 166 224 247 166 224 247 166 224 247 166 224 247 116 156 172 166 224 247 116 156 172 116 156 172 116 156 172 116 156 172 174 227 255 186 234 255 130 163 178 130 163 178 208 240 255 221 240 230 221 240 230 221 240 230 154 168 161 243 234 208

228 229 164 232 225 178 232 225 178 228 229 164 228 229 164 162 157 124 162 157 124 232 225 178 232 225 178 165 161 130 237 230 186 237 230 186 237 230 186 237 230 186 237 230 186 237 230 186 237 230 186 237 230 186 168 164 133 168 164 133 240 235 191 168 164 133 163 161 130 163 161 130 163 161 130 163 161 130 168 164 133 163 161 130 234 231 186 240 235 191 163 161 130 240 235 191 163 161 130 163 161 130 156 159 126 156 159 126 150 155 123 143 150 119 143 150 119 136 144 112 136 144 112 136 144 112 129 139 105 129 139 105 129 139 105 129 139 102 129 139 102 129 139 102 129 139 102 185 199 146 122 136 98 129 139 102 129 139 102 129 139 102 129 139 102 185 199 146 129 139 102 185 199 146 129 139 102 185 199 146 122 136 98 129 139 102 122 136 98 122 136 98 175 195 141 175 195 141 122 136 98 185 199 146 185 199 146 185 199 150 129 139 105 129 139 105 195 206 160 136 144 112 195 206 160 195 206 160 195 206 160 136 144 112 195 206 160 195 206 160 136 144 112 136 144 112 195 206 160 129 139 105 129 139 105 129 139 102 129 139 102 129 139 102 122 136 98 122 136 98 116 134 93 116 134 93 122 136 98 116 134 93 116 134 93 116 134 93 116 134 93 166 192 134 116 134 93 166 192 134 166 192 134 116 134 93 166 192 134 175 195 141 175 195 141 116 134 93 175 195 141 175 195 141 116 134 93 116 134 93 175 195 141 175 195 141 175 195 141 175 195 141 185 199 146 185 199 146 185 199 146 185 199 150 185 199 150 195 206 160 136 144 112 136 144 112 195 206 160 195 206 160 195 206 160 195 206 160 195 206 160 195 206 160 195 206 160 136 144 112 205 215 171 205 215 171 136 144 112 136 144 112 195 206 160 136 144 112 185 199 150 185 199 150 129 139 105 129 139 105 185 199 150 185 199 150 129 139 105 129 139 105 129 139 102 185 199 150 185 199 150 195 206 160 195 206 160 136 144 112 136 144 112 195 206 160 129 139 105 129 139 105 129 139 105 129 139 105 129 139 102 122 136 98 122 136 98 122 136 98 116 134 93 154 190 126 107 133 88 154 190 126 100 130 83 108 140 88 108 140 88 123 150 100 151 156 114 151 156 114 216 224 164 170 163 145 154 168 161 154 168 161 221 240 230 208 240 255 208 240 255 145 168 178 130 163 178 130 163 178 121 158 178 121 158 178 121 158 178 116 156 172 174 227 255 174 227 255 116 156 172 116 156 172 116 156 172 116 156 172 116 156 172 116 156 172 174 227 255 116 156 172 166 224 247 166 224 247 166 224 247 166 224 247 166 224 247 174 227 255 174 227 255 174 227 255 174 227 255 186 234 255 186 234 255 121 158 178 186 234 255 186 234 255 174 227 255 174 227 255 121 158 178 174 227 255 121 158 178 121 158 178 116 156 172 116 156 172 166 224 247 166 224 247 166 224 247 166 224 247 166 224 247 166 224 247 166 224 247 116 156 172 116 156 172 116 156 172 116 156 172 111 154 168 111 154 168 159 221 240 111 154 168 111 154 168 111 154 168 111 154 168 111 154 168 111 154 168 111 154 168 111 154 168 111 154 168 111 154 168 111 154 168 111 154 168 111 154 168 111 154 168 116 156 172 166 224 247 116 156 172 166 224 247 121 158 178 121 158 178 186 234 255 208 240 255 208 240 255 154 168 161 154 168 161 154 168 161 221 240 230

228 229 164 228 229 164 228 229 164 228 229 164 228 229 164 162 157 124 162 157 124 162 157 124 162 157 124 232 225 178 232 225 178 237 230 186 237 230 186 165 161 130 237 230 186 165 161 130 165 161 130 168 164 133 168 164 133 240 235 191 240 235 191 240 235 191 240 235 191 234 231 186 163 161 130 234 231 186 240 235 191 240 235 191 240 235 191 240 235 191 240 235 191 240 235 191 240 235 191 163 161 130 163 161 130 150 155 123 150 155 123 150 155 123 143 150 119 136 144 112 136 144 112 136 144 112 129 139 105 185 199 150 129 139 105 129 139 102 129 139 102 129 139 102 129 139 102 185 199 146 129 139 102 185 199 146 122 136 98 185 199 146 129 139 102 129 139 102 129 139 102 122 136 98 129 139 102 185 199 146 122 136 98 122 136 98 122 136 98 122 136 98 175 195 141 175 195 141 175 195 141 185 199 146 185 199 150 185 199 150 185 199 150 185 199 150 185 199 150 129 139 105 195 206 160 136 144 112 195 206 160 136 144 112 195 206 160 195 206 160 195 206 160 195 206 160 195 206 160 129 139 105 129 139 102 129 139 102 129 139 102 122 136 98 122 136 98 122 136 98 175 195 141 166 192 134 175 195 141 116 134 93 116 134 93 107 133 88 107 133 88 166 192 134 166 192 134 166 192 134 166 192 134 116 134 93 166 192 134 166 192 134 116 134 93 175 195 141 175 195 141 175 195 141 116 134 93 175 195 141 175 195 141 175 195 141 175 195 141 175 195 141 185 199 146 185 199 146 185 199 146 185 199 150 195 206 160 195 206 160 195 206 160 195 206 160 205 215 171 205 215 171 205 215 171 205 215 171 205 215 171 205 215 171 205 215 171 195 206 160 205 215 171 136 144 112 136 144 112 195 206 160 136 144 112 129 139 105 129 139 105 195 206 160 185 199 150 185 199 150 185 199 150 185 199 150 185 199 150 185 199 150 185 199 150 185 199 150 185 199 150 195 206 160 195 206 160 195 206 160 136 144 112 195 206 160 129 139 105 129 139 105 129 139 105 129 139 102 129 139 102 185 199 146 185 199 146 122 136 98 116 134 93 166 192 134 154 190 126 154 190 126 100 130 83 108 140 88 155 200 126 108 140 88 176 215 143 216 224 164 151 156 114 170 163 145 170 163 145 154 168 161 221 240 230 145 168 178 130 163 178 145 168 178 130 163 178 121 158 178 121 158 178 121 158 178 174 227 255 174 227 255 116 156 172 116 156 172 116 156 172 166 224 247 116 156 172 116 156 172 116 156 172 166 224 247 166 224 247 116 156 172 166 224 247 116 156 172 166 224 247 166 224 247 174 227 255 174 227 255 174 227 255 174 227 255 186 234 255 186 234 255 186 234 255 186 234 255 186 234 255 130 163 178 121 158 178 174 227 255 121 158 178 174 227 255 121 158 178 174 227 255 116 156 172 166 224 247 174 227 255 166 224 247 166 224 247 166 224 247 116 156 172 166 224 247 166 224 247 116 156 172 116 156 172 116 156 172 166 224 247 111 154 168 111 154 168 111 154 168 159 221 240 111 154 168 111 154 168 111 154 168 111 154 168 111 154 168 159 221 240 111 154 168 111 154 168 111 154 168 111 154 168 111 154 168 111 154 168 111 154 168 159 221 240 111 154 168 116 156 172 116 156 172 174 227 255 174 227 255 186 234 255 186 234 255 145 168 178 145 168 178 145 168 178 145 168 178 145 168 178

228 229 164 159 160 114 159 160 114 159 160 114 228 229 164 228 229 164 228 229 164 228 229 164 232 225 178 232 225 178 232 225 178 232 225 178 232 225 178 237 230 186 237 230 186 237 230 186 237 230 186 165 161 130 240 235 191 240 235 191 240 235 191 168 164 133 163 161 130 163 161 130 163 161 130 163 161 130 240 235 191 240 235 191 168 164 133 240 235 191 240 235 191 240 235 191 240 235 191 163 161 130 156 159 126 156 159 126 150 155 123 150 155 123 143 150 119 143 150 119 136 144 112 136 144 112 129 139 105 129 139 105 129 139 102 129 139 102 129 139 102 129 139 102 122 136 98 122 136 98 122 136 98 122 136 98 122 136 98 175 195 141 122 136 98 129 139 102 185 199 146 122 136 98 122 136 98 122 136 98 122 136 98 122 136 98 175 195 141 122 136 98 175 195 141 175 195 141 175 195 141 185 199 146 185 199 146 185 199 150 185 199 150 185 199 150 129 139 105 185 199 150 195 206 160 195 206 160 129 139 105 136 144 112 136 144 112 195 206 160 195 206 160 136 144 112 129 139 105 129 139 105 129 139 102 129 139 102 129 139 102 122 136 98 122 136 98 175 195 141 175 195 141 175 195 141 166 192 134 116 134 93 107 133 88 107 133 88 107 133 88 107 133 88 107 133 88 107 133 88 166 192 134 166 192 134 166 192 134 166 192 134 166 192 134 175 195 141 175 195 141 175 195 141 175 195 141 175 195 141 175 195 141 175 195 141 175 195 141 185 199 146 185 199 146 185 199 146 185 199 146 185 199 150 185 199 150 195 206 160 195 206 160 205 215 171 205 215 171 205 215 171 205 215 171 205 215 171 205 215 171 205 215 171 205 215 171 205 215 171 205 215 171 205 215 171 205 215 171 136 144 112 136 144 112 129 139 105 185 199 150 195 206 160 195 206 160 185 199 150 195 206 160 195 206 160 185 199 150 185 199 150 185 199 150 185 199 150 185 199 150 195 206 160 195 206 160 195 206 160 136 144 112 195 206 160 129 139 105 129 139 105 129 139 102 129 139 102 129 139 102 185 199 146 122 136 98 122 136 98 116 134 93 116 134 93 107 133 88 107 133 88 100 130 83 100 130 83 108 140 88 108 140 88 123 150 100 151 156 114 170 163 145 170 163 145 170 163 145 154 168 161 145 168 178 145 168 178 130 163 178 130 163 178 130 163 178 121 158 178 121 158 178 121 158 178 121 158 178 121 158 178 116 156 172 166 224 247 166 224 247 116 156 172 116 156 172 116 156 172 166 224 247 166 224 247 116 156 172 116 156 172 116 156 172 166 224 247 166 224 247 174 227 255 174 227 255 174 227 255 174 227 255 174 227 255 186 234 255 121 158 178 121 158 178 130 163 178 186 234 255 130 163 178 186 234 255 174 227 255 186 234 255 174 227 255 121 158 178 116 156 172 116 156 172 174 227 255 174 227 255 116 156 172 174 227 255 166 224 247 116 156 172 166 224 247 166 224 247 116 156 172 166 224 247 116 156 172 116 156 172 111 154 168 111 154 168 111 154 168 159 221 240 111 154 168 105 149 167 105 149 167 105 149 167 105 149 167 159 221 240 105 149 167 105 149 167 105 149 167 105 149 167 105 149 167 105 149 167 105 149 167 159 221 240 111 154 168 111 154 168 111 154 168 166 224 247 121 158 178 121 158 178 121 158 178 130 163 178 130 163 178 145 168 178 145 168 178 145 168 178

222 214 149 228 229 164 228 229 164 228 229 164 228 229 164 228 229 164 228 229 164 228 229 164 228 229 164 232 225 178 228 229 164 232 225 178 232 225 178 232 225 178 165 161 130 237 230 186 237 230 186 165 161 130 168 164 133 168 164 133 168 164 133 168 164 133 163 161 130 163 161 130 163 161 130 234 231 186 234 231 186 163 161 130 240 235 191 240 235 191 237 230 186 240 235 191 237 230 186 168 164 133 163 161 130 156 159 126 150 155 123 150 155 123 143 150 119 143 150 119 143 150 119 129 139 105 129 139 105 129 139 105 129 139 102 129 139 102 122 136 98 122 136 98 122 136 98 122 136 98 175 195 141 122 136 98 175 195 141 175 195 141 175 195 141 175 195 141 122 136 98 122 136 98 175 195 141 122 136 98 122 136 98 122 136 98 175 195 141 122 136 98 175 195 141 185 199 146 185 199 146 185 199 146 185 199 146 185 199 150 185 199 150 129 139 105 185 199 150 185 199 150 195 206 160 129 139 105 129 139 105 129 139 105 136 144 112 195 206 160 205 215 171 136 144 112 129 139 105 129 139 102 129 139 105 185 199 146 185 199 146 122 136 98 122 136 98 116 134 93 122 136 98 116 134 93 116 134 93 116 134 93 107 133 88 107 133 88 107 133 88 154 190 126 154 190 126 166 192 134 166 192 134 166 192 134 166 192 134 175 195 141 175 195 141 175 195 141 185 199 146 175 195 141 175 195 141 175 195 141 185 199 146 175 195 141 185 199 146 185 199 146 185 199 146 185 199 150 185 199 150 185 199 150 195 206 160 195 206 160 195 206 160 205 215 171 205 215 171 205 215 171 215 222 176 205 215 171 215 222 176 215 222 176 215 222 176 215 222 176 205 215 171 205 215 171 136 144 112 136 144 112 136 144 112 195 206 160 185 199 150 195 206 160 195 206 160 129 139 105 195 206 160 195 206 160 195 206 160 195 206 160 195 206 160 185 199 150 195 206 160 195 206 160 195 206 160 136 144 112 195 206 160 195 206 160 195 206 160 129 139 105 129 139 105 185 199 146 185 199 150 185 199 146 129 139 102 122 136 98 175 195 141 116 134 93 116 134 93 107 133 88 154 190 126 143 187 119 108 140 88 108 140 88 123 150 100 151 156 114 151 156 114 170 163 145 170 163 145 154 168 161 145 168 178 145 168 178 130 163 178 130 163 178 130 163 178 121 158 178 121 158 178 121 158 178 174 227 255 121 158 178 174 227 255 174 227 255 166 224 247 116 156 172 111 154 168 116 156 172 166 224 247 111 154 168 111 154 168 111 154 168 116 156 172 166 224 247 174 227 255 174 227 255 121 158 178 174 227 255 186 234 255 174 227 255 174 227 255 186 234 255 186 234 255 186 234 255 186 234 255 186 234 255 208 240 255 186 234 255 186 234 255 121 158 178 121 158 178 116 156 172 174 227 255 166 224 247 116 156 172 116 156 172 166 224 247 116 156 172 116 156 172 116 156 172 116 156 172 116 156 172 166 224 247 116 156 172 116 156 172 111 154 168 166 224 247 159 221 240 105 149 167 105 149 167 105 149 167 105 149 167 105 149 167 105 149 167 151 214 239 105 149 167 105 149 167 105 149 167 105 149 167 151 214 239 151 214 239 151 214 239 105 149 167 159 221 240 111 154 168 159 221 240 111 154 168 166 224 247 116 156 172 174 227 255 186 234 255 186 234 255 130 163 178 130 163 178 208 240 255

222 214 149 159 160 114 159 160 114 159 160 114 228 229 164 228 229 164 228 229 164 159 160 114 162 157 124 159 160 114 162 157 124 162 157 124 162 157 124 162 157 124 165 161 130 165 161 130 237 230 186 165 161 130 168 164 133 168 164 133 168 164 133 240 235 191 163 161 130 163 161 130 234 231 186 234 231 186 234 231 186 234 231 186 240 235 191 168 164 133 240 235 191 168 164 133 168 164 133 163 161 130 163 161 130 156 159 126 150 155 123 150 155 123 143 150 119 143 150 119 136 144 112 136 144 112 185 199 150 185 199 150 129 139 102 129 139 102 129 139 102 122 136 98 122 136 98 175 195 141 175 195 141 175 195 141 175 195 141 122 136 98 122 136 98 122 136 98 122 136 98 122 136 98 116 134 93 116 134 93 122 136 98 116 134 93 116 134 93 122 136 98 175 195 141 175 195 141 122 136 98 185 199 146 185 199 146 129 139 102 185 199 150 129 139 105 185 199 150 185 199 150 129 139 105 129 139 105 129 139 105 185 199 150 195 206 160 195 206 160 136 144 112 129 139 105 129 139 105 129 139 102 129 139 102 129 139 102 129 139 102 122 136 98 122 136 98 175 195 141 175 195 141 116 134 93 116 134 93 116 134 93 107 133 88 154 190 126 154 190 126 154 190 126 166 192 134 166 192 134 166 192 134 166 192 134 175 195 141 175 195 141 175 195 141 185 199 146 185 199 146 185 199 146 185 199 146 185 199 146 185 199 146 185 199 146 185 199 146 185 199 146 185 199 150 185 199 150 185 199 150 195 206 160 195 206 160 205 215 171 205 215 171 205 215 171 215 222 176 215 222 176 215 222 176 215 222 176 215 222 176 215 222 176 215 222 176 215 222 176 215 222 176 205 215 171 143 150 119 195 206 160 195 206 160 195 206 160 195 206 160 195 206 160 195 206 160 136 144 112 195 206 160 136 144 112 195 206 160 195 206 160 195 206 160 195 206 160 195 206 160 195 206 160 136 144 112 136 144 112 136 144 112 136 144 112 129 139 105 129 139 105 129 139 105 129 139 102 129 139 102 129 139 102 122 136 98 122 136 98 116 134 93 116 134 93 107 133 88 107 133 88 100 130 83 100 130 83 108 140 88 108 140 88 123 150 100 123 150 100 151 156 114 170 163 145 170 163 145 154 168 161 145 168 178 145 168 178 130 163 178 130 163 178 121 158 178 121 158 178 121 158 178 121 158 178 174 227 255 174 227 255 174 227 255 174 227 255 116 156 172 116 156 172 166 224 247 166 224 247 166 224 247 111 154 168 166 224 247 166 224 247 166 224 247 166 224 247 174 227 255 121 158 178 174 227 255 174 227 255 186 234 255 186 234 255 186 234 255 186 234 255 130 163 178 186 234 255 186 234 255 130 163 178 186 234 255 130 163 178 130 163 178 121 158 178 116 156 172 116 156 172 116 156 172 116 156 172 116 156 172 116 156 172 116 156 172 116 156 172 116 156 172 116 156 172 166 224 247 166 224 247 166 224 247 111 154 168 111 154 168 111 154 168 105 149 167 105 149 167 105 149 167 105 149 167 105 149 167 105 149 167 105 149 167 151 214 239 105 149 167 105 149 167 105 149 167 100 142 166 100 142 166 151 214 239 151 214 239 151 214 239 159 221 240 159 221 240 105 149 167 159 221 240 159 221 240 159 221 240 166 224 247 174 227 255 174 227 255 186 234 255 130 163 178 186 234 255 186 234 255

228 229 164 159 160 114 159 160 114 228 229 164 228 229 164 159 160 114 228 229 164 159 160 114 162 157 124 232 225 178 162 157 124 232 225 178 232 225 178 162 157 124 162 157 124 165 161 130 165 161 130 165 161 130 168 164 133 240 235 191 240 235 191 240 235 191 163 161 130 163 161 130 163 161 130 234 231 186 240 235 191 163 161 130 234 231 186 240 235 191 240 235 191 163 161 130 163 161 130 163 161 130 163 161 130 156 159 126 150 155 123 150 155 123 143 150 119 143 150 119 136 144 112 136 144 112 136 144 112 129 139 105 129 139 102 185 199 146 185 199 146 122 136 98 175 195 141 175 195 141 175 195 141 122 136 98 116 134 93 116 134 93 122 136 98 175 195 141 175 195 141 122 136 98 116 134 93 116 134 93 116 134 93 116 134 93 166 192 134 175 195 141 175 195 141 175 195 141 185 199 146 185 199 146 129 139 102 185 199 146 185 199 146 129 139 105 185 199 150 185 199 150 185 199 150 185 199 150 185 199 150 185 199 150 195 206 160 129 139 105 129 139 105 129 139 105 129 139 105 129 139 105 185 199 146 185 199 146 185 199 146 122 136 98 122 136 98 175 195 141 175 195 141 116 134 93 116 134 93 116 134 93 166 192 134 166 192 134 166 192 134 166 192 134 166 192 134 166 192 134 175 195 141 175 195 141 175 195 141 175 195 141 185 199 146 185 199 146 185 199 146 185 199 146 185 199 150 185 199 146 185 199 146 185 199 146 185 199 150 185 199 146 185 199 150 185 199 150 185 199 150 195 206 160 205 215 171 215 222 176 215 222 176 215 222 176 215 222 176 215 222 176 224 228 180 224 228 180 215 222 176 224 228 180 224 228 180 215 222 176 215 222 176 150 155 123 205 215 171 205 215 171 205 215 171 195 206 160 195 206 160 195 206 160 195 206 160 195 206 160 195 206 160 195 206 160 195 206 160 195 206 160 195 206 160 136 144 112 195 206 160 195 206 160 129 139 105 129 139 105 195 206 160 129 139 105 129 139 105 129 139 105 129 139 105 129 139 102 122 136 98 122 136 98 122 136 98 116 134 93 116 134 93 116 134 93 107 133 88 100 130 83 100 130 83 108 140 88 108 140 88 108 140 88 123 150 100 151 156 114 151 156 114 170 163 145 170 163 145 145 168 178 145 168 178 130 163 178 130 163 178 130 163 178 130 163 178 121 158 178 121 158 178 121 158 178 174 227 255 174 227 255 121 158 178 174 227 255 121 158 178 166 224 247 166 224 247 166 224 247 166 224 247 116 156 172 166 224 247 166 224 247 166 224 247 166 224 247 174 227 255 174 227 255 174 227 255 174 227 255 186 234 255 186 234 255 186 234 255 186 234 255 186 234 255 186 234 255 130 163 178 186 234 255 130 163 178 130 163 178 121 158 178 121 158 178 116 156 172 116 156 172 116 156 172 111 154 168 111 154 168 116 156 172 111 154 168 111 154 168 111 154 168 111 154 168 166 224 247 166 224 247 166 224 247 111 154 168 111 154 168 105 149 167 105 149 167 105 149 167 105 149 167 105 149 167 100 142 166 151 214 239 105 149 167 100 142 166 100 142 166 100 142 166 151 214 239 100 142 166 144 204 238 151 214 239 151 214 239 151 214 239 159 221 240 159 221 240 105 149 167 159 221 240 159 221 240 159 221 240 166 224 247 174 227 255 174 227 255 186 234 255 186 234 255 130 163 178 130 163 178

232 225 178 162 157 124 159 160 114 159 160 114 159 160 114 159 160 114 228 229 164 159 160 114 159 160 114 228 229 164 228 229 164 232 225 178 162 157 124 162 157 124 165 161 130 232 225 178 165 161 130 237 230 186 237 230 186 240 235 191 168 164 133 168 164 133 163 161 130 163 161 130 163 161 130 234 231 186 234 231 186 240 235 191 240 235 191 240 235 191 240 235 191 163 161 130 163 161 130 156 159 126 156 159 126 156 159 126 150 155 123 150 155 123 150 155 123 143 150 119 136 144 112 136 144 112 129 139 105 129 139 105 185 199 150 185 199 146 129 139 102 122 136 98 175 195 141 122 136 98 116 134 93 116 134 93 116 134 93 116 134 93 116 134 93 116 134 93 116 134 93 116 134 93 116 134 93 116 134 93 116 134 93 116 134 93 166 192 134 175 195 141 175 195 141 175 195 141 175 195 141 185 199 146 185 199 146 185 199 146 185 199 146 185 199 146 185 199 150 129 139 105 129 139 105 129 139 105 129 139 105 129 139 105 129 139 105 129 139 105 129 139 105 129 139 105 129 139 102 129 139 102 129 139 102 129 139 102 122 136 98 122 136 98 122 136 98 116 134 93 116 134 93 122 136 98 166 192 134 166 192 134 166 192 134 175 195 141 175 195 141 175 195 141 175 195 141 175 195 141 175 195 141 185 199 146 185 199 146 185 199 146 185 199 150 185 199 146 185 199 146 185 199 150 185 199 150 185 199 150 185 199 146 185 199 146 185 199 150 185 199 150 185 199 150 195 206 160 195 206 160 205 215 171 215 222 176 215 222 176 215 222 176 224 228 180 224 228 180 224 228 180 224 228 180 156 159 126 224 228 180 224 228 180 224 228 180 156 159 126 215 222 176 150 155 123 150 155 123 143 150 119 205 215 171 136 144 112 136 144 112 136 144 112 195 206 160 136 144 112 195 206 160 205 215 171 195 206 160 205 215 171 136 144 112 136 144 112 129 139 105 136 144 112 129 139 105 185 199 150 129 139 105 129 139 105 129 139 105 129 139 102 129 139 102 129 139 102 122 136 98 122 136 98 116 134 93 116 134 93 107 133 88 107 133 88 107 133 88 100 130 83 100 130 83 108 140 88 123 150 100 123 150 100 151 156 114 151 156 114 170 163 145 170 163 145 154 168 161 145 168 178 145 168 178 145 168 178 130 163 178 130 163 178 130 163 178 121 158 178 121 158 178 121 158 178 174 227 255 121 158 178 121 158 178 116 156 172 116 156 172 116 156 172 116 156 172 116 156 172 166 224 247 116 156 172 166 224 247 166 224 247 166 224 247 174 227 255 166 224 247 174 227 255 121 158 178 174 227 255 186 234 255 186 234 255 130 163 178 208 240 255 186 234 255 130 163 178 186 234 255 186 234 255 121 158 178 121 158 178 121 158 178 121 158 178 121 158 178 116 156 172 116 156 172 111 154 168 111 154 168 111 154 168 111 154 168 111 154 168 111 154 168 159 221 240 111 154 168 111 154 168 111 154 168 111 154 168 111 154 168 105 149 167 105 149 167 105 149 167 105 149 167 100 142 166 100 142 166 100 142 166 100 142 166 100 142 166 100 142 166 100 142 166 100 142 166 100 142 166 144 204 238 151 214 239 151 214 239 151 214 239 151 214 239 159 221 240 159 221 240 159 221 240 159 221 240 166 224 247 166 224 247 166 224 247 174 227 255 121 158 178 121 158 178 121 158 178 121 158 178

232 225 178 162 157 124 232 225 178 162 157 124 228 229 164 228 229 164 159 160 114 162 157 124 159 160 114 162 157 124 162 157 124 162 157 124 162 157 124 162 157 124 232 225 178 237 230 186 165 161 130 165 161 130 165 161 130 168 164 133 168 164 133 168 164 133 163 161 130 163 161 130 234 231 186 234 231 186 234 231 186 163 161 130 240 235 191 163 161 130 163 161 130 163 161 130 163 161 130 156 159 126 156 159 126 150 155 123 150 155 123 150 155 123 143 150 119 143 150 119 136 144 112 136 144 112 129 139 105 129 139 105 129 139 105 129 139 102 122 136 98 122 136 98 122 136 98 122 136 98 116 134 93 116 134 93 107 133 88 116 134 93 116 134 93 116 134 93 107 133 88 107 133 88 107 133 88 107 133 88 166 192 134 166 192 134 175 195 141 175 195 141 185 199 146 175 195 141 175 195 141 175 195 141 185 199 146 185 199 146 185 199 146 185 199 146 185 199 150 129 139 102 129 139 102 129 139 102 185 199 150 129 139 102 129 139 105 129 139 105 129 139 105 129 139 105 129 139 102 129 139 102 185 199 146 129 139 102 122 136 98 122 136 98 122 136 98 116 134 93 175 195 141 166 192 134 175 195 141 175 195 141 175 195 141 175 195 141 175 195 141 175 195 141 185 199 146 185 199 146 185 199 150 185 199 146 185 199 150 185 199 150 185 199 150 185 199 150 185 199 150 185 199 150 195 206 160 185 199 150 185 199 150 185 199 150 185 199 150 195 206 160 195 206 160 195 206 160 205 215 171 205 215 171 215 222 176 224 228 180 224 228 180 224 228 180 224 228 180 224 228 180 224 228 180 224 228 180 224 228 180 224 228 180 224 228 180 224 228 180 224 228 180 215 222 176 224 228 180 215 222 176 143 150 119 205 215 171 195 206 160 195 206 160 195 206 160 195 206 160 205 215 171 205 215 171 205 215 171 136 144 112 136 144 112 136 144 112 129 139 105 129 139 105 129 139 105 129 139 105 129 139 105 129 139 102 129 139 102 129 139 102 129 139 102 122 136 98 122 136 98 122 136 98 116 134 93 107 133 88 107 133 88 107 133 88 107 133 88 100 130 83 108 140 88 108 140 88 123 150 100 123 150 100 151 156 114 170 163 145 170 163 145 154 168 161 154 168 161 145 168 178 145 168 178 208 240 255 208 240 255 186 234 255 130 163 178 130 163 178 174 227 255 174 227 255 174 227 255 174 227 255 174 227 255 116 156 172 116 156 172 116 156 172 116 156 172 116 156 172 111 154 168 166 224 247 166 224 247 166 224 247 166 224 247 174 227 255 116 156 172 174 227 255 174 227 255 174 227 255 186 234 255 186 234 255 186 234 255 208 240 255 208 240 255 186 234 255 186 234 255 121 158 178 121 158 178 121 158 178 121 158 178 121 158 178 174 227 255 116 156 172 116 156 172 166 224 247 111 154 168 159 221 240 111 154 168 111 154 168 111 154 168 105 149 167 111 154 168 111 154 168 111 154 168 105 149 167 111 154 168 105 149 167 105 149 167 105 149 167 105 149 167 100 142 166 100 142 166 144 204 238 100 142 166 100 142 166 96 138 171 144 204 238 144 204 238 144 204 238 151 214 239 151 214 239 151 214 239 151 214 239 151 214 239 105 149 167 105 149 167 159 221 240 159 221 240 159 221 240 111 154 168 116 156 172 174 227 255 121 158 178 174 227 255 121 158 178 174 227 255

232 225 178 162 157 124 162 157 124 162 157 124 162 157 124 162 157 124 162 157 124 162 157 124 232 225 178 162 157 124 162 157 124 162 157 124 162 157 124 162 157 124 165 161 130 165 161 130 165 161 130 168 164 133 168 164 133 168 164 133 168 164 133 163 161 130 163 161 130 163 161 130 234 231 186 234 231 186 234 231 186 234 231 186 234 231 186 163 161 130 163 161 130 156 159 126 156 159 126 156 159 126 150 155 123 150 155 123 143 150 119 143 150 119 136 144 112 136 144 112 136 144 112 129 139 105 129 139 105 129 139 105 129 139 102 129 139 102 122 136 98 122 136 98 122 136 98 116 134 93 116 134 93 107 133 88 107 133 88 107 133 88 107 133 88 107 133 88 107 133 88 154 190 126 107 133 88 107 133 88 154 190 126 166 192 134 166 192 134 175 195 141 175 195 141 122 136 98 175 195 141 185 199 146 185 199 146 185 199 146 185 199 146 185 199 146 185 199 146 129 139 102 129 139 102 185 199 146 185 199 146 129 139 105 129 139 102 129 139 102 129 139 102 185 199 150 129 139 102 185 199 146 129 139 102 129 139 102 122 136 98 122 136 98 122 136 98 175 195 141 175 195 141 175 195 141 175 195 141 175 195 141 185 199 146 185 199 146 185 199 146 185 199 146 185 199 146 185 199 146 185 199 150 185 199 150 185 199 150 185 199 150 195 206 160 185 199 150 195 206 160 185 199 150 195 206 160 136 144 112 195 206 160 195 206 160 185 199 150 195 206 160 205 215 171 205 215 171 205 215 171 215 222 176 224 228 180 224 228 180 224 228 180 224 228 180 224 228 180 224 228 180 224 228 180 224 228 180 234 231 186 234 231 186 234 231 186 224 228 180 156 159 126 156 159 126 215 222 176 150 155 123 143 150 119 205 215 171 143 150 119 195 206 160 195 206 160 195 206 160 205 215 171 205 215 171 136 144 112 136 144 112 136 144 112 136 144 112 129 139 105 129 139 105 129 139 105 129 139 102 129 139 102 129 139 102 129 139 102 122 136 98 122 136 98 122 136 98 116 134 93 116 134 93 107 133 88 107 133 88 107 133 88 100 130 83 108 140 88 108 140 88 108 140 88 108 140 88 123 150 100 151 156 114 151 156 114 170 163 145 154 168 161 154 168 161 154 168 161 145 168 178 145 168 178 130 163 178 130 163 178 130 163 178 130 163 178 186 234 255 121 158 178 121 158 178 174 227 255 174 227 255 121 158 178 116 156 172 116 156 172 166 224 247 166 224 247 166 224 247 111 154 168 166 224 247 166 224 247 116 156 172 116 156 172 166 224 247 116 156 172 166 224 247 121 158 178 174 227 255 174 227 255 130 163 178 130 163 178 130 163 178 130 163 178 130 163 178 130 163 178 130 163 178 174 227 255 174 227 255 174 227 255 174 227 255 121 158 178 121 158 178 116 156 172 166 224 247 111 154 168 159 221 240 111 154 168 105 149 167 105 149 167 105 149 167 159 221 240 111 154 168 105 149 167 105 149 167 159 221 240 105 149 167 105 149 167 105 149 167 151 214 239 100 142 166 100 142 166 100 142 166 96 138 171 96 138 171 96 138 171 138 198 245 96 138 171 144 204 238 100 142 166 151 214 239 151 214 239 105 149 167 105 149 167 105 149 167 151 214 239 159 221 240 111 154 168 159 221 240 111 154 168 159 221 240 166 224 247 116 156 172 116 156 172 116 156 172 116 156 172

232 225 178 162 157 124 232 225 178 162 157 124 162 157 124 162 157 124 162 157 124 162 157 124 232 225 178 162 157 124 232 225 178 162 157 124 162 157 124 165 161 130 165 161 130 165 161 130 165 161 130 168 164 133 168 164 133 163 161 130 163 161 130 163 161 130 163 161 130 163 161 130 234 231 186 234 231 186 234 231 186 163 161 130 163 161 130 156 159 126 156 159 126 156 159 126 150 155 123 150 155 123 150 155 123 143 150 119 143 150 119 143 150 119 136 144 112 129 139 105 129 139 105 129 139 105 129 139 105 129 139 102 129 139 102 122 136 98 122 136 98 122 136 98 116 134 93 107 133 88 107 133 88 107 133 88 154 190 126 154 190 126 166 192 134 107 133 88 107 133 88 154 190 126 107 133 88 154 190 126 166 192 134 166 192 134 166 192 134 175 195 141 175 195 141 175 195 141 185 199 146 185 199 146 185 199 146 185 199 146 185 199 146 185 199 150 185 199 150 185 199 146 185 199 146 185 199 146 129 139 102 129 139 102 129 139 102 185 199 150 185 199 150 185 199 150 129 139 105 185 199 146 129 139 102 122 136 98 122 136 98 122 136 98 175 195 141 175 195 141 175 195 141 175 195 141 175 195 141 175 195 141 185 199 146 185 199 146 185 199 146 185 199 146 185 199 150 185 199 146 185 199 150 185 199 150 185 199 150 195 206 160 195 206 160 195 206 160 195 206 160 195 206 160 195 206 160 195 206 160 195 206 160 195 206 160 195 206 160 205 215 171 205 215 171 205 215 171 215 222 176 215 222 176 224 228 180 224 228 180 224 228 180 224 228 180 224 228 180 234 231 186 234 231 186 234 231 186 234 231 186 234 231 186 234 231 186 234 231 186 224 228 180 224 228 180 224 228 180 150 155 123 150 155 123 215 222 176 143 150 119 205 215 171 205 215 171 195 206 160 195 206 160 136 144 112 136 144 112 136 144 112 129 139 105 129 139 105 129 139 105 129 139 105 129 139 102 129 139 102 129 139 102 129 139 102 129 139 102 122 136 98 122 136 98 116 134 93 116 134 93 116 134 93 107 133 88 100 130 83 100 130 83 108 140 88 108 140 88 108 140 88 108 140 88 123 150 100 123 150 100 151 156 114 170 163 145 154 168 161 154 168 161 154 168 161 154 168 161 145 168 178 145 168 178 130 163 178 130 163 178 121 158 178 121 158 178 121 158 178 121 158 178 174 227 255 174 227 255 121 158 178 174 227 255 116 156 172 116 156 172 116 156 172 116 156 172 111 154 168 116 156 172 166 224 247 166 224 247 116 156 172 116 156 172 166 224 247 166 224 247 174 227 255 174 227 255 174 227 255 186 234 255 174 227 255 186 234 255 186 234 255 130 163 178 130 163 178 186 234 255 130 163 178 130 163 178 121 158 178 174 227 255 174 227 255 174 227 255 174 227 255 116 156 172 111 154 168 166 224 247 159 221 240 111 154 168 105 149 167 159 221 240 105 149 167 159 221 240 105 149 167 159 221 240 159 221 240 151 214 239 105 149 167 105 149 167 151 214 239 151 214 239 100 142 166 100 142 166 144 204 238 144 204 238 138 198 245 96 138 171 138 198 245 96 138 171 138 198 245 144 204 238 144 204 238 151 214 239 151 214 239 105 149 167 151 214 239 159 221 240 159 221 240 159 221 240 159 221 240 166 224 247 159 221 240 111 154 168 111 154 168 116 156 172 116 156 172 116 156 172

232 225 178 232 225 178 232 225 178 162 157 124 232 225 178 232 225 178 162 157 124 232 225 178 232 225 178 232 225 178 232 225 178 162 157 124 162 157 124 165 161 130 165 161 130 168 164 133 168 164 133 168 164 133 168 164 133 163 161 130 163 161 130 163 161 130 234 231 186 234 231 186 234 231 186 234 231 186 163 161 130 163 161 130 163 161 130 163 161 130 224 228 180 156 159 126 150 155 123 150 155 123 143 150 119 143 150 119 143 150 119 136 144 112 136 144 112 129 139 105 129 139 105 129 139 105 129 139 105 129 139 102 129 139 102 122 136 98 116 134 93 116 134 93 107 133 88 116 134 93 166 192 134 166 192 134 166 192 134 107 133 88 154 190 126 107 133 88 107 133 88 154 190 126 107 133 88 154 190 126 166 192 134 116 134 93 166 192 134 166 192 134 175 195 141 175 195 141 175 195 141 122 136 98 185 199 146 129 139 102 129 139 102 129 139 102 185 199 150 129 139 105 129 139 102 129 139 102 129 139 102 129 139 102 185 199 146 185 199 150 129 139 105 185 199 150 129 139 105 185 199 150 129 139 102 185 199 146 175 195 141 185 199 146 175 195 141 175 195 141 175 195 141 185 199 146 185 199 146 185 199 146 185 199 146 185 199 146 185 199 146 185 199 146 185 199 146 185 199 150 185 199 150 185 199 150 195 206 160 195 206 160 205 215 171 195 206 160 195 206 160 195 206 160 195 206 160 195 206 160 205 215 171 205 215 171 205 215 171 205 215 171 205 215 171 205 215 171 215 222 176 215 222 176 224 228 180 224 228 180 224 228 180 224 228 180 224 228 180 234 231 186 234 231 186 234 231 186 234 231 186 234 231 186 234 231 186 163 161 130 234 231 186 224 228 180 156 159 126 150 155 123 215 222 176 215 222 176 143 150 119 205 215 171 143 150 119 136 144 112 136 144 112 136 144 112 136 144 112 129 139 105 129 139 105 129 139 105 129 139 105 129 139 102 129 139 102 129 139 102 129 139 102 129 139 102 122 136 98 122 136 98 116 134 93 116 134 93 116 134 93 107 133 88 100 130 83 100 130 83 108 140 88 108 140 88 108 140 88 108 140 88 123 150 100 123 150 100 151 156 114 170 163 145 170 163 145 170 163 145 221 240 230 154 168 161 154 168 161 145 168 178 145 168 178 145 168 178 130 163 178 121 158 178 174 227 255 121 158 178 174 227 255 174 227 255 174 227 255 174 227 255 174 227 255 116 156 172 116 156 172 116 156 172 166 224 247 166 224 247 166 224 247 166 224 247 166 224 247 116 156 172 111 154 168 166 224 247 116 156 172 116 156 172 174 227 255 174 227 255 186 234 255 186 234 255 174 227 255 186 234 255 186 234 255 130 163 178 186 234 255 121 158 178 121 158 178 121 158 178 121 158 178 174 227 255 121 158 178 121 158 178 116 156 172 116 156 172 166 224 247 111 154 168 111 154 168 105 149 167 105 149 167 105 149 167 151 214 239 105 149 167 151 214 239 105 149 167 105 149 167 105 149 167 151 214 239 151 214 239 105 149 167 151 214 239 144 204 238 100 142 166 96 138 171 96 138 171 91 135 168 138 198 245 138 198 245 138 198 245 144 204 238 100 142 166 144 204 238 105 149 167 105 149 167 151 214 239 151 214 239 111 154 168 159 221 240 111 154 168 159 221 240 111 154 168 159 221 240 159 221 240 159 221 240 111 154 168 111 154 168

232 225 178 162 157 124 232 225 178 232 225 178 162 157 124 162 157 124 162 157 124 232 225 178 232 225 178 162 157 124 162 157 124 162 157 124 162 157 124 165 161 130 165 161 130 168 164 133 168 164 133 168 164 133 168 164 133 163 161 130 163 161 130 163 161 130 163 161 130 234 231 186 240 235 191 163 161 130 163 161 130 163 161 130 234 231 186 156 159 126 156 159 126 150 155 123 150 155 123 143 150 119 143 150 119 143 150 119 136 144 112 136 144 112 129 139 105 129 139 105 129 139 105 129 139 102 129 139 102 129 139 102 122 136 98 116 134 93 116 134 93 107 133 88 107 133 88 107 133 88 107 133 88 107 133 88 166 192 134 166 192 134 154 190 126 107 133 88 154 190 126 154 190 126 154 190 126 154 190 126 154 190 126 107 133 88 107 133 88 166 192 134 175 195 141 122 136 98 175 195 141 122 136 98 122 136 98 122 136 98 129 139 102 185 199 146 185 199 150 185 199 150 129 139 102 129 139 102 129 139 102 185 199 146 185 199 146 185 199 150 185 199 150 185 199 150 185 199 150 185 199 150 129 139 102 129 139 102 185 199 146 185 199 146 185 199 146 185 199 146 185 199 146 185 199 146 185 199 150 185 199 150 185 199 150 185 199 146 185 199 150 185 199 150 185 199 150 185 199 150 195 206 160 195 206 160 195 206 160 205 215 171 205 215 171 205 215 171 205 215 171 195 206 160 205 215 171 205 215 171 215 222 176 215 222 176 215 222 176 205 215 171 205 215 171 215 222 176 215 222 176 224 228 180 224 228 180 234 231 186 234 231 186 224 228 180 224 228 180 224 228 180 234 231 186 234 231 186 234 231 186 234 231 186 234 231 186 163 161 130 156 159 126 156 159 126 156 159 126 156 159 126 215 222 176 215 222 176 215 222 176 143 150 119 143 150 119 205 215 171 136 144 112 136 144 112 136 144 112 129 139 105 129 139 105 129 139 105 129 139 105 129 139 102 129 139 102 129 139 102 185 199 146 129 139 102 122 136 98 116 134 93 116 134 93 116 134 93 116 134 93 107 133 88 100 130 83 108 140 88 123 150 100 123 150 100 123 150 100 123 150 100 123 150 100 151 156 114 151 156 114 170 163 145 170 163 145 170 163 145 154 168 161 154 168 161 154 168 161 221 240 230 145 168 178 130 163 178 121 158 178 121 158 178 174 227 255 121 158 178 174 227 255 121 158 178 121 158 178 121 158 178 121 158 178 121 158 178 116 156 172 166 224 247 174 227 255 166 224 247 174 227 255 166 224 247 166 224 247 116 156 172 111 154 168 166 224 247 166 224 247 166 224 247 166 224 247 174 227 255 174 227 255 186 234 255 186 234 255 186 234 255 186 234 255 130 163 178 121 158 178 121 158 178 174 227 255 121 158 178 121 158 178 174 227 255 174 227 255 121 158 178 116 156 172 166 224 247 166 224 247 111 154 168 111 154 168 105 149 167 151 214 239 151 214 239 105 149 167 105 149 167 105 149 167 105 149 167 151 214 239 105 149 167 151 214 239 151 214 239 151 214 239 100 142 166 100 142 166 100 142 166 96 138 171 91 135 168 91 135 168 91 135 168 91 135 168 138 198 245 138 198 245 96 138 171 100 142 166 144 204 238 151 214 239 151 214 239 151 214 239 105 149 167 159 221 240 111 154 168 111 154 168 111 154 168 111 154 168 105 149 167 105 149 167 105 149 167 111 154 168

232 225 178 162 157 124 232 225 178 232 225 178 232 225 178 232 225 178 232 225 178 232 225 178 162 157 124 162 157 124 162 157 124 232 225 178 232 225 178 232 225 178 165 161 130 168 164 133 240 235 191 240 235 191 240 235 191 240 235 191 234 231 186 234 231 186 234 231 186 234 231 186 163 161 130 163 161 130 234 231 186 163 161 130 234 231 186 156 159 126 150 155 123 150 155 123 150 155 123 143 150 119 143 150 119 136 144 112 136 144 112 136 144 112 136 144 112 129 139 105 129 139 105 129 139 102 129 139 102 122 136 98 122 136 98 116 134 93 116 134 93 166 192 134 166 192 134 154 190 126 107 133 88 107 133 88 154 190 126 166 192 134 107 133 88 107 133 88 154 190 126 107 133 88 107 133 88 107 133 88 154 190 126 107 133 88 107 133 88 166 192 134 116 134 93 116 134 93 175 195 141 122 136 98 122 136 98 122 136 98 185 199 146 185 199 146 129 139 102 129 139 102 129 139 102 185 199 146 185 199 146 185 199 146 185 199 146 185 199 146 129 139 105 129 139 105 129 139 102 129 139 102 129 139 102 185 199 150 185 199 150 129 139 102 185 199 150 185 199 150 185 199 150 185 199 150 185 199 150 185 199 150 185 199 150 129 139 105 185 199 150 185 199 150 185 199 150 195 206 160 195 206 160 205 215 171 205 215 171 205 215 171 205 215 171 215 222 176 205 215 171 205 215 171 205 215 171 205 215 171 215 222 176 215 222 176 215 222 176 215 222 176 215 222 176 215 222 176 224 228 180 224 228 180 224 228 180 234 231 186 234 231 186 156 159 126 224 228 180 224 228 180 234 231 186 163 161 130 156 159 126 234 231 186 234 231 186 156 159 126 156 159 126 224 228 180 224 228 180 156 159 126 224 228 180 215 222 176 215 222 176 150 155 123 143 150 119 143 150 119 136 144 112 195 206 160 195 206 160 129 139 105 129 139 105 185 199 150 129 139 105 129 139 102 129 139 102 129 139 102 129 139 102 122 136 98 116 134 93 116 134 93 107 133 88 107 133 88 107 133 88 100 130 83 100 130 83 108 140 88 123 150 100 123 150 100 123 150 100 123 150 100 123 150 100 151 156 114 170 163 145 170 163 145 243 234 208 154 168 161 154 168 161 154 168 161 154 168 161 145 168 178 145 168 178 130 163 178 121 158 178 186 234 255 121 158 178 174 227 255 186 234 255 174 227 255 174 227 255 121 158 178 116 156 172 174 227 255 116 156 172 166 224 247 174 227 255 174 227 255 174 227 255 116 156 172 166 224 247 116 156 172 166 224 247 166 224 247 111 154 168 166 224 247 166 224 247 174 227 255 174 227 255 121 158 178 121 158 178 121 158 178 121 158 178 121 158 178 121 158 178 121 158 178 121 158 178 121 158 178 121 158 178 121 158 178 121 158 178 121 158 178 116 156 172 166 224 247 111 154 168 111 154 168 111 154 168 105 149 167 105 149 167 105 149 167 105 149 167 151 214 239 105 149 167 151 214 239 105 149 167 105 149 167 105 149 167 105 149 167 100 142 166 100 142 166 100 142 166 96 138 171 96 138 171 96 138 171 130 194 240 91 135 168 91 135 168 130 194 240 96 138 171 138 198 245 96 138 171 144 204 238 100 142 166 100 142 166 105 149 167 105 149 167 105 149 167 105 149 167 105 149 167 105 149 167 105 149 167 105 149 167 105 149 167 151 214 239 151 214 239

232 225 178 162 157 124 232 225 178 232 225 178 232 225 178 162 157 124 162 157 124 162 157 124 232 225 178 232 225 178 162 157 124 162 157 124 232 225 178 162 157 124 232 225 178 165 161 130 237 230 186 240 235 191 240 235 191 163 161 130 163 161 130 234 231 186 234 231 186 163 161 130 163 161 130 163 161 130 234 231 186 156 159 126 156 159 126 150 155 123 150 155 123 150 155 123 143 150 119 143 150 119 136 144 112 136 144 112 195 206 160 136 144 112 136 144 112 129 139 105 129 139 105 129 139 102 129 139 102 122 136 98 122 136 98 116 134 93 116 134 93 107 133 88 166 192 134 107 133 88 107 133 88 154 190 126 154 190 126 154 190 126 107 133 88 107 133 88 107 133 88 107 133 88 107 133 88 107 133 88 154 190 126 154 190 126 154 190 126 154 190 126 166 192 134 166 192 134 116 134 93 175 195 141 175 195 141 175 195 141 185 199 146 185 199 146 185 199 146 185 199 146 129 139 102 129 139 102 129 139 102 185 199 146 185 199 146 185 199 146 129 139 102 129 139 102 185 199 150 185 199 150 185 199 146 185 199 150 185 199 150 185 199 150 185 199 150 185 199 150 185 199 150 185 199 150 185 199 150 185 199 150 195 206 160 185 199 150 185 199 150 195 206 160 195 206 160 195 206 160 205 215 171 205 215 171 205 215 171 205 215 171 205 215 171 215 222 176 215 222 176 215 222 176 215 222 176 215 222 176 224 228 180 215 222 176 224 228 180 215 222 176 224 228 180 224 228 180 224 228 180 224 228 180 234 231 186 224 228 180 163 161 130 163 161 130 234 231 186 234 231 186 234 231 186 234 231 186 156 159 126 156 159 126 163 161 130 156 159 126 224 228 180 224 228 180 234 231 186 156 159 126 224 228 180 224 228 180 150 155 123 150 155 123 143 150 119 205 215 171 205 215 171 136 144 112 195 206 160 136 144 112 185 199 150 185 199 150 185 199 150 185 199 150 129 139 102 129 139 102 185 199 146 122 136 98 116 134 93 107 133 88 107 133 88 107 133 88 100 130 83 100 130 83 108 140 88 123 150 100 123 150 100 123 150 100 123 150 100 151 156 114 151 156 114 151 156 114 151 156 114 170 163 145 170 163 145 154 168 161 154 168 161 221 240 230 221 240 230 145 168 178 145 168 178 130 163 178 130 163 178 186 234 255 121 158 178 186 234 255 186 234 255 186 234 255 186 234 255 121 158 178 121 158 178 174 227 255 174 227 255 166 224 247 174 227 255 174 227 255 174 227 255 116 156 172 174 227 255 116 156 172 166 224 247 166 224 247 116 156 172 166 224 247 166 224 247 116 156 172 116 156 172 174 227 255 174 227 255 121 158 178 186 234 255 121 158 178 121 158 178 174 227 255 174 227 255 121 158 178 121 158 178 174 227 255 116 156 172 116 156 172 116 156 172 116 156 172 116 156 172 159 221 240 111 154 168 111 154 168 105 149 167 105 149 167 151 214 239 105 149 167 105 149 167 151 214 239 105 149 167 151 214 239 105 149 167 151 214 239 100 142 166 100 142 166 96 138 171 96 138 171 96 138 171 91 135 168 91 135 168 91 135 168 130 194 240 130 194 240 138 198 245 138 198 245 138 198 245 138 198 245 96 138 171 100 142 166 144 204 238 100 142 166 105 149 167 105 149 167 105 149 167 100 142 166 100 142 166 100 142 166 105 149 167 105 149 167 105 149 167

232 225 178 232 225 178 232 225 178 232 225 178 232 225 178 162 157 124 232 225 178 232 225 178 232 225 178 162 157 124 162 157 124 232 225 178 232 225 178 162 157 124 232 225 178 165 161 130 237 230 186 168 164 133 240 235 191 168 164 133 234 231 186 234 231 186 234 231 186 163 161 130 156 159 126 156 159 126 156 159 126 156 159 126 156 159 126 150 155 123 150 155 123 143 150 119 143 150 119 136 144 112 136 144 112 136 144 112 195 206 160 136 144 112 129 139 105 129 139 105 129 139 105 129 139 102 129 139 102 129 139 102 122 136 98 122 136 98 166 192 134 107 133 88 107 133 88 107 133 88 107 133 88 107 133 88 107 133 88 107 133 88 107 133 88 107 133 88 154 190 126 107 133 88 107 133 88 107 133 88 107 133 88 154 190 126 107 133 88 107 133 88 154 190 126 166 192 134 166 192 134 175 195 141 175 195 141 175 195 141 185 199 146 185 199 146 185 199 146 129 139 102 129 139 102 129 139 102 129 139 102 185 199 146 185 199 146 129 139 102 185 199 146 185 199 150 185 199 150 185 199 150 185 199 150 185 199 150 185 199 150 185 199 150 185 199 150 185 199 150 185 199 150 185 199 150 195 206 160 195 206 160 195 206 160 129 139 105 195 206 160 195 206 160 205 215 171 205 215 171 205 215 171 205 215 171 205 215 171 215 222 176 215 222 176 215 222 176 215 222 176 215 222 176 215 222 176 224 228 180 224 228 180 224 228 180 224 228 180 224 228 180 224 228 180 224 228 180 224 228 180 234 231 186 224 228 180 234 231 186 224 228 180 156 159 126 234 231 186 156 159 126 156 159 126 156 159 126 163 161 130 224 228 180 224 228 180 234 231 186 156 159 126 224 228 180 224 228 180 234 231 186 224 228 180 156 159 126 156 159 126 215 222 176 215 222 176 205 215 171 205 215 171 143 150 119 136 144 112 129 139 105 129 139 105 129 139 105 129 139 105 129 139 102 129 139 102 185 199 146 122 136 98 116 134 93 116 134 93 107 133 88 107 133 88 107 133 88 100 130 83 108 140 88 123 150 100 123 150 100 123 150 100 123 150 100 151 156 114 151 156 114 151 156 114 151 156 114 216 224 164 170 163 145 243 234 208 154 168 161 154 168 161 154 168 161 145 168 178 145 168 178 145 168 178 145 168 178 186 234 255 186 234 255 186 234 255 186 234 255 186 234 255 186 234 255 121 158 178 121 158 178 174 227 255 121 158 178 116 156 172 121 158 178 116 156 172 121 158 178 174 227 255 174 227 255 174 227 255 116 156 172 166 224 247 166 224 247 166 224 247 166 224 247 166 224 247 166 224 247 166 224 247 166 224 247 121 158 178 174 227 255 121 158 178 121 158 178 121 158 178 116 156 172 121 158 178 121 158 178 116 156 172 116 156 172 116 156 172 116 156 172 116 156 172 111 154 168 111 154 168 111 154 168 111 154 168 111 154 168 105 149 167 105 149 167 151 214 239 105 149 167 151 214 239 151 214 239 105 149 167 151 214 239 105 149 167 105 149 167 100 142 166 100 142 166 96 138 171 96 138 171 91 135 168 91 135 168 91 135 168 130 194 240 91 135 168 91 135 168 130 194 240 91 135 168 91 135 168 96 138 171 96 138 171 96 138 171 96 138 171 96 138 171 96 138 171 96 138 171 100 142 166 100 142 166 96 138 171 100 142 166 100 142 166 105 149 167 105 149 167

232 225 178 232 225 178 232 225 178 232 225 178 232 225 178 162 157 124 232 225 178 232 225 178 162 157 124 162 157 124 162 157 124 232 225 178 232 225 178 232 225 178 232 225 178 165 161 130 237 230 186 237 230 186 240 235 191 240 235 191 240 235 191 234 231 186 163 161 130 163 161 130 234 231 186 224 228 180 156 159 126 156 159 126 156 159 126 150 155 123 150 155 123 143 150 119 136 144 112 136 144 112 136 144 112 136 144 112 195 206 160 129 139 105 129 139 105 129 139 105 185 199 150 185 199 150 129 139 102 129 139 102 122 136 98 175 195 141 116 134 93 116 134 93 107 133 88 107 133 88 107 133 88 154 190 126 100 130 83 107 133 88 107 133 88 107 133 88 107 133 88 100 130 83 154 190 126 154 190 126 154 190 126 154 190 126 107 133 88 154 190 126 154 190 126 166 192 134 166 192 134 175 195 141 175 195 141 175 195 141 185 199 146 185 199 146 185 199 146 129 139 102 185 199 146 185 199 146 185 199 146 185 199 146 185 199 146 185 199 146 185 199 150 185 199 150 185 199 150 129 139 105 185 199 150 185 199 150 185 199 150 185 199 150 195 206 160 185 199 150 195 206 160 195 206 160 195 206 160 195 206 160 195 206 160 195 206 160 195 206 160 195 206 160 205 215 171 205 215 171 215 222 176 215 222 176 215 222 176 215 222 176 215 222 176 215 222 176 224 228 180 224 228 180 224 228 180 224 228 180 224 228 180 234 231 186 234 231 186 234 231 186 234 231 186 234 231 186 234 231 186 234 231 186 234 231 186 234 231 186 234 231 186 234 231 186 234 231 186 234 231 186 234 231 186 234 231 186 224 228 180 234 231 186 224 228 180 224 228 180 234 231 186 234 231 186 234 231 186 234 231 186 156 159 126 156 159 126 224 228 180 150 155 123 150 155 123 143 150 119 205 215 171 143 150 119 136 144 112 195 206 160 129 139 105 129 139 105 185 199 150 185 199 150 185 199 150 129 139 102 122 136 98 116 134 93 116 134 93 107 133 88 107 133 88 100 130 83 108 140 88 108 140 88 123 150 100 123 150 100 123 150 100 151 156 114 151 156 114 151 156 114 151 156 114 170 163 145 216 224 164 170 163 145 170 163 145 154 168 161 154 168 161 145 168 178 145 168 178 145 168 178 208 240 255 208 240 255 208 240 255 130 163 178 186 234 255 186 234 255 186 234 255 186 234 255 121 158 178 121 158 178 121 158 178 116 156 172 174 227 255 116 156 172 116 156 172 166 224 247 116 156 172 121 158 178 174 227 255 174 227 255 166 224 247 174 227 255 166 224 247 166 224 247 166 224 247 116 156 172 116 156 172 166 224 247 166 224 247 116 156 172 121 158 178 116 156 172 116 156 172 116 156 172 116 156 172 116 156 172 116 156 172 116 156 172 166 224 247 166 224 247 116 156 172 111 154 168 111 154 168 111 154 168 159 221 240 111 154 168 105 149 167 151 214 239 151 214 239 151 214 239 151 214 239 151 214 239 105 149 167 151 214 239 151 214 239 100 142 166 100 142 166 100 142 166 100 142 166 96 138 171 138 198 245 91 135 168 130 194 240 85 133 166 85 133 166 91 135 168 85 133 166 85 133 166 91 135 168 91 135 168 91 135 168 91 135 168 91 135 168 91 135 168 91 135 168 96 138 171 96 138 171 96 138 171 96 138 171 96 138 171 144 204 238 100 142 166 100 142 166

228 229 164 232 225 178 232 225 178 162 157 124 228 229 164 228 229 164 232 225 178 162 157 124 232 225 178 232 225 178 232 225 178 232 225 178 232 225 178 232 225 178 162 157 124 165 161 130 165 161 130 165 161 130 165 161 130 168 164 133 168 164 133 168 164 133 163 161 130 163 161 130 156 159 126 156 159 126 156 159 126 150 155 123 150 155 123 150 155 123 143 150 119 143 150 119 136 144 112 136 144 112 136 144 112 136 144 112 195 206 160 136 144 112 129 139 105 129 139 105 129 139 105 129 139 102 129 139 102 129 139 102 122 136 98 122 136 98 116 134 93 116 134 93 166 192 134 154 190 126 154 190 126 154 190 126 100 130 83 154 190 126 154 190 126 100 130 83 154 190 126 107 133 88 143 187 119 154 190 126 107 133 88 154 190 126 154 190 126 154 190 126 154 190 126 154 190 126 166 192 134 166 192 134 116 134 93 122 136 98 122 136 98 185 199 146 185 199 146 185 199 146 185 199 146 129 139 102 185 199 146 129 139 102 129 139 102 185 199 150 185 199 150 185 199 150 129 139 105 129 139 105 185 199 150 185 199 150 195 206 160 195 206 160 195 206 160 195 206 160 195 206 160 195 206 160 195 206 160 205 215 171 205 215 171 205 215 171 205 215 171 205 215 171 215 222 176 215 222 176 215 222 176 215 222 176 215 222 176 215 222 176 224 228 180 224 228 180 224 228 180 224 228 180 234 231 186 234 231 186 234 231 186 240 235 191 240 235 191 240 235 191 240 235 191 234 231 186 234 231 186 234 231 186 234 231 186 234 231 186 234 231 186 163 161 130 234 231 186 234 231 186 234 231 186 234 231 186 234 231 186 234 231 186 234 231 186 224 228 180 234 231 186 234 231 186 234 231 186 163 161 130 156 159 126 224 228 180 224 228 180 156 159 126 215 222 176 150 155 123 205 215 171 143 150 119 136 144 112 136 144 112 129 139 105 185 199 150 129 139 105 129 139 105 129 139 102 129 139 102 122 136 98 116 134 93 107 133 88 107 133 88 107 133 88 100 130 83 108 140 88 123 150 100 123 150 100 123 150 100 151 156 114 151 156 114 151 156 114 151 156 114 216 224 164 151 156 114 243 234 208 170 163 145 170 163 145 170 163 145 221 240 230 145 168 178 145 168 178 208 240 255 145 168 178 145 168 178 130 163 178 145 168 178 186 234 255 186 234 255 186 234 255 130 163 178 121 158 178 174 227 255 121 158 178 121 158 178 174 227 255 121 158 178 166 224 247 166 224 247 116 156 172 174 227 255 174 227 255 121 158 178 116 156 172 174 227 255 116 156 172 166 224 247 166 224 247 166 224 247 166 224 247 166 224 247 116 156 172 116 156 172 116 156 172 116 156 172 116 156 172 116 156 172 166 224 247 166 224 247 116 156 172 116 156 172 116 156 172 116 156 172 111 154 168 111 154 168 111 154 168 111 154 168 105 149 167 105 149 167 105 149 167 151 214 239 151 214 239 105 149 167 105 149 167 105 149 167 105 149 167 105 149 167 100 142 166 100 142 166 100 142 166 96 138 171 96 138 171 96 138 171 96 138 171 91 135 168 85 133 166 85 133 166 85 133 166 85 133 166 85 133 166 85 133 166 122 190 238 85 133 166 85 133 166 91 135 168 91 135 168 130 194 240 91 135 168 91 135 168 138 198 245 91 135 168 96 138 171 96 138 171 96 138 171 96 138 171 96 138 171

228 229 164 228 229 164 162 157 124 232 225 178 228 229 164 162 157 124 162 157 124 162 157 124 232 225 178 232 225 178 232 225 178 232 225 178 162 157 124 232 225 178 232 225 178 232 225 178 232 225 178 237 230 186 165 161 130 168 164 133 168 164 133 163 161 130 240 235 191 163 161 130 156 159 126 156 159 126 156 159 126 150 155 123 215 222 176 150 155 123 143 150 119 143 150 119 136 144 112 136 144 112 129 139 105 129 139 105 195 206 160 136 144 112 129 139 105 129 139 105 129 139 105 129 139 102 185 199 146 129 139 102 122 136 98 116 134 93 116 134 93 116 134 93 166 192 134 107 133 88 154 190 126 107 133 88 107 133 88 154 190 126 154 190 126 100 130 83 100 130 83 100 130 83 100 130 83 100 130 83 154 190 126 154 190 126 100 130 83 154 190 126 107 133 88 154 190 126 154 190 126 166 192 134 166 192 134 175 195 141 175 195 141 175 195 141 185 199 146 185 199 146 129 139 102 185 199 146 129 139 102 185 199 146 185 199 150 185 199 150 185 199 150 185 199 150 185 199 150 185 199 150 185 199 150 185 199 150 195 206 160 195 206 160 195 206 160 195 206 160 205 215 171 195 206 160 205 215 171 205 215 171 205 215 171 205 215 171 205 215 171 215 222 176 215 222 176 215 222 176 224 228 180 215 222 176 215 222 176 215 222 176 224 228 180 234 231 186 234 231 186 234 231 186 234 231 186 240 235 191 240 235 191 240 235 191 237 230 186 240 235 191 240 235 191 240 235 191 240 235 191 240 235 191 240 235 191 234 231 186 240 235 191 234 231 186 234 231 186 234 231 186 163 161 130 234 231 186 234 231 186 234 231 186 234 231 186 234 231 186 234 231 186 234 231 186 234 231 186 163 161 130 163 161 130 156 159 126 156 159 126 150 155 123 224 228 180 150 155 123 143 150 119 143 150 119 136 144 112 136 144 112 129 139 105 185 199 150 129 139 105 129 139 102 129 139 102 129 139 102 122 136 98 116 134 93 116 134 93 107 133 88 107 133 88 100 130 83 108 140 88 123 150 100 123 150 100 151 156 114 151 156 114 216 224 164 216 224 164 151 156 114 151 156 114 216 224 164 216 224 164 243 234 208 243 234 208 243 234 208 154 168 161 154 168 161 145 168 178 145 168 178 130 163 178 130 163 178 130 163 178 186 234 255 208 240 255 130 163 178 208 240 255 130 163 178 186 234 255 186 234 255 186 234 255 121 158 178 174 227 255 116 156 172 116 156 172 116 156 172 174 227 255 174 227 255 174 227 255 121 158 178 116 156 172 174 227 255 174 227 255 174 227 255 116 156 172 166 224 247 166 224 247 166 224 247 116 156 172 116 156 172 116 156 172 116 156 172 116 156 172 111 154 168 111 154 168 111 154 168 111 154 168 111 154 168 111 154 168 111 154 168 111 154 168 111 154 168 111 154 168 105 149 167 111 154 168 105 149 167 151 214 239 151 214 239 105 149 167 105 149 167 105 149 167 105 149 167 105 149 167 100 142 166 100 142 166 100 142 166 100 142 166 96 138 171 96 138 171 91 135 168 91 135 168 91 135 168 85 133 166 85 133 166 122 190 238 85 133 166 80 128 164 85 133 166 85 133 166 85 133 166 122 190 238 85 133 166 85 133 166 85 133 166 91 135 168 85 133 166 91 135 168 91 135 168 91 135 168 91 135 168 138 198 245 138 198 245 144 204 238

228 229 164 159 160 114 228 229 164 228 229 164 228 229 164 228 229 164 228 229 164 162 157 124 232 225 178 232 225 178 232 225 178 162 157 124 232 225 178 232 225 178 232 225 178 232 225 178 232 225 178 232 225 178 237 230 186 237 230 186 168 164 133 163 161 130 163 161 130 156 159 126 156 159 126 224 228 180 224 228 180 150 155 123 150 155 123 150 155 123 143 150 119 136 144 112 136 144 112 136 144 112 129 139 105 129 139 105 129 139 105 129 139 105 129 139 105 185 199 150 129 139 105 185 199 150 129 139 102 122 136 98 122 136 98 116 134 93 166 192 134 166 192 134 116 134 93 116 134 93 107 133 88 107 133 88 154 190 126 154 190 126 100 130 83 100 130 83 100 130 83 100 130 83 100 130 83 143 187 119 143 187 119 100 130 83 100 130 83 143 187 119 107 133 88 154 190 126 154 190 126 154 190 126 107 133 88 116 134 93 175 195 141 175 195 141 185 199 146 129 139 102 185 199 146 129 139 102 185 199 146 185 199 146 185 199 150 185 199 150 185 199 150 195 206 160 195 206 160 185 199 150 185 199 150 185 199 150 185 199 150 195 206 160 195 206 160 195 206 160 205 215 171 205 215 171 205 215 171 205 215 171 205 215 171 215 222 176 215 222 176 215 222 176 215 222 176 215 222 176 215 222 176 224 228 180 224 228 180 224 228 180 234 231 186 234 231 186 234 231 186 240 235 191 240 235 191 240 235 191 237 230 186 237 230 186 237 230 186 237 230 186 237 230 186 240 235 191 240 235 191 240 235 191 168 164 133 240 235 191 240 235 191 240 235 191 163 161 130 234 231 186 234 231 186 234 231 186 234 231 186 163 161 130 234 231 186 234 231 186 234 231 186 240 235 191 234 231 186 163 161 130 156 159 126 156 159 126 156 159 126 224 228 180 224 228 180 150 155 123 143 150 119 143 150 119 143 150 119 136 144 112 129 139 105 129 139 105 129 139 105 129 139 105 185 199 146 129 139 102 122 136 98 122 136 98 116 134 93 107 133 88 100 130 83 100 130 83 108 140 88 123 150 100 151 156 114 151 156 114 151 156 114 216 224 164 151 156 114 151 156 114 216 224 164 216 224 164 216 224 164 151 156 114 170 163 145 170 163 145 154 168 161 145 168 178 145 168 178 145 168 178 130 163 178 130 163 178 130 163 178 130 163 178 130 163 178 130 163 178 186 234 255 130 163 178 130 163 178 186 234 255 186 234 255 186 234 255 174 227 255 116 156 172 116 156 172 166 224 247 174 227 255 174 227 255 121 158 178 116 156 172 116 156 172 166 224 247 116 156 172 116 156 172 174 227 255 166 224 247 166 224 247 116 156 172 166 224 247 166 224 247 166 224 247 166 224 247 166 224 247 111 154 168 111 154 168 111 154 168 111 154 168 111 154 168 111 154 168 159 221 240 111 154 168 159 221 240 111 154 168 159 221 240 105 149 167 105 149 167 105 149 167 105 149 167 105 149 167 105 149 167 151 214 239 151 214 239 100 142 166 100 142 166 100 142 166 96 138 171 96 138 171 96 138 171 96 138 171 96 138 171 91 135 168 85 133 166 85 133 166 85 133 166 122 190 238 85 133 166 122 190 238 122 190 238 85 133 166 122 190 238 122 190 238 85 133 166 80 128 164 85 133 166 122 190 238 85 133 166 85 133 166 85 133 166 85 133 166 91 135 168 130 194 240 91 135 168 96 138 171

228 229 164 228 229 164 228 229 164 228 229 164 228 229 164 159 160 114 159 160 114 162 157 124 232 225 178 232 225 178 162 157 124 162 157 124 232 225 178 232 225 178 232 225 178 232 225 178 228 229 164 162 157 124 232 225 178 165 161 130 168 164 133 163 161 130 163 161 130 156 159 126 156 159 126 224 228 180 150 155 123 156 159 126 224 228 180 143 150 119 143 150 119 136 144 112 136 144 112 129 139 105 129 139 105 129 139 105 185 199 150 129 139 105 185 199 150 185 199 150 185 199 150 185 199 150 129 139 102 122 136 98 122 136 98 122 136 98 116 134 93 116 134 93 116 134 93 166 192 134 107 133 88 107 133 88 154 190 126 100 130 83 100 130 83 100 130 83 100 130 83 143 187 119 143 187 119 143 187 119 143 187 119 100 130 83 100 130 83 100 130 83 154 190 126 154 190 126 154 190 126 154 190 126 107 133 88 166 192 134 175 195 141 175 195 141 175 195 141 185 199 146 122 136 98 185 199 146 185 199 146 185 199 146 185 199 150 185 199 150 195 206 160 195 206 160 195 206 160 195 206 160 185 199 150 185 199 150 195 206 160 195 206 160 195 206 160 205 215 171 205 215 171 205 215 171 205 215 171 205 215 171 215 222 176 215 222 176 215 222 176 215 222 176 215 222 176 215 222 176 224 228 180 224 228 180 224 228 180 234 231 186 234 231 186 234 231 186 240 235 191 240 235 191 237 230 186 237 230 186 232 225 178 232 225 178 232 225 178 237 230 186 237 230 186 237 230 186 237 230 186 240 235 191 168 164 133 240 235 191 237 230 186 168 164 133 163 161 130 234 231 186 234 231 186 234 231 186 240 235 191 163 161 130 234 231 186 234 231 186 240 235 191 240 235 191 240 235 191 163 161 130 156 159 126 156 159 126 224 228 180 150 155 123 150 155 123 150 155 123 150 155 123 143 150 119 136 144 112 136 144 112 195 206 160 129 139 105 129 139 105 129 139 105 185 199 150 129 139 102 122 136 98 122 136 98 116 134 93 107 133 88 100 130 83 108 140 88 123 150 100 123 150 100 151 156 114 151 156 114 151 156 114 216 224 164 151 156 114 216 224 164 216 224 164 216 224 164 216 224 164 151 156 114 216 224 164 243 234 208 170 163 145 145 168 178 145 168 178 130 163 178 130 163 178 130 163 178 186 234 255 130 163 178 130 163 178 186 234 255 130 163 178 130 163 178 186 234 255 186 234 255 208 240 255 130 163 178 121 158 178 121 158 178 174 227 255 166 224 247 166 224 247 116 156 172 174 227 255 116 156 172 174 227 255 174 227 255 174 227 255 174 227 255 174 227 255 116 156 172 174 227 255 116 156 172 166 224 247 116 156 172 116 156 172 111 154 168 111 154 168 111 154 168 111 154 168 159 221 240 159 221 240 111 154 168 111 154 168 111 154 168 159 221 240 111 154 168 159 221 240 159 221 240 105 149 167 105 149 167 105 149 167 105 149 167 105 149 167 151 214 239 151 214 239 105 149 167 100 142 166 100 142 166 100 142 166 96 138 171 96 138 171 96 138 171 96 138 171 91 135 168 91 135 168 85 133 166 85 133 166 122 190 238 122 190 238 85 133 166 80 128 164 80 128 164 122 190 238 80 128 164 85 133 166 80 128 164 80 128 164 115 184 235 80 128 164 80 128 164 80 128 164 85 133 166 85 133 166 85 133 166 85 133 166 91 135 168 138 198 245

228 229 164 159 160 114 228 229 164 228 229 164 228 229 164 159 160 114 162 157 124 162 157 124 162 157 124 162 157 124 162 157 124 232 225 178 232 225 178 162 157 124 162 157 124 228 229 164 228 229 164 162 157 124 165 161 130 165 161 130 168 164 133 168 164 133 163 161 130 163 161 130 156 159 126 156 159 126 150 155 123 215 222 176 150 155 123 143 150 119 143 150 119 136 144 112 129 139 105 129 139 105 129 139 105 129 139 105 185 199 150 185 199 150 185 199 150 185 199 150 129 139 105 129 139 102 129 139 102 122 136 98 122 136 98 116 134 93 116 134 93 166 192 134 166 192 134 116 134 93 116 134 93 154 190 126 107 133 88 100 130 83 100 130 83 100 130 83 143 187 119 143 187 119 108 140 88 108 140 88 100 130 83 100 130 83 143 187 119 143 187 119 143 187 119 154 190 126 154 190 126 154 190 126 166 192 134 166 192 134 166 192 134 122 136 98 175 195 141 175 195 141 122 136 98 185 199 146 185 199 146 185 199 146 185 199 150 185 199 150 195 206 160 195 206 160 195 206 160 136 144 112 195 206 160 195 206 160 195 206 160 195 206 160 195 206 160 195 206 160 205 215 171 143 150 119 143 150 119 205 215 171 215 222 176 150 155 123 215 222 176 215 222 176 215 222 176 215 222 176 224 228 180 224 228 180 234 231 186 234 231 186 234 231 186 240 235 191 237 230 186 237 230 186 237 230 186 237 230 186 237 230 186 232 225 178 162 157 124 162 157 124 165 161 130 165 161 130 168 164 133 168 164 133 168 164 133 240 235 191 240 235 191 168 164 133 240 235 191 240 235 191 234 231 186 234 231 186 163 161 130 163 161 130 234 231 186 240 235 191 240 235 191 240 235 191 240 235 191 163 161 130 156 159 126 224 228 180 224 228 180 150 155 123 150 155 123 150 155 123 143 150 119 143 150 119 136 144 112 136 144 112 129 139 105 129 139 105 129 139 102 129 139 102 129 139 102 122 136 98 122 136 98 122 136 98 116 134 93 107 133 88 100 130 83 108 140 88 123 150 100 123 150 100 123 150 100 151 156 114 151 156 114 216 224 164 151 156 114 170 163 145 151 156 114 170 163 145 151 156 114 170 163 145 170 163 145 170 163 145 154 168 161 145 168 178 145 168 178 130 163 178 130 163 178 130 163 178 186 234 255 130 163 178 186 234 255 186 234 255 130 163 178 130 163 178 130 163 178 130 163 178 130 163 178 121 158 178 121 158 178 121 158 178 174 227 255 116 156 172 166 224 247 116 156 172 116 156 172 116 156 172 116 156 172 174 227 255 174 227 255 116 156 172 116 156 172 116 156 172 166 224 247 116 156 172 166 224 247 166 224 247 166 224 247 166 224 247 111 154 168 111 154 168 111 154 168 159 221 240 159 221 240 111 154 168 105 149 167 159 221 240 105 149 167 111 154 168 159 221 240 111 154 168 105 149 167 105 149 167 151 214 239 105 149 167 151 214 239 151 214 239 105 149 167 105 149 167 100 142 166 144 204 238 144 204 238 96 138 171 96 138 171 96 138 171 91 135 168 91 135 168 91 135 168 85 133 166 85 133 166 122 190 238 80 128 164 122 190 238 122 190 238 115 184 235 80 128 164 80 128 164 80 128 164 80 128 164 80 128 164 80 128 164 80 128 164 80 128 164 80 128 164 80 128 164 80 128 164 80 128 164 85 133 166 122 190 238 130 194 240

232 225 178 228 229 164 228 229 164 159 160 114 159 160 114 159 160 114 159 160 114 162 157 124 162 157 124 232 225 178 232 225 178 232 225 178 232 225 178 232 225 178 232 225 178 232 225 178 162 157 124 162 157 124 162 157 124 165 161 130 165 161 130 168 164 133 163 161 130 234 231 186 234 231 186 224 228 180 224 228 180 150 155 123 150 155 123 143 150 119 143 150 119 136 144 112 136 144 112 185 199 150 185 199 150 185 199 150 185 199 150 185 199 150 185 199 150 185 199 150 129 139 105 129 139 105 129 139 102 122 136 98 122 136 98 122 136 98 116 134 93 166 192 134 116 134 93 166 192 134 116 134 93 107 133 88 107 133 88 100 130 83 100 130 83 100 130 83 100 130 83 100 130 83 108 140 88 155 200 126 143 187 119 143 187 119 143 187 119 100 130 83 143 187 119 143 187 119 154 190 126 154 190 126 166 192 134 166 192 134 166 192 134 166 192 134 175 195 141 175 195 141 175 195 141 175 195 141 185 199 146 185 199 146 185 199 150 185 199 150 185 199 150 195 206 160 205 215 171 195 206 160 195 206 160 195 206 160 195 206 160 136 144 112 195 206 160 205 215 171 205 215 171 205 215 171 205 215 171 205 215 171 215 222 176 215 222 176 215 222 176 224 228 180 224 228 180 224 228 180 224 228 180 224 228 180 234 231 186 234 231 186 240 235 191 240 235 191 237 230 186 237 230 186 237 230 186 237 230 186 232 225 178 232 225 178 232 225 178 165 161 130 165 161 130 165 161 130 165 161 130 168 164 133 240 235 191 240 235 191 240 235 191 240 235 191 168 164 133 240 235 191 163 161 130 240 235 191 240 235 191 240 235 191 240 235 191 234 231 186 240 235 191 240 235 191 168 164 133 163 161 130 234 231 186 224 228 180 156 159 126 150 155 123 150 155 123 143 150 119 143 150 119 143 150 119 136 144 112 136 144 112 129 139 105 129 139 102 129 139 102 129 139 102 129 139 102 122 136 98 116 134 93 116 134 93 107 133 88 107 133 88 100 130 83 108 140 88 123 150 100 123 150 100 176 215 143 151 156 114 216 224 164 151 156 114 170 163 145 216 224 164 216 224 164 170 163 145 243 234 208 170 163 145 170 163 145 154 168 161 154 168 161 145 168 178 145 168 178 130 163 178 130 163 178 130 163 178 186 234 255 186 234 255 186 234 255 130 163 178 186 234 255 186 234 255 121 158 178 186 234 255 121 158 178 121 158 178 121 158 178 121 158 178 116 156 172 116 156 172 116 156 172 116 156 172 116 156 172 116 156 172 174 227 255 166 224 247 121 158 178 116 156 172 116 156 172 166 224 247 166 224 247 166 224 247 166 224 247 116 156 172 116 156 172 116 156 172 166 224 247 159 221 240 159 221 240 159 221 240 159 221 240 111 154 168 105 149 167 151 214 239 105 149 167 151 214 239 159 221 240 111 154 168 105 149 167 105 149 167 105 149 167 100 142 166 151 214 239 105 149 167 100 142 166 151 214 239 100 142 166 100 142 166 100 142 166 96 138 171 96 138 171 96 138 171 138 198 245 91 135 168 91 135 168 85 133 166 122 190 238 85 133 166 85 133 166 122 190 238 122 190 238 80 128 164 80 128 164 80 128 164 80 128 164 80 128 164 115 184 235 80 128 164 115 184 235 80 128 164 80 128 164 80 128 164 115 184 235 80 128 164 115 184 235 122 190 238 85 133 166

232 225 178 228 229 164 159 160 114 159 160 114 159 160 114 228 229 164 162 157 124 162 157 124 232 225 178 232 225 178 232 225 178 228 229 164 228 229 164 228 229 164 232 225 178 162 157 124 162 157 124 162 157 124 165 161 130 165 161 130 168 164 133 168 164 133 163 161 130 163 161 130 156 159 126 156 159 126 156 159 126 156 159 126 150 155 123 143 150 119 205 215 171 136 144 112 136 144 112 129 139 105 195 206 160 195 206 160 195 206 160 195 206 160 129 139 105 129 139 105 129 139 105 129 139 105 129 139 102 122 136 98 122 136 98 116 134 93 116 134 93 175 195 141 166 192 134 166 192 134 116 134 93 116 134 93 154 190 126 154 190 126 143 187 119 143 187 119 100 130 83 143 187 119 108 140 88 108 140 88 155 200 126 143 187 119 143 187 119 100 130 83 143 187 119 143 187 119 154 190 126 154 190 126 166 192 134 166 192 134 116 134 93 166 192 134 175 195 141 175 195 141 175 195 141 122 136 98 185 199 146 185 199 146 185 199 150 185 199 150 195 206 160 195 206 160 205 215 171 205 215 171 205 215 171 195 206 160 195 206 160 195 206 160 205 215 171 205 215 171 205 215 171 205 215 171 215 222 176 215 222 176 215 222 176 224 228 180 224 228 180 224 228 180 224 228 180 224 228 180 224 228 180 224 228 180 234 231 186 234 231 186 240 235 191 240 235 191 237 230 186 237 230 186 237 230 186 232 225 178 237 230 186 165 161 130 232 225 178 165 161 130 165 161 130 165 161 130 165 161 130 168 164 133 168 164 133 240 235 191 240 235 191 168 164 133 163 161 130 240 235 191 240 235 191 240 235 191 240 235 191 240 235 191 240 235 191 240 235 191 240 235 191 240 235 191 240 235 191 163 161 130 163 161 130 163 161 130 224 228 180 156 159 126 150 155 123 143 150 119 143 150 119 136 144 112 136 144 112 129 139 105 129 139 105 129 139 102 129 139 102 129 139 102 122 136 98 116 134 93 116 134 93 116 134 93 107 133 88 100 130 83 108 140 88 108 140 88 123 150 100 123 150 100 151 156 114 151 156 114 151 156 114 170 163 145 170 163 145 243 234 208 170 163 145 170 163 145 170 163 145 170 163 145 154 168 161 154 168 161 145 168 178 145 168 178 145 168 178 130 163 178 130 163 178 130 163 178 186 234 255 130 163 178 186 234 255 130 163 178 186 234 255 130 163 178 121 158 178 121 158 178 121 158 178 121 158 178 116 156 172 116 156 172 116 156 172 116 156 172 116 156 172 116 156 172 116 156 172 166 224 247 166 224 247 116 156 172 116 156 172 116 156 172 116 156 172 116 156 172 116 156 172 116 156 172 116 156 172 116 156 172 116 156 172 116 156 172 111 154 168 111 154 168 111 154 168 159 221 240 159 221 240 111 154 168 159 221 240 159 221 240 159 221 240 151 214 239 105 149 167 105 149 167 105 149 167 105 149 167 151 214 239 151 214 239 151 214 239 151 214 239 100 142 166 100 142 166 100 142 166 100 142 166 144 204 238 96 138 171 96 138 171 96 138 171 138 198 245 91 135 168 91 135 168 91 135 168 85 133 166 85 133 166 122 190 238 80 128 164 80 128 164 80 128 164 80 128 164 80 128 164 115 184 235 80 128 164 115 184 235 80 128 164 115 184 235 76 126 161 76 126 161 76 126 161 80 128 164 115 184 235 80 128 164 80 128 164 80 128 164

232 225 178 228 229 164 228 229 164 228 229 164 228 229 164 228 229 164 162 157 124 162 157 124 162 157 124 232 225 178 232 225 178 228 229 164 228 229 164 162 157 124 162 157 124 232 225 178 232 225 178 165 161 130 165 161 130 165 161 130 168 164 133 163 161 130 163 161 130 163 161 130 234 231 186 224 228 180 224 228 180 150 155 123 150 155 123 143 150 119 143 150 119 136 144 112 136 144 112 136 144 112 195 206 160 195 206 160 195 206 160 129 139 105 129 139 105 185 199 150 129 139 105 129 139 102 129 139 102 129 139 102 122 136 98 175 195 141 175 195 141 175 195 141 175 195 141 116 134 93 166 192 134 166 192 134 166 192 134 154 190 126 154 190 126 154 190 126 100 130 83 143 187 119 108 140 88 155 200 126 143 187 119 143 187 119 143 187 119 100 130 83 143 187 119 154 190 126 154 190 126 154 190 126 166 192 134 107 133 88 166 192 134 166 192 134 175 195 141 175 195 141 175 195 141 175 195 141 185 199 146 185 199 150 185 199 150 195 206 160 205 215 171 195 206 160 136 144 112 136 144 112 205 215 171 143 150 119 205 215 171 195 206 160 205 215 171 205 215 171 215 222 176 215 222 176 215 222 176 224 228 180 224 228 180 224 228 180 234 231 186 224 228 180 224 228 180 224 228 180 234 231 186 234 231 186 234 231 186 234 231 186 240 235 191 240 235 191 237 230 186 237 230 186 237 230 186 165 161 130 165 161 130 237 230 186 232 225 178 165 161 130 165 161 130 168 164 133 165 161 130 168 164 133 168 164 133 168 164 133 168 164 133 168 164 133 240 235 191 240 235 191 237 230 186 240 235 191 240 235 191 240 235 191 240 235 191 240 235 191 240 235 191 168 164 133 168 164 133 163 161 130 240 235 191 234 231 186 234 231 186 156 159 126 150 155 123 143 150 119 136 144 112 136 144 112 129 139 105 129 139 105 129 139 105 129 139 102 122 136 98 122 136 98 116 134 93 116 134 93 116 134 93 107 133 88 107 133 88 100 130 83 100 130 83 108 140 88 123 150 100 123 150 100 151 156 114 151 156 114 151 156 114 170 163 145 170 163 145 170 163 145 170 163 145 170 163 145 154 168 161 154 168 161 154 168 161 154 168 161 145 168 178 145 168 178 145 168 178 130 163 178 130 163 178 186 234 255 186 234 255 121 158 178 121 158 178 121 158 178 130 163 178 121 158 178 121 158 178 121 158 178 174 227 255 116 156 172 116 156 172 116 156 172 116 156 172 116 156 172 116 156 172 166 224 247 166 224 247 116 156 172 116 156 172 166 224 247 116 156 172 116 156 172 116 156 172 116 156 172 166 224 247 166 224 247 116 156 172 166 224 247 166 224 247 166 224 247 166 224 247 166 224 247 159 221 240 111 154 168 111 154 168 159 221 240 159 221 240 111 154 168 105 149 167 105 149 167 105 149 167 151 214 239 105 149 167 151 214 239 151 214 239 151 214 239 151 214 239 100 142 166 100 142 166 100 142 166 100 142 166 100 142 166 100 142 166 96 138 171 96 138 171 138 198 245 91 135 168 91 135 168 91 135 168 130 194 240 130 194 240 122 190 238 122 190 238 80 128 164 80 128 164 80 128 164 76 126 161 76 126 161 76 126 161 76 126 161 76 126 161 76 126 161 76 126 161 76 126 161 109 180 231 115 184 235 115 184 235 76 126 161 80 128 164 115 184 235 115 184 235

232 225 178 232 225 178 228 229 164 159 160 114 228 229 164 162 157 124 162 157 124 232 225 178 232 225 178 232 225 178 232 225 178 232 225 178 228 229 164 228 229 164 232 225 178 162 157 124 162 157 124 162 157 124 165 161 130 165 161 130 168 164 133 168 164 133 234 231 186 234 231 186 234 231 186 156 159 126 156 159 126 156 159 126 150 155 123 143 150 119 143 150 119 143 150 119 136 144 112 195 206 160 195 206 160 195 206 160 136 144 112 195 206 160 129 139 105 129 139 105 129 139 105 129 139 105 129 139 102 129 139 102 122 136 98 175 195 141 175 195 141 175 195 141 175 195 141 116 134 93 166 192 134 116 134 93 166 192 134 116 134 93 154 190 126 107 133 88 100 130 83 100 130 83 143 187 119 143 187 119 143 187 119 143 187 119 100 130 83 100 130 83 143 187 119 154 190 126 154 190 126 154 190 126 154 190 126 107 133 88 166 192 134 166 192 134 175 195 141 122 136 98 175 195 141 185 199 146 185 199 146 185 199 150 185 199 150 185 199 150 195 206 160 136 144 112 136 144 112 205 215 171 205 215 171 143 150 119 205 215 171 205 215 171 205 215 171 215 222 176 215 222 176 224 228 180 224 228 180 224 228 180 224 228 180 224 228 180 234 231 186 163 161 130 224 228 180 234 231 186 234 231 186 234 231 186 234 231 186 234 231 186 240 235 191 240 235 191 237 230 186 237 230 186 165 161 130 165 161 130 237 230 186 237 230 186 165 161 130 165 161 130 168 164 133 168 164 133 237 230 186 168 164 133 168 164 133 240 235 191 168 164 133 240 235 191 240 235 191 237 230 186 237 230 186 168 164 133 240 235 191 240 235 191 168 164 133 240 235 191 240 235 191 240 235 191 168 164 133 168 164 133 234 231 186 163 161 130 156 159 126 156 159 126 150 155 123 143 150 119 136 144 112 129 139 105 129 139 105 129 139 105 129 139 102 129 139 102 122 136 98 116 134 93 116 134 93 116 134 93 107 133 88 107 133 88 107 133 88 100 130 83 108 140 88 123 150 100 123 150 100 151 156 114 151 156 114 170 163 145 170 163 145 170 163 145 170 163 145 170 163 145 170 163 145 154 168 161 154 168 161 154 168 161 154 168 161 145 168 178 145 168 178 208 240 255 130 163 178 130 163 178 130 163 178 130 163 178 130 163 178 121 158 178 121 158 178 174 227 255 121 158 178 121 158 178 121 158 178 121 158 178 121 158 178 116 156 172 111 154 168 111 154 168 111 154 168 111 154 168 111 154 168 111 154 168 111 154 168 111 154 168 111 154 168 116 156 172 111 154 168 116 156 172 111 154 168 166 224 247 111 154 168 116 156 172 116 156 172 116 156 172 116 156 172 116 156 172 116 156 172 111 154 168 111 154 168 159 221 240 111 154 168 159 221 240 111 154 168 111 154 168 105 149 167 105 149 167 105 149 167 105 149 167 105 149 167 105 149 167 105 149 167 105 149 167 100 142 166 100 142 166 96 138 171 100 142 166 100 142 166 100 142 166 96 138 171 96 138 171 96 138 171 138 198 245 91 135 168 130 194 240 130 194 240 91 135 168 85 133 166 85 133 166 85 133 166 80 128 164 80 128 164 80 128 164 76 126 161 76 126 161 76 126 161 109 180 231 76 126 161 76 126 161 76 126 161 76 126 161 76 126 161 115 184 235 115 184 235 76 126 161 109 180 231 76 126 161 76 126 161

232 225 178 232 225 178 228 229 164 159 160 114 162 157 124 162 157 124 228 229 164 232 225 178 162 157 124 162 157 124 232 225 178 162 157 124 228 229 164 228 229 164 162 157 124 162 157 124 162 157 124 165 161 130 165 161 130 237 230 186 165 161 130 168 164 133 163 161 130 163 161 130 234 231 186 234 231 186 224 228 180 150 155 123 150 155 123 143 150 119 205 215 171 205 215 171 136 144 112 136 144 112 195 206 160 136 144 112 195 206 160 195 206 160 136 144 112 129 139 105 129 139 105 129 139 105 129 139 102 129 139 102 122 136 98 175 195 141 175 195 141 122 136 98 175 195 141 116 134 93 116 134 93 116 134 93 116 134 93 107 133 88 107 133 88 107 133 88 100 130 83 100 130 83 143 187 119 143 187 119 143 187 119 143 187 119 143 187 119 143 187 119 143 187 119 143 187 119 154 190 126 154 190 126 154 190 126 154 190 126 166 192 134 166 192 134 175 195 141 175 195 141 185 199 146 185 199 146 185 199 146 185 199 146 185 199 150 185 199 150 185 199 150 136 144 112 195 206 160 195 206 160 136 144 112 136 144 112 205 215 171 205 215 171 215 222 176 215 222 176 215 222 176 224 228 180 224 228 180 224 228 180 224 228 180 224 228 180 234 231 186 234 231 186 234 231 186 234 231 186 234 231 186 234 231 186 234 231 186 240 235 191 240 235 191 240 235 191 240 235 191 168 164 133 237 230 186 237 230 186 165 161 130 165 161 130 165 161 130 168 164 133 168 164 133 240 235 191 237 230 186 168 164 133 168 164 133 240 235 191 240 235 191 240 235 191 237 230 186 240 235 191 168 164 133 168 164 133 237 230 186 240 235 191 168 164 133 240 235 191 237 230 186 240 235 191 240 235 191 240 235 191 163 161 130 163 161 130 156 159 126 156 159 126 150 155 123 143 150 119 136 144 112 136 144 112 185 199 150 129 139 105 185 199 150 129 139 102 122 136 98 116 134 93 116 134 93 116 134 93 107 133 88 107 133 88 107 133 88 100 130 83 108 140 88 123 150 100 123 150 100 151 156 114 151 156 114 170 163 145 170 163 145 170 163 145 170 163 145 243 234 208 243 234 208 154 168 161 154 168 161 154 168 161 154 168 161 145 168 178 208 240 255 145 168 178 130 163 178 130 163 178 130 163 178 186 234 255 130 163 178 121 158 178 121 158 178 121 158 178 121 158 178 121 158 178 174 227 255 116 156 172 174 227 255 116 156 172 116 156 172 111 154 168 111 154 168 105 149 167 111 154 168 105 149 167 111 154 168 111 154 168 159 221 240 159 221 240 111 154 168 111 154 168 111 154 168 159 221 240 111 154 168 159 221 240 166 224 247 166 224 247 116 156 172 111 154 168 166 224 247 166 224 247 159 221 240 111 154 168 111 154 168 159 221 240 159 221 240 111 154 168 111 154 168 151 214 239 151 214 239 105 149 167 105 149 167 105 149 167 100 142 166 100 142 166 100 142 166 100 142 166 96 138 171 144 204 238 144 204 238 144 204 238 144 204 238 96 138 171 138 198 245 138 198 245 138 198 245 138 198 245 138 198 245 91 135 168 85 133 166 85 133 166 85 133 166 80 128 164 80 128 164 76 126 161 76 126 161 76 126 161 109 180 231 109 180 231 76 126 161 71 122 158 109 180 231 76 126 161 109 180 231 115 184 235 115 184 235 76 126 161 76 126 161 71 122 158 71 122 158

232 225 178 232 225 178 228 229 164 228 229 164 228 229 164 232 225 178 232 225 178 162 157 124 162 157 124 232 225 178 232 225 178 232 225 178 232 225 178 162 157 124 162 157 124 162 157 124 162 157 124 165 161 130 237 230 186 237 230 186 165 161 130 168 164 133 240 235 191 234 231 186 234 231 186 163 161 130 156 159 126 150 155 123 215 222 176 150 155 123 143 150 119 143 150 119 143 150 119 136 144 112 195 206 160 136 144 112 136 144 112 136 144 112 129 139 105 129 139 105 129 139 105 129 139 105 129 139 102 129 139 102 129 139 102 122 136 98 122 136 98 175 195 141 175 195 141 122 136 98 166 192 134 166 192 134 166 192 134 166 192 134 107 133 88 107 133 88 100 130 83 100 130 83 100 130 83 143 187 119 100 130 83 143 187 119 143 187 119 143 187 119 100 130 83 154 190 126 154 190 126 154 190 126 154 190 126 166 192 134 166 192 134 166 192 134 175 195 141 175 195 141 175 195 141 129 139 102 185 199 146 185 199 150 185 199 150 185 199 150 185 199 150 195 206 160 195 206 160 195 206 160 195 206 160 205 215 171 205 215 171 215 222 176 215 222 176 215 222 176 215 222 176 215 222 176 224 228 180 224 228 180 234 231 186 234 231 186 234 231 186 234 231 186 234 231 186 234 231 186 240 235 191 240 235 191 234 231 186 240 235 191 240 235 191 240 235 191 240 235 191 240 235 191 168 164 133 168 164 133 168 164 133 165 161 130 165 161 130 168 164 133 168 164 133 168 164 133 168 164 133 168 164 133 168 164 133 168 164 133 240 235 191 240 235 191 240 235 191 165 161 130 237 230 186 237 230 186 237 230 186 237 230 186 237 230 186 240 235 191 168 164 133 168 164 133 240 235 191 168 164 133 163 161 130 163 161 130 156 159 126 156 159 126 150 155 123 143 150 119 136 144 112 136 144 112 129 139 105 129 139 105 129 139 102 122 136 98 122 136 98 116 134 93 116 134 93 107 133 88 107 133 88 100 130 83 108 140 88 108 140 88 123 150 100 123 150 100 151 156 114 151 156 114 170 163 145 170 163 145 170 163 145 170 163 145 154 168 161 170 163 145 170 163 145 154 168 161 154 168 161 221 240 230 154 168 161 145 168 178 145 168 178 130 163 178 130 163 178 130 163 178 121 158 178 121 158 178 121 158 178 121 158 178 121 158 178 121 158 178 121 158 178 174 227 255 116 156 172 116 156 172 116 156 172 111 154 168 111 154 168 111 154 168 105 149 167 105 149 167 105 149 167 105 149 167 105 149 167 105 149 167 111 154 168 111 154 168 105 149 167 105 149 167 159 221 240 159 221 240 159 221 240 159 221 240 159 221 240 116 156 172 111 154 168 166 224 247 166 224 247 111 154 168 111 154 168 166 224 247 159 221 240 111 154 168 111 154 168 111 154 168 105 149 167 159 221 240 105 149 167 105 149 167 100 142 166 100 142 166 100 142 166 100 142 166 100 142 166 144 204 238 96 138 171 138 198 245 144 204 238 96 138 171 96 138 171 96 138 171 138 198 245 96 138 171 138 198 245 96 138 171 91 135 168 91 135 168 130 194 240 85 133 166 122 190 238 80 128 164 80 128 164 76 126 161 76 126 161 109 180 231 109 180 231 76 126 161 71 122 158 76 126 161 109 180 231 109 180 231 109 180 231 76 126 161 76 126 161 76 126 161 71 122 158 71 122 158 71 122 158

232 225 178 232 225 178 228 229 164 228 229 164 228 229 164 228 229 164 232 225 178 162 157 124 232 225 178 162 157 124 232 225 178 232 225 178 162 157 124 162 157 124 162 157 124 162 157 124 162 157 124 165 161 130 165 161 130 165 161 130 165 161 130 168 164 133 240 235 191 240 235 191 240 235 191 234 231 186 156 159 126 156 159 126 150 155 123 150 155 123 143 150 119 205 215 171 143 150 119 136 144 112 195 206 160 195 206 160 195 206 160 195 206 160 136 144 112 129 139 105 129 139 105 185 199 150 185 199 150 185 199 146 129 139 102 129 139 102 175 195 141 175 195 141 175 195 141 122 136 98 116 134 93 166 192 134 166 192 134 107 133 88 107 133 88 100 130 83 100 130 83 143 187 119 143 187 119 143 187 119 143 187 119 143 187 119 100 130 83 100 130 83 154 190 126 154 190 126 154 190 126 154 190 126 166 192 134 166 192 134 166 192 134 175 195 141 175 195 141 175 195 141 185 199 146 185 199 146 185 199 146 185 199 146 185 199 150 185 199 150 195 206 160 195 206 160 195 206 160 195 206 160 205 215 171 205 215 171 215 222 176 215 222 176 215 222 176 215 222 176 224 228 180 224 228 180 224 228 180 224 228 180 234 231 186 234 231 186 240 235 191 234 231 186 234 231 186 234 231 186 234 231 186 240 235 191 240 235 191 240 235 191 237 230 186 237 230 186 240 235 191 168 164 133 168 164 133 240 235 191 168 164 133 240 235 191 237 230 186 168 164 133 168 164 133 240 235 191 240 235 191 168 164 133 240 235 191 168 164 133 240 235 191 240 235 191 237 230 186 237 230 186 232 225 178 237 230 186 237 230 186 237 230 186 237 230 186 165 161 130 168 164 133 240 235 191 240 235 191 163 161 130 163 161 130 163 161 130 163 161 130 156 159 126 150 155 123 143 150 119 136 144 112 136 144 112 129 139 105 129 139 105 129 139 102 122 136 98 122 136 98 116 134 93 116 134 93 107 133 88 107 133 88 100 130 83 108 140 88 108 140 88 123 150 100 123 150 100 151 156 114 170 163 145 170 163 145 170 163 145 170 163 145 154 168 161 154 168 161 154 168 161 243 234 208 243 234 208 221 240 230 221 240 230 221 240 230 145 168 178 145 168 178 130 163 178 130 163 178 130 163 178 130 163 178 121 158 178 121 158 178 121 158 178 121 158 178 174 227 255 174 227 255 174 227 255 121 158 178 166 224 247 116 156 172 111 154 168 111 154 168 105 149 167 105 149 167 105 149 167 105 149 167 105 149 167 100 142 166 105 149 167 105 149 167 105 149 167 105 149 167 151 214 239 159 221 240 159 221 240 159 221 240 111 154 168 111 154 168 111 154 168 166 224 247 166 224 247 111 154 168 111 154 168 166 224 247 159 221 240 111 154 168 111 154 168 111 154 168 105 149 167 105 149 167 159 221 240 105 149 167 105 149 167 105 149 167 144 204 238 100 142 166 100 142 166 144 204 238 144 204 238 100 142 166 144 204 238 138 198 245 144 204 238 144 204 238 96 138 171 96 138 171 96 138 171 138 198 245 96 138 171 91 135 168 85 133 166 130 194 240 85 133 166 122 190 238 80 128 164 80 128 164 115 184 235 115 184 235 109 180 231 109 180 231 109 180 231 71 122 158 71 122 158 109 180 231 71 122 158 109 180 231 71 122 158 76 126 161 71 122 158 71 122 158 66 119 156 66 119 156

232 225 178 232 225 178 162 157 124 162 157 124 162 157 124 159 160 114 162 157 124 162 157 124 232 225 178 232 225 178 232 225 178 162 157 124 162 157 124 162 157 124 165 161 130 165 161 130 165 161 130 165 161 130 165 161 130 168 164 133 168 164 133 168 164 133 168 164 133 168 164 133 163 161 130 163 161 130 156 159 126 224 228 180 150 155 123 150 155 123 143 150 119 143 150 119 143 150 119 136 144 112 195 206 160 195 206 160 136 144 112 129 139 105 129 139 105 129 139 105 129 139 105 129 139 102 129 139 102 129 139 102 122 136 98 122 136 98 122 136 98 175 195 141 122 136 98 122 136 98 116 134 93 116 134 93 116 134 93 107 133 88 107 133 88 107 133 88 143 187 119 100 130 83 100 130 83 100 130 83 100 130 83 108 140 88 108 140 88 143 187 119 143 187 119 154 190 126 154 190 126 154 190 126 154 190 126 166 192 134 116 134 93 166 192 134 175 195 141 175 195 141 185 199 146 129 139 102 185 199 146 185 199 150 185 199 150 195 206 160 195 206 160 195 206 160 195 206 160 205 215 171 205 215 171 205 215 171 215 222 176 215 222 176 215 222 176 224 228 180 224 228 180 224 228 180 224 228 180 234 231 186 234 231 186 234 231 186 234 231 186 240 235 191 240 235 191 234 231 186 234 231 186 240 235 191 168 164 133 240 235 191 168 164 133 165 161 130 168 164 133 168 164 133 240 235 191 240 235 191 168 164 133 240 235 191 168 164 133 168 164 133 240 235 191 240 235 191 168 164 133 168 164 133 240 235 191 240 235 191 240 235 191 240 235 191 240 235 191 237 230 186 237 230 186 232 225 178 237 230 186 237 230 186 237 230 186 165 161 130 168 164 133 240 235 191 240 235 191 168 164 133 163 161 130 163 161 130 156 159 126 156 159 126 150 155 123 143 150 119 136 144 112 136 144 112 129 139 105 129 139 105 185 199 150 129 139 102 122 136 98 116 134 93 116 134 93 107 133 88 100 130 83 100 130 83 108 140 88 108 140 88 108 140 88 123 150 100 151 156 114 170 163 145 170 163 145 243 234 208 154 168 161 154 168 161 221 240 230 221 240 230 221 240 230 154 168 161 154 168 161 221 240 230 154 168 161 145 168 178 145 168 178 130 163 178 130 163 178 130 163 178 121 158 178 121 158 178 174 227 255 174 227 255 121 158 178 174 227 255 121 158 178 116 156 172 116 156 172 116 156 172 111 154 168 111 154 168 111 154 168 159 221 240 105 149 167 105 149 167 151 214 239 105 149 167 105 149 167 151 214 239 151 214 239 151 214 239 151 214 239 159 221 240 159 221 240 159 221 240 159 221 240 159 221 240 159 221 240 111 154 168 159 221 240 111 154 168 111 154 168 159 221 240 111 154 168 111 154 168 111 154 168 111 154 168 105 149 167 105 149 167 151 214 239 159 221 240 105 149 167 105 149 167 100 142 166 100 142 166 100 142 166 100 142 166 144 204 238 100 142 166 144 204 238 144 204 238 144 204 238 96 138 171 96 138 171 96 138 171 138 198 245 96 138 171 91 135 168 91 135 168 91 135 168 85 133 166 122 190 238 85 133 166 122 190 238 85 133 166 80 128 164 115 184 235 76 126 161 76 126 161 76 126 161 71 122 158 71 122 158 71 122 158 71 122 158 71 122 158 71 122 158 71 122 158 71 122 158 71 122 158 71 122 158 66 119 156 66 119 156

232 225 178 162 157 124 162 157 124 232 225 178 162 157 124 232 225 178 162 157 124 162 157 124 232 225 178 162 157 124 162 157 124 165 161 130 165 161 130 165 161 130 165 161 130 165 161 130 165 161 130 165 161 130 165 161 130 165 161 130 168 164 133 168 164 133 240 235 191 240 235 191 163 161 130 163 161 130 163 161 130 156 159 126 156 159 126 150 155 123 150 155 123 205 215 171 143 150 119 136 144 112 195 206 160 195 206 160 195 206 160 129 139 105 185 199 150 129 139 105 129 139 102 129 139 102 185 199 146 185 199 146 122 136 98 175 195 141 175 195 141 122 136 98 122 136 98 122 136 98 116 134 93 107 133 88 116 134 93 107 133 88 107 133 88 154 190 126 154 190 126 100 130 83 100 130 83 143 187 119 100 130 83 108 140 88 155 200 126 143 187 119 143 187 119 143 187 119 100 130 83 154 190 126 154 190 126 166 192 134 166 192 134 166 192 134 166 192 134 122 136 98 175 195 141 185 199 146 185 199 146 185 199 150 185 199 150 195 206 160 195 206 160 195 206 160 205 215 171 205 215 171 205 215 171 215 222 176 215 222 176 215 222 176 215 222 176 224 228 180 224 228 180 224 228 180 234 231 186 234 231 186 234 231 186 234 231 186 234 231 186 234 231 186 163 161 130 240 235 191 234 231 186 240 235 191 240 235 191 240 235 191 240 235 191 240 235 191 168 164 133 168 164 133 168 164 133 168 164 133 240 235 191 240 235 191 168 164 133 168 164 133 168 164 133 240 235 191 240 235 191 240 235 191 240 235 191 240 235 191 237 230 186 237 230 186 237 230 186 237 230 186 237 230 186 237 230 186 232 225 178 165 161 130 237 230 186 165 161 130 165 161 130 237 230 186 237 230 186 240 235 191 168 164 133 234 231 186 156 159 126 156 159 126 150 155 123 143 150 119 205 215 171 136 144 112 136 144 112 129 139 105 129 139 105 129 139 102 122 136 98 116 134 93 116 134 93 107 133 88 107 133 88 100 130 83 108 140 88 108 140 88 155 200 126 123 150 100 151 156 114 216 224 164 216 224 164 243 234 208 170 163 145 243 234 208 221 240 230 154 168 161 243 234 208 221 240 230 221 240 230 221 240 230 154 168 161 145 168 178 145 168 178 130 163 178 208 240 255 130 163 178 121 158 178 174 227 255 174 227 255 174 227 255 121 158 178 174 227 255 121 158 178 116 156 172 166 224 247 116 156 172 111 154 168 111 154 168 111 154 168 105 149 167 105 149 167 105 149 167 105 149 167 151 214 239 151 214 239 151 214 239 151 214 239 151 214 239 159 221 240 159 221 240 159 221 240 159 221 240 166 224 247 159 221 240 159 221 240 159 221 240 159 221 240 159 221 240 159 221 240 111 154 168 111 154 168 111 154 168 111 154 168 111 154 168 159 221 240 159 221 240 159 221 240 159 221 240 159 221 240 105 149 167 105 149 167 151 214 239 100 142 166 100 142 166 144 204 238 100 142 166 144 204 238 100 142 166 100 142 166 96 138 171 96 138 171 138 198 245 138 198 245 96 138 171 91 135 168 91 135 168 91 135 168 85 133 166 122 190 238 85 133 166 85 133 166 80 128 164 80 128 164 76 126 161 76 126 161 76 126 161 76 126 161 71 122 158 71 122 158 102 175 227 102 175 227 71 122 158 71 122 158 66 119 156 71 122 158 66 119 156 66 119 156 66 119 156 66 119 156

232 225 178 162 157 124 232 225 178 232 225 178 162 157 124 162 157 124 162 157 124 162 157 124 162 157 124 162 157 124 162 157 124 165 161 130 165 161 130 165 161 130 168 164 133 168 164 133 168 164 133 168 164 133 165 161 130 165 161 130 168 164 133 168 164 133 168 164 133 168 164 133 163 161 130 234 231 186 234 231 186 156 159 126 156 159 126 150 155 123 150 155 123 215 222 176 205 215 171 205 215 171 195 206 160 195 206 160 136 144 112 129 139 105 185 199 150 129 139 102 129 139 102 129 139 102 122 136 98 122 136 98 129 139 102 122 136 98 122 136 98 116 134 93 116 134 93 116 134 93 116 134 93 107 133 88 107 133 88 107 133 88 100 130 83 100 130 83 107 133 88 100 130 83 100 130 83 108 140 88 108 140 88 108 140 88 108 140 88 155 200 126 108 140 88 100 130 83 100 130 83 154 190 126 154 190 126 166 192 134 166 192 134 116 134 93 166 192 134 175 195 141 175 195 141 185 199 146 185 199 146 185 199 150 185 199 150 185 199 150 195 206 160 195 206 160 205 215 171 205 215 171 205 215 171 215 222 176 215 222 176 224 228 180 224 228 180 224 228 180 224 228 180 234 231 186 234 231 186 234 231 186 234 231 186 234 231 186 234 231 186 240 235 191 234 231 186 240 235 191 240 235 191 240 235 191 240 235 191 168 164 133 168 164 133 168 164 133 168 164 133 168 164 133 168 164 133 240 235 191 240 235 191 240 235 191 168 164 133 240 235 191 240 235 191 240 235 191 168 164 133 240 235 191 240 235 191 237 230 186 237 230 186 237 230 186 237 230 186 237 230 186 232 225 178 232 225 178 232 225 178 165 161 130 237 230 186 237 230 186 237 230 186 237 230 186 237 230 186 165 161 130 168 164 133 163 161 130 163 161 130 156 159 126 150 155 123 150 155 123 205 215 171 136 144 112 136 144 112 129 139 105 129 139 105 129 139 105 129 139 102 122 136 98 116 134 93 116 134 93 107 133 88 100 130 83 143 187 119 143 187 119 155 200 126 123 150 100 123 150 100 151 156 114 216 224 164 170 163 145 170 163 145 154 168 161 154 168 161 243 234 208 243 234 208 243 234 208 221 240 230 243 234 208 154 168 161 154 168 161 145 168 178 145 168 178 208 240 255 130 163 178 130 163 178 174 227 255 121 158 178 174 227 255 121 158 178 174 227 255 174 227 255 116 156 172 116 156 172 116 156 172 111 154 168 111 154 168 111 154 168 105 149 167 105 149 167 105 149 167 105 149 167 151 214 239 151 214 239 151 214 239 151 214 239 159 221 240 159 221 240 159 221 240 159 221 240 159 221 240 159 221 240 166 224 247 159 221 240 159 221 240 159 221 240 159 221 240 159 221 240 111 154 168 159 221 240 159 221 240 159 221 240 105 149 167 105 149 167 159 221 240 105 149 167 111 154 168 105 149 167 105 149 167 105 149 167 105 149 167 100 142 166 144 204 238 144 204 238 96 138 171 96 138 171 96 138 171 96 138 171 96 138 171 96 138 171 138 198 245 138 198 245 91 135 168 91 135 168 91 135 168 85 133 166 85 133 166 85 133 166 85 133 166 80 128 164 80 128 164 80 128 164 80 128 164 109 180 231 109 180 231 71 122 158 71 122 158 71 122 158 71 122 158 71 122 158 71 122 158 66 119 156 66 119 156 66 119 156 66 119 156 66 119 156 63 118 154 63 118 154

232 225 178 162 157 124 232 225 178 232 225 178 162 157 124 162 157 124 162 157 124 165 161 130 165 161 130 162 157 124 165 161 130 165 161 130 237 230 186 237 230 186 168 164 133 168 164 133 168 164 133 237 230 186 237 230 186 237 230 186 237 230 186 240 235 191 240 235 191 240 235 191 163 161 130 163 161 130 163 161 130 156 159 126 224 228 180 156 159 126 215 222 176 215 222 176 215 222 176 143 150 119 205 215 171 136 144 112 136 144 112 136 144 112 129 139 105 129 139 102 129 139 102 129 139 102 185 199 146 175 195 141 185 199 146 122 136 98 122 136 98 116 134 93 107 133 88 116 134 93 116 134 93 107 133 88 107 133 88 100 130 83 107 133 88 143 187 119 154 190 126 100 130 83 108 140 88 108 140 88 108 140 88 155 200 126 108 140 88 108 140 88 108 140 88 108 140 88 143 187 119 143 187 119 154 190 126 154 190 126 166 192 134 116 134 93 166 192 134 166 192 134 175 195 141 185 199 146 185 199 150 185 199 150 185 199 150 185 199 150 195 206 160 205 215 171 205 215 171 205 215 171 215 222 176 215 222 176 215 222 176 224 228 180 224 228 180 224 228 180 234 231 186 234 231 186 240 235 191 240 235 191 234 231 186 240 235 191 240 235 191 240 235 191 240 235 191 240 235 191 240 235 191 240 235 191 240 235 191 168 164 133 168 164 133 163 161 130 240 235 191 240 235 191 240 235 191 240 235 191 240 235 191 240 235 191 240 235 191 240 235 191 240 235 191 168 164 133 237 230 186 237 230 186 237 230 186 237 230 186 237 230 186 237 230 186 232 225 178 232 225 178 232 225 178 232 225 178 232 225 178 232 225 178 232 225 178 232 225 178 237 230 186 165 161 130 237 230 186 168 164 133 168 164 133 168 164 133 234 231 186 156 159 126 156 159 126 150 155 123 143 150 119 136 144 112 136 144 112 129 139 105 195 206 160 185 199 150 129 139 102 122 136 98 122 136 98 116 134 93 166 192 134 154 190 126 143 187 119 100 130 83 108 140 88 123 150 100 123 150 100 151 156 114 151 156 114 170 163 145 243 234 208 243 234 208 221 240 230 243 234 208 243 234 208 243 234 208 170 163 145 243 234 208 243 234 208 221 240 230 221 240 230 145 168 178 208 240 255 130 163 178 130 163 178 121 158 178 121 158 178 174 227 255 186 234 255 174 227 255 174 227 255 116 156 172 116 156 172 111 154 168 111 154 168 111 154 168 105 149 167 105 149 167 105 149 167 151 214 239 151 214 239 151 214 239 151 214 239 105 149 167 159 221 240 159 221 240 159 221 240 159 221 240 111 154 168 111 154 168 166 224 247 166 224 247 166 224 247 159 221 240 166 224 247 166 224 247 159 221 240 111 154 168 159 221 240 111 154 168 111 154 168 105 149 167 151 214 239 105 149 167 105 149 167 151 214 239 159 221 240 151 214 239 151 214 239 151 214 239 151 214 239 100 142 166 100 142 166 100 142 166 96 138 171 96 138 171 96 138 171 96 138 171 138 198 245 138 198 245 96 138 171 91 135 168 130 194 240 91 135 168 85 133 166 85 133 166 85 133 166 80 128 164 80 128 164 80 128 164 80 128 164 80 128 164 76 126 161 76 126 161 76 126 161 71 122 158 71 122 158 71 122 158 102 175 227 71 122 158 66 119 156 66 119 156 66 119 156 63 118 154 63 118 154 63 118 154 63 118 154

232 225 178 232 225 178 232 225 178 232 225 178 162 157 124 165 161 130 165 161 130 232 225 178 232 225 178 165 161 130 165 161 130 165 161 130 165 161 130 165 161 130 168 164 133 240 235 191 168 164 133 240 235 191 168 164 133 168 164 133 165 161 130 168 164 133 168 164 133 163 161 130 163 161 130 234 231 186 156 159 126 163 161 130 224 228 180 156 159 126 150 155 123 150 155 123 150 155 123 150 155 123 143 150 119 136 144 112 136 144 112 136 144 112 129 139 105 129 139 102 129 139 102 122 136 98 122 136 98 122 136 98 122 136 98 122 136 98 116 134 93 116 134 93 107 133 88 107 133 88 107 133 88 107 133 88 100 130 83 100 130 83 100 130 83 100 130 83 100 130 83 100 130 83 108 140 88 108 140 88 108 140 88 108 140 88 123 150 100 108 140 88 155 200 126 155 200 126 143 187 119 143 187 119 154 190 126 107 133 88 154 190 126 166 192 134 166 192 134 166 192 134 175 195 141 185 199 146 185 199 150 185 199 150 185 199 150 185 199 150 195 206 160 205 215 171 205 215 171 215 222 176 215 222 176 215 222 176 224 228 180 224 228 180 224 228 180 224 228 180 234 231 186 240 235 191 240 235 191 168 164 133 240 235 191 240 235 191 240 235 191 240 235 191 240 235 191 240 235 191 168 164 133 168 164 133 240 235 191 168 164 133 240 235 191 240 235 191 240 235 191 240 235 191 168 164 133 168 164 133 168 164 133 240 235 191 168 164 133 240 235 191 240 235 191 240 235 191 237 230 186 237 230 186 237 230 186 237 230 186 237 230 186 237 230 186 232 225 178 232 225 178 232 225 178 232 225 178 232 225 178 232 225 178 232 225 178 232 225 178 232 225 178 232 225 178 237 230 186 165 161 130 168 164 133 168 164 133 163 161 130 156 159 126 156 159 126 150 155 123 150 155 123 143 150 119 136 144 112 136 144 112 129 139 105 129 139 105 129 139 102 122 136 98 116 134 93 116 134 93 107 133 88 107 133 88 100 130 83 100 130 83 108 140 88 108 140 88 123 150 100 151 156 114 151 156 114 170 163 145 243 234 208 170 163 145 154 168 161 243 234 208 243 234 208 170 163 145 170 163 145 243 234 208 154 168 161 154 168 161 154 168 161 145 168 178 208 240 255 130 163 178 130 163 178 130 163 178 174 227 255 186 234 255 174 227 255 121 158 178 121 158 178 116 156 172 116 156 172 111 154 168 111 154 168 111 154 168 105 149 167 151 214 239 151 214 239 151 214 239 151 214 239 151 214 239 105 149 167 105 149 167 105 149 167 105 149 167 105 149 167 111 154 168 111 154 168 159 221 240 159 221 240 166 224 247 111 154 168 111 154 168 111 154 168 111 154 168 111 154 168 111 154 168 159 221 240 111 154 168 105 149 167 105 149 167 151 214 239 105 149 167 151 214 239 105 149 167 151 214 239 105 149 167 105 149 167 105 149 167 100 142 166 100 142 166 100 142 166 144 204 238 96 138 171 96 138 171 96 138 171 96 138 171 91 135 168 91 135 168 91 135 168 91 135 168 85 133 166 85 133 166 85 133 166 85 133 166 85 133 166 80 128 164 76 126 161 115 184 235 76 126 161 76 126 161 76 126 161 76 126 161 76 126 161 71 122 158 71 122 158 66 119 156 66 119 156 66 119 156 66 119 156 63 118 154 63 118 154 63 118 154 58 116 152 58 116 152 58 116 152

232 225 178 162 157 124 162 157 124 232 225 178 162 157 124 165 161 130 237 230 186 237 230 186 165 161 130 165 161 130 232 225 178 237 230 186 237 230 186 168 164 133 165 161 130 240 235 191 240 235 191 240 235 191 240 235 191 237 230 186 240 235 191 168 164 133 168 164 133 163 161 130 163 161 130 163 161 130 156 159 126 224 228 180 156 159 126 156 159 126 150 155 123 215 222 176 215 222 176 215 222 176 215 222 176 136 144 112 195 206 160 136 144 112 129 139 105 129 139 102 129 139 102 122 136 98 122 136 98 175 195 141 122 136 98 116 134 93 122 136 98 116 134 93 116 134 93 107 133 88 107 133 88 107 133 88 107 133 88 100 130 83 100 130 83 100 130 83 100 130 83 100 130 83 143 187 119 155 200 126 108 140 88 155 200 126 155 200 126 155 200 126 155 200 126 155 200 126 143 187 119 143 187 119 154 190 126 154 190 126 154 190 126 166 192 134 166 192 134 166 192 134 175 195 141 185 199 146 185 199 150 185 199 150 185 199 150 195 206 160 195 206 160 205 215 171 205 215 171 215 222 176 215 222 176 215 222 176 224 228 180 224 228 180 224 228 180 224 228 180 234 231 186 240 235 191 240 235 191 240 235 191 240 235 191 240 235 191 240 235 191 237 230 186 237 230 186 237 230 186 240 235 191 240 235 191 240 235 191 168 164 133 240 235 191 240 235 191 240 235 191 240 235 191 240 235 191 240 235 191 163 161 130 240 235 191 240 235 191 240 235 191 240 235 191 240 235 191 237 230 186 237 230 186 237 230 186 237 230 186 237 230 186 237 230 186 232 225 178 232 225 178 232 225 178 232 225 178 228 229 164 228 229 164 228 229 164 232 225 178 232 225 178 232 225 178 165 161 130 165 161 130 168 164 133 168 164 133 163 161 130 156 159 126 224 228 180 150 155 123 150 155 123 143 150 119 143 150 119 136 144 112 129 139 105 129 139 102 129 139 102 122 136 98 122 136 98 116 134 93 116 134 93 107 133 88 100 130 83 100 130 83 108 140 88 108 140 88 123 150 100 151 156 114 151 156 114 170 163 145 170 163 145 154 168 161 243 234 208 243 234 208 243 234 208 154 168 161 154 168 161 154 168 161 154 168 161 154 168 161 154 168 161 145 168 178 208 240 255 145 168 178 186 234 255 130 163 178 121 158 178 121 158 178 186 234 255 121 158 178 116 156 172 116 156 172 116 156 172 116 156 172 159 221 240 159 221 240 159 221 240 159 221 240 105 149 167 105 149 167 151 214 239 151 214 239 100 142 166 151 214 239 151 214 239 151 214 239 159 221 240 159 221 240 111 154 168 159 221 240 159 221 240 159 221 240 166 224 247 111 154 168 111 154 168 111 154 168 159 221 240 159 221 240 111 154 168 105 149 167 105 149 167 105 149 167 151 214 239 151 214 239 151 214 239 151 214 239 151 214 239 105 149 167 105 149 167 100 142 166 100 142 166 100 142 166 100 142 166 144 204 238 100 142 166 96 138 171 138 198 245 138 198 245 91 135 168 91 135 168 91 135 168 85 133 166 85 133 166 85 133 166 80 128 164 80 128 164 80 128 164 80 128 164 76 126 161 115 184 235 76 126 161 76 126 161 71 122 158 71 122 158 71 122 158 66 119 156 66 119 156 66 119 156 66 119 156 66 119 156 63 118 154 63 118 154 58 116 152 58 116 152 58 116 152 55 113 149 55 113 149

232 225 178 162 157 124 165 161 130 232 225 178 232 225 178 162 157 124 232 225 178 232 225 178 232 225 178 232 225 178 232 225 178 165 161 130 165 161 130 165 161 130 168 164 133 168 164 133 168 164 133 240 235 191 237 230 186 237 230 186 168 164 133 168 164 133 168 164 133 163 161 130 163 161 130 163 161 130 156 159 126 224 228 180 156 159 126 156 159 126 150 155 123 215 222 176 215 222 176 215 222 176 143 150 119 143 150 119 136 144 112 136 144 112 129 139 105 129 139 105 185 199 146 185 199 146 175 195 141 175 195 141 122 136 98 116 134 93 116 134 93 116 134 93 107 133 88 107 133 88 107 133 88 100 130 83 100 130 83 100 130 83 100 130 83 100 130 83 100 130 83 143 187 119 108 140 88 108 140 88 108 140 88 155 200 126 155 200 126 155 200 126 155 200 126 155 200 126 143 187 119 143 187 119 154 190 126 154 190 126 154 190 126 166 192 134 166 192 134 166 192 134 175 195 141 185 199 146 185 199 150 185 199 150 195 206 160 195 206 160 205 215 171 205 215 171 205 215 171 215 222 176 215 222 176 224 228 180 224 228 180 224 228 180 234 231 186 234 231 186 234 231 186 234 231 186 240 235 191 168 164 133 240 235 191 237 230 186 237 230 186 237 230 186 165 161 130 165 161 130 168 164 133 168 164 133 240 235 191 240 235 191 240 235 191 237 230 186 237 230 186 240 235 191 240 235 191 168 164 133 168 164 133 240 235 191 240 235 191 240 235 191 240 235 191 237 230 186 240 235 191 237 230 186 237 230 186 165 161 130 237 230 186 165 161 130 237 230 186 232 225 178 232 225 178 228 229 164 228 229 164 222 214 149 222 214 149 228 229 164 228 229 164 162 157 124 165 161 130 165 161 130 165 161 130 168 164 133 240 235 191 234 231 186 156 159 126 150 155 123 150 155 123 143 150 119 143 150 119 136 144 112 129 139 105 129 139 102 122 136 98 122 136 98 122 136 98 116 134 93 107 133 88 107 133 88 100 130 83 108 140 88 108 140 88 108 140 88 123 150 100 151 156 114 170 163 145 170 163 145 154 168 161 243 234 208 221 240 230 170 163 145 243 234 208 243 234 208 154 168 161 154 168 161 145 168 178 145 168 178 154 168 161 145 168 178 208 240 255 145 168 178 130 163 178 130 163 178 130 163 178 174 227 255 174 227 255 121 158 178 121 158 178 116 156 172 116 156 172 166 224 247 116 156 172 159 221 240 111 154 168 111 154 168 105 149 167 105 149 167 151 214 239 100 142 166 100 142 166 151 214 239 105 149 167 105 149 167 151 214 239 105 149 167 159 221 240 159 221 240 159 221 240 166 224 247 111 154 168 111 154 168 105 149 167 105 149 167 111 154 168 111 154 168 111 154 168 159 221 240 105 149 167 105 149 167 105 149 167 105 149 167 105 149 167 151 214 239 151 214 239 105 149 167 105 149 167 100 142 166 100 142 166 100 142 166 144 204 238 100 142 166 96 138 171 96 138 171 138 198 245 138 198 245 91 135 168 91 135 168 85 133 166 85 133 166 85 133 166 80 128 164 80 128 164 80 128 164 76 126 161 76 126 161 76 126 161 76 126 161 76 126 161 76 126 161 71 122 158 71 122 158 71 122 158 66 119 156 66 119 156 95 171 224 95 171 224 63 118 154 63 118 154 58 116 152 58 116 152 55 113 149 55 113 149 55 113 149 55 113 149

232 225 178 165 161 130 232 225 178 232 225 178 232 225 178 162 157 124 232 225 178 232 225 178 232 225 178 162 157 124 232 225 178 165 161 130 232 225 178 165 161 130 168 164 133 168 164 133 168 164 133 240 235 191 240 235 191 168 164 133 168 164 133 168 164 133 163 161 130 163 161 130 163 161 130 234 231 186 163 161 130 224 228 180 224 228 180 156 159 126 224 228 180 224 228 180 224 228 180 150 155 123 143 150 119 143 150 119 136 144 112 136 144 112 129 139 105 129 139 105 129 139 102 129 139 102 122 136 98 122 136 98 122 136 98 116 134 93 116 134 93 116 134 93 107 133 88 107 133 88 107 133 88 107 133 88 100 130 83 100 130 83 100 130 83 108 140 88 108 140 88 143 187 119 143 187 119 143 187 119 143 187 119 155 200 126 143 187 119 155 200 126 155 200 126 143 187 119 154 190 126 154 190 126 154 190 126 166 192 134 166 192 134 166 192 134 166 192 134 175 195 141 185 199 146 185 199 146 185 199 150 185 199 150 195 206 160 205 215 171 215 222 176 215 222 176 205 215 171 215 222 176 224 228 180 224 228 180 224 228 180 224 228 180 234 231 186 234 231 186 234 231 186 234 231 186 234 231 186 163 161 130 240 235 191 237 230 186 232 225 178 237 230 186 237 230 186 237 230 186 168 164 133 240 235 191 237 230 186 237 230 186 237 230 186 237 230 186 237 230 186 168 164 133 240 235 191 168 164 133 163 161 130 240 235 191 240 235 191 240 235 191 240 235 191 237 230 186 237 230 186 237 230 186 237 230 186 237 230 186 237 230 186 237 230 186 237 230 186 232 225 178 232 225 178 228 229 164 222 214 149 222 214 149 216 210 150 222 214 149 228 229 164 162 157 124 162 157 124 232 225 178 237 230 186 168 164 133 240 235 191 163 161 130 156 159 126 150 155 123 143 150 119 143 150 119 143 150 119 136 144 112 129 139 105 129 139 102 122 136 98 122 136 98 116 134 93 116 134 93 107 133 88 107 133 88 100 130 83 100 130 83 108 140 88 155 200 126 123 150 100 151 156 114 170 163 145 170 163 145 154 168 161 154 168 161 154 168 161 243 234 208 243 234 208 243 234 208 154 168 161 154 168 161 221 240 230 221 240 230 208 240 255 145 168 178 221 240 230 208 240 255 130 163 178 130 163 178 130 163 178 186 234 255 186 234 255 174 227 255 174 227 255 116 156 172 116 156 172 116 156 172 116 156 172 111 154 168 111 154 168 111 154 168 111 154 168 151 214 239 151 214 239 105 149 167 100 142 166 151 214 239 151 214 239 151 214 239 151 214 239 151 214 239 151 214 239 159 221 240 166 224 247 159 221 240 111 154 168 105 149 167 105 149 167 105 149 167 105 149 167 105 149 167 111 154 168 105 149 167 105 149 167 105 149 167 151 214 239 151 214 239 151 214 239 151 214 239 159 221 240 105 149 167 100 142 166 100 142 166 100 142 166 100 142 166 144 204 238 100 142 166 100 142 166 138 198 245 138 198 245 138 198 245 138 198 245 91 135 168 91 135 168 85 133 166 80 128 164 80 128 164 76 126 161 76 126 161 76 126 161 109 180 231 76 126 161 109 180 231 109 180 231 76 126 161 109 180 231 71 122 158 71 122 158 71 122 158 102 175 227 95 171 224 66 119 156 63 118 154 63 118 154 58 116 152 55 113 149 55 113 149 55 113 149 55 113 149 55 113 149

237 230 186 165 161 130 237 230 186 232 225 178 162 157 124 232 225 178 232 225 178 162 157 124 232 225 178 162 157 124 232 225 178 232 225 178 165 161 130 165 161 130 168 164 133 168 164 133 240 235 191 240 235 191 240 235 191 168 164 133 168 164 133 168 164 133 163 161 130 163 161 130 163 161 130 156 159 126 156 159 126 156 159 126 156 159 126 156 159 126 224 228 180 224 228 180 156 159 126 150 155 123 215 222 176 143 150 119 136 144 112 195 206 160 195 206 160 185 199 150 185 199 150 185 199 146 185 199 146 122 136 98 122 136 98 116 134 93 166 192 134 166 192 134 166 192 134 154 190 126 107 133 88 154 190 126 100 130 83 143 187 119 143 187 119 143 187 119 143 187 119 143 187 119 143 187 119 143 187 119 143 187 119 143 187 119 143 187 119 143 187 119 155 200 126 143 187 119 143 187 119 154 190 126 154 190 126 166 192 134 166 192 134 166 192 134 175 195 141 175 195 141 175 195 141 185 199 146 185 199 150 185 199 150 185 199 150 195 206 160 205 215 171 143 150 119 143 150 119 215 222 176 215 222 176 224 228 180 224 228 180 156 159 126 224 228 180 156 159 126 234 231 186 234 231 186 163 161 130 234 231 186 240 235 191 237 230 186 237 230 186 165 161 130 165 161 130 165 161 130 168 164 133 237 230 186 240 235 191 168 164 133 168 164 133 168 164 133 168 164 133 168 164 133 168 164 133 168 164 133 163 161 130 240 235 191 163 161 130 240 235 191 240 235 191 240 235 191 237 230 186 165 161 130 168 164 133 237 230 186 237 230 186 237 230 186 232 225 178 232 225 178 232 225 178 228 229 164 222 214 149 222 214 149 155 149 104 155 149 104 159 160 114 162 157 124 162 157 124 165 161 130 165 161 130 165 161 130 168 164 133 163 161 130 156 159 126 150 155 123 150 155 123 143 150 119 136 144 112 136 144 112 129 139 105 129 139 102 129 139 102 122 136 98 116 134 93 116 134 93 107 133 88 107 133 88 100 130 83 100 130 83 108 140 88 108 140 88 123 150 100 151 156 114 151 156 114 170 163 145 243 234 208 221 240 230 221 240 230 243 234 208 243 234 208 170 163 145 170 163 145 154 168 161 221 240 230 154 168 161 154 168 161 221 240 230 208 240 255 145 168 178 208 240 255 130 163 178 186 234 255 130 163 178 186 234 255 121 158 178 121 158 178 116 156 172 166 224 247 116 156 172 111 154 168 111 154 168 111 154 168 111 154 168 105 149 167 105 149 167 105 149 167 105 149 167 100 142 166 151 214 239 151 214 239 151 214 239 151 214 239 159 221 240 159 221 240 159 221 240 159 221 240 111 154 168 111 154 168 159 221 240 151 214 239 105 149 167 151 214 239 151 214 239 151 214 239 105 149 167 151 214 239 151 214 239 105 149 167 105 149 167 105 149 167 105 149 167 100 142 166 100 142 166 100 142 166 100 142 166 144 204 238 100 142 166 100 142 166 96 138 171 96 138 171 96 138 171 96 138 171 96 138 171 96 138 171 91 135 168 85 133 166 85 133 166 80 128 164 80 128 164 76 126 161 76 126 161 76 126 161 109 180 231 76 126 161 109 180 231 76 126 161 76 126 161 76 126 161 71 122 158 66 119 156 66 119 156 66 119 156 66 119 156 63 118 154 63 118 154 63 118 154 58 116 152 58 116 152 55 113 149 55 113 149 55 113 149 79 162 214

237 230 186 165 161 130 232 225 178 237 230 186 232 225 178 232 225 178 232 225 178 232 225 178 232 225 178 162 157 124 232 225 178 232 225 178 165 161 130 165 161 130 168 164 133 240 235 191 240 235 191 168 164 133 168 164 133 168 164 133 168 164 133 240 235 191 163 161 130 163 161 130 156 159 126 156 159 126 224 228 180 156 159 126 156 159 126 224 228 180 224 228 180 156 159 126 156 159 126 150 155 123 150 155 123 143 150 119 143 150 119 205 215 171 195 206 160 195 206 160 195 206 160 129 139 105 129 139 102 129 139 102 122 136 98 122 136 98 175 195 141 175 195 141 166 192 134 107 133 88 154 190 126 154 190 126 100 130 83 143 187 119 143 187 119 154 190 126 154 190 126 154 190 126 154 190 126 143 187 119 154 190 126 143 187 119 143 187 119 143 187 119 143 187 119 143 187 119 154 190 126 154 190 126 154 190 126 166 192 134 175 195 141 175 195 141 175 195 141 175 195 141 185 199 146 185 199 146 185 199 146 129 139 102 185 199 150 195 206 160 205 215 171 205 215 171 205 215 171 215 222 176 143 150 119 150 155 123 150 155 123 156 159 126 156 159 126 156 159 126 224 228 180 163 161 130 163 161 130 234 231 186 240 235 191 237 230 186 237 230 186 165 161 130 165 161 130 237 230 186 165 161 130 237 230 186 168 164 133 237 230 186 240 235 191 240 235 191 237 230 186 240 235 191 168 164 133 168 164 133 163 161 130 163 161 130 163 161 130 234 231 186 240 235 191 168 164 133 237 230 186 237 230 186 168 164 133 237 230 186 237 230 186 237 230 186 232 225 178 232 225 178 232 225 178 228 229 164 228 229 164 155 149 104 155 149 104 159 160 114 159 160 114 162 157 124 162 157 124 165 161 130 165 161 130 165 161 130 168 164 133 163 161 130 156 159 126 150 155 123 143 150 119 143 150 119 143 150 119 136 144 112 129 139 105 129 139 105 129 139 102 122 136 98 116 134 93 116 134 93 107 133 88 107 133 88 100 130 83 100 130 83 100 130 83 108 140 88 123 150 100 123 150 100 151 156 114 216 224 164 170 163 145 243 234 208 243 234 208 221 240 230 243 234 208 243 234 208 154 168 161 154 168 161 221 240 230 221 240 230 221 240 230 221 240 230 221 240 230 208 240 255 208 240 255 130 163 178 186 234 255 130 163 178 186 234 255 121 158 178 174 227 255 121 158 178 116 156 172 116 156 172 111 154 168 159 221 240 111 154 168 111 154 168 159 221 240 159 221 240 151 214 239 105 149 167 105 149 167 151 214 239 151 214 239 151 214 239 151 214 239 159 221 240 159 221 240 159 221 240 159 221 240 111 154 168 159 221 240 159 221 240 111 154 168 151 214 239 151 214 239 105 149 167 151 214 239 159 221 240 159 221 240 105 149 167 151 214 239 105 149 167 105 149 167 105 149 167 100 142 166 100 142 166 100 142 166 100 142 166 100 142 166 96 138 171 96 138 171 96 138 171 96 138 171 96 138 171 138 198 245 96 138 171 91 135 168 91 135 168 85 133 166 85 133 166 80 128 164 80 128 164 80 128 164 76 126 161 109 180 231 109 180 231 115 184 235 109 180 231 109 180 231 76 126 161 76 126 161 71 122 158 66 119 156 66 119 156 95 171 224 66 119 156 66 119 156 63 118 154 91 169 221 58 116 152 58 116 152 55 113 149 55 113 149 55 113 149 79 162 214

232 225 178 232 225 178 237 230 186 165 161 130 232 225 178 232 225 178 232 225 178 162 157 124 162 157 124 162 157 124 162 157 124 165 161 130 165 161 130 165 161 130 168 164 133 240 235 191 168 164 133 240 235 191 168 164 133 168 164 133 163 161 130 163 161 130 163 161 130 163 161 130 156 159 126 224 228 180 224 228 180 156 159 126 156 159 126 224 228 180 224 228 180 150 155 123 150 155 123 150 155 123 150 155 123 215 222 176 143 150 119 205 215 171 205 215 171 136 144 112 195 206 160 129 139 105 185 199 150 129 139 102 122 136 98 185 199 146 185 199 146 122 136 98 116 134 93 166 192 134 166 192 134 107 133 88 154 190 126 154 190 126 154 190 126 154 190 126 154 190 126 154 190 126 107 133 88 154 190 126 154 190 126 154 190 126 143 187 119 143 187 119 154 190 126 154 190 126 154 190 126 154 190 126 154 190 126 166 192 134 166 192 134 175 195 141 175 195 141 185 199 146 185 199 146 185 199 146 185 199 146 185 199 150 185 199 150 185 199 150 136 144 112 136 144 112 205 215 171 143 150 119 143 150 119 205 215 171 150 155 123 215 222 176 224 228 180 224 228 180 156 159 126 224 228 180 234 231 186 234 231 186 234 231 186 240 235 191 237 230 186 165 161 130 165 161 130 165 161 130 165 161 130 168 164 133 237 230 186 237 230 186 168 164 133 168 164 133 240 235 191 168 164 133 168 164 133 163 161 130 163 161 130 163 161 130 234 231 186 234 231 186 234 231 186 168 164 133 240 235 191 168 164 133 237 230 186 237 230 186 237 230 186 165 161 130 232 225 178 232 225 178 232 225 178 228 229 164 228 229 164 159 160 114 159 160 114 159 160 114 162 157 124 162 157 124 162 157 124 165 161 130 165 161 130 168 164 133 168 164 133 163 161 130 156 159 126 150 155 123 150 155 123 143 150 119 136 144 112 136 144 112 129 139 105 129 139 102 129 139 102 122 136 98 116 134 93 116 134 93 107 133 88 107 133 88 100 130 83 143 187 119 143 187 119 108 140 88 123 150 100 123 150 100 151 156 114 216 224 164 216 224 164 243 234 208 243 234 208 243 234 208 221 240 230 170 163 145 154 168 161 154 168 161 154 168 161 154 168 161 154 168 161 221 240 230 154 168 161 154 168 161 221 240 230 145 168 178 186 234 255 186 234 255 186 234 255 186 234 255 121 158 178 121 158 178 116 156 172 116 156 172 166 224 247 159 221 240 111 154 168 111 154 168 159 221 240 159 221 240 105 149 167 105 149 167 151 214 239 151 214 239 151 214 239 151 214 239 151 214 239 159 221 240 159 221 240 111 154 168 111 154 168 111 154 168 111 154 168 111 154 168 105 149 167 111 154 168 105 149 167 151 214 239 159 221 240 151 214 239 105 149 167 105 149 167 151 214 239 100 142 166 100 142 166 100 142 166 100 142 166 100 142 166 96 138 171 100 142 166 96 138 171 96 138 171 138 198 245 138 198 245 96 138 171 96 138 171 138 198 245 91 135 168 91 135 168 91 135 168 85 133 166 85 133 166 80 128 164 115 184 235 80 128 164 76 126 161 109 180 231 109 180 231 76 126 161 76 126 161 76 126 161 76 126 161 109 180 231 71 122 158 66 119 156 95 171 224 66 119 156 66 119 156 95 171 224 63 118 154 63 118 154 63 118 154 58 116 152 55 113 149 55 113 149 55 113 149 79 162 214

237 230 186 165 161 130 165 161 130 232 225 178 232 225 178 232 225 178 232 225 178 165 161 130 165 161 130 165 161 130 165 161 130 165 161 130 237 230 186 237 230 186 237 230 186 240 235 191 168 164 133 240 235 191 240 235 191 163 161 130 163 161 130 234 231 186 163 161 130 163 161 130 156 159 126 156 159 126 224 228 180 156 159 126 156 159 126 150 155 123 224 228 180 224 228 180 150 155 123 150 155 123 150 155 123 150 155 123 215 222 176 205 215 171 205 215 171 205 215 171 195 206 160 136 144 112 129 139 105 129 139 102 185 199 146 185 199 146 185 199 146 185 199 146 175 195 141 175 195 141 166 192 134 166 192 134 154 190 126 154 190 126 154 190 126 166 192 134 166 192 134 154 190 126 154 190 126 154 190 126 154 190 126 154 190 126 154 190 126 154 190 126 154 190 126 154 190 126 154 190 126 166 192 134 166 192 134 166 192 134 166 192 134 175 195 141 185 199 146 185 199 146 185 199 146 185 199 146 185 199 150 185 199 150 185 199 150 129 139 105 195 206 160 195 206 160 205 215 171 205 215 171 215 222 176 215 222 176 215 222 176 215 222 176 215 222 176 150 155 123 156 159 126 224 228 180 234 231 186 234 231 186 234 231 186 240 235 191 237 230 186 237 230 186 237 230 186 165 161 130 237 230 186 165 161 130 237 230 186 168 164 133 237 230 186 240 235 191 237 230 186 168 164 133 168 164 133 163 161 130 163 161 130 234 231 186 234 231 186 234 231 186 234 231 186 234 231 186 240 235 191 240 235 191 237 230 186 237 230 186 237 230 186 237 230 186 232 225 178 232 225 178 228 229 164 232 225 178 228 229 164 159 160 114 159 160 114 162 157 124 162 157 124 162 157 124 162 157 124 165 161 130 165 161 130 168 164 133 168 164 133 163 161 130 156 159 126 156 159 126 224 228 180 143 150 119 143 150 119 136 144 112 129 139 105 129 139 102 129 139 102 122 136 98 116 134 93 166 192 134 107 133 88 107 133 88 107 133 88 100 130 83 143 187 119 100 130 83 108 140 88 176 215 143 176 215 143 216 224 164 216 224 164 151 156 114 243 234 208 243 234 208 243 234 208 243 234 208 154 168 161 221 240 230 154 168 161 221 240 230 221 240 230 221 240 230 221 240 230 221 240 230 221 240 230 145 168 178 145 168 178 130 163 178 130 163 178 186 234 255 121 158 178 121 158 178 174 227 255 166 224 247 166 224 247 111 154 168 111 154 168 159 221 240 159 221 240 159 221 240 111 154 168 105 149 167 151 214 239 151 214 239 151 214 239 105 149 167 159 221 240 151 214 239 105 149 167 159 221 240 159 221 240 111 154 168 159 221 240 105 149 167 105 149 167 105 149 167 159 221 240 159 221 240 151 214 239 105 149 167 105 149 167 105 149 167 105 149 167 105 149 167 100 142 166 100 142 166 100 142 166 100 142 166 96 138 171 96 138 171 96 138 171 96 138 171 138 198 245 96 138 171 96 138 171 96 138 171 91 135 168 91 135 168 91 135 168 91 135 168 85 133 166 85 133 166 80 128 164 80 128 164 115 184 235 76 126 161 76 126 161 76 126 161 76 126 161 109 180 231 115 184 235 76 126 161 109 180 231 71 122 158 71 122 158 102 175 227 66 119 156 95 171 224 66 119 156 63 118 154 91 169 221 63 118 154 63 118 154 58 116 152 79 162 214 79 162 214 55 113 149

237 230 186 165 161 130 165 161 130 165 161 130 232 225 178 162 157 124 232 225 178 165 161 130 237 230 186 237 230 186 165 161 130 165 161 130 237 230 186 237 230 186 237 230 186 168 164 133 240 235 191 240 235 191 240 235 191 168 164 133 234 231 186 240 235 191 163 161 130 163 161 130 156 159 126 156 159 126 156 159 126 156 159 126 224 228 180 150 155 123 150 155 123 150 155 123 150 155 123 143 150 119 215 222 176 150 155 123 143 150 119 143 150 119 143 150 119 136 144 112 136 144 112 136 144 112 129 139 105 185 199 150 185 199 150 185 199 150 129 139 102 129 139 102 122 136 98 122 136 98 175 195 141 175 195 141 166 192 134 166 192 134 166 192 134 166 192 134 166 192 134 166 192 134 166 192 134 166 192 134 166 192 134 166 192 134 166 192 134 166 192 134 154 190 126 166 192 134 166 192 134 166 192 134 166 192 134 175 195 141 175 195 141 175 195 141 175 195 141 185 199 146 185 199 146 185 199 146 185 199 146 185 199 150 129 139 105 185 199 150 185 199 150 195 206 160 205 215 171 205 215 171 143 150 119 143 150 119 215 222 176 215 222 176 215 222 176 215 222 176 224 228 180 224 228 180 234 231 186 234 231 186 240 235 191 240 235 191 240 235 191 237 230 186 168 164 133 165 161 130 237 230 186 165 161 130 237 230 186 165 161 130 168 164 133 168 164 133 168 164 133 168 164 133 163 161 130 163 161 130 163 161 130 234 231 186 234 231 186 234 231 186 240 235 191 240 235 191 240 235 191 240 235 191 237 230 186 237 230 186 237 230 186 237 230 186 232 225 178 232 225 178 232 225 178 162 157 124 228 229 164 162 157 124 162 157 124 162 157 124 162 157 124 162 157 124 162 157 124 165 161 130 168 164 133 168 164 133 168 164 133 163 161 130 156 159 126 156 159 126 150 155 123 150 155 123 136 144 112 136 144 112 129 139 105 129 139 102 129 139 102 122 136 98 122 136 98 116 134 93 116 134 93 154 190 126 154 190 126 100 130 83 143 187 119 100 130 83 108 140 88 108 140 88 155 200 126 123 150 100 176 215 143 151 156 114 216 224 164 243 234 208 243 234 208 243 234 208 243 234 208 221 240 230 221 240 230 221 240 230 154 168 161 154 168 161 221 240 230 154 168 161 154 168 161 154 168 161 208 240 255 130 163 178 186 234 255 130 163 178 121 158 178 121 158 178 116 156 172 121 158 178 116 156 172 116 156 172 159 221 240 159 221 240 159 221 240 111 154 168 159 221 240 105 149 167 151 214 239 151 214 239 151 214 239 105 149 167 151 214 239 159 221 240 159 221 240 159 221 240 105 149 167 105 149 167 105 149 167 105 149 167 105 149 167 105 149 167 151 214 239 105 149 167 105 149 167 105 149 167 105 149 167 151 214 239 100 142 166 100 142 166 100 142 166 144 204 238 100 142 166 100 142 166 96 138 171 96 138 171 96 138 171 138 198 245 138 198 245 96 138 171 91 135 168 91 135 168 91 135 168 130 194 240 130 194 240 91 135 168 91 135 168 85 133 166 85 133 166 115 184 235 115 184 235 76 126 161 76 126 161 76 126 161 76 126 161 109 180 231 76 126 161 76 126 161 71 122 158 71 122 158 71 122 158 102 175 227 66 119 156 95 171 224 66 119 156 66 119 156 63 118 154 63 118 154 91 169 221 58 116 152 55 113 149 55 113 149 55 113 149

240 235 191 168 164 133 168 164 133 237 230 186 237 230 186 165 161 130 232 225 178 165 161 130 237 230 186 232 225 178 165 161 130 237 230 186 237 230 186 237 230 186 165 161 130 165 161 130 237 230 186 240 235 191 237 230 186 240 235 191 240 235 191 240 235 191 240 235 191 163 161 130 156 159 126 224 228 180 224 228 180 224 228 180 156 159 126 224 228 180 215 222 176 150 155 123 150 155 123 143 150 119 205 215 171 143 150 119 143 150 119 143 150 119 143 150 119 136 144 112 136 144 112 129 139 105 129 139 105 195 206 160 185 199 150 185 199 150 129 139 105 185 199 146 185 199 146 122 136 98 175 195 141 122 136 98 175 195 141 166 192 134 166 192 134 166 192 134 166 192 134 116 134 93 166 192 134 166 192 134 166 192 134 166 192 134 166 192 134 166 192 134 166 192 134 175 195 141 175 195 141 175 195 141 175 195 141 175 195 141 175 195 141 175 195 141 185 199 146 185 199 146 185 199 146 185 199 146 185 199 150 185 199 150 185 199 150 185 199 150 185 199 150 195 206 160 205 215 171 205 215 171 143 150 119 205 215 171 215 222 176 215 222 176 215 222 176 215 222 176 224 228 180 224 228 180 234 231 186 234 231 186 240 235 191 240 235 191 240 235 191 240 235 191 237 230 186 237 230 186 237 230 186 237 230 186 168 164 133 168 164 133 168 164 133 168 164 133 168 164 133 163 161 130 163 161 130 163 161 130 234 231 186 163 161 130 234 231 186 234 231 186 240 235 191 240 235 191 240 235 191 240 235 191 168 164 133 237 230 186 237 230 186 237 230 186 232 225 178 232 225 178 162 157 124 162 157 124 162 157 124 162 157 124 232 225 178 162 157 124 162 157 124 165 161 130 165 161 130 165 161 130 168 164 133 168 164 133 163 161 130 156 159 126 156 159 126 156 159 126 150 155 123 150 155 123 136 144 112 136 144 112 129 139 105 129 139 102 129 139 102 122 136 98 122 136 98 116 134 93 116 134 93 116 134 93 154 190 126 107 133 88 100 130 83 108 140 88 108 140 88 108 140 88 155 200 126 123 150 100 176 215 143 151 156 114 216 224 164 216 224 164 216 224 164 216 224 164 243 234 208 170 163 145 243 234 208 243 234 208 243 234 208 221 240 230 154 168 161 154 168 161 154 168 161 154 168 161 145 168 178 145 168 178 208 240 255 186 234 255 186 234 255 174 227 255 174 227 255 174 227 255 174 227 255 166 224 247 166 224 247 111 154 168 111 154 168 111 154 168 159 221 240 105 149 167 151 214 239 151 214 239 159 221 240 105 149 167 151 214 239 159 221 240 159 221 240 159 221 240 111 154 168 105 149 167 105 149 167 151 214 239 105 149 167 151 214 239 151 214 239 105 149 167 105 149 167 105 149 167 105 149 167 105 149 167 100 142 166 100 142 166 100 142 166 100 142 166 100 142 166 144 204 238 144 204 238 96 138 171 96 138 171 138 198 245 138 198 245 91 135 168 91 135 168 91 135 168 91 135 168 130 194 240 91 135 168 130 194 240 130 194 240 130 194 240 85 133 166 80 128 164 115 184 235 76 126 161 76 126 161 76 126 161 76 126 161 109 180 231 109 180 231 76 126 161 71 122 158 102 175 227 102 175 227 102 175 227 66 119 156 95 171 224 66 119 156 63 118 154 63 118 154 63 118 154 91 169 221 58 116 152 83 166 218 79 162 214 79 162 214

234 231 186 168 164 133 168 164 133 240 235 191 237 230 186 165 161 130 237 230 186 165 161 130 232 225 178 232 225 178 232 225 178 237 230 186 237 230 186 165 161 130 165 161 130 237 230 186 237 230 186 237 230 186 237 230 186 168 164 133 168 164 133 168 164 133 163 161 130 163 161 130 163 161 130 156 159 126 156 159 126 156 159 126 224 228 180 224 228 180 150 155 123 150 155 123 150 155 123 215 222 176 205 215 171 143 150 119 205 215 171 143 150 119 143 150 119 205 215 171 195 206 160 136 144 112 185 199 150 195 206 160 129 139 105 195 206 160 185 199 150 185 199 150 129 139 102 129 139 102 175 195 141 122 136 98 175 195 141 122 136 98 175 195 141 116 134 93 166 192 134 175 195 141 175 195 141 175 195 141 166 192 134 175 195 141 175 195 141 175 195 141 175 195 141 175 195 141 175 195 141 175 195 141 175 195 141 175 195 141 185 199 146 185 199 146 185 199 146 185 199 146 185 199 146 185 199 146 185 199 146 129 139 102 185 199 150 129 139 105 129 139 105 195 206 160 195 206 160 205 215 171 143 150 119 205 215 171 215 222 176 215 222 176 150 155 123 215 222 176 215 222 176 156 159 126 224 228 180 234 231 186 234 231 186 240 235 191 240 235 191 240 235 191 240 235 191 237 230 186 168 164 133 168 164 133 168 164 133 168 164 133 240 235 191 168 164 133 240 235 191 240 235 191 163 161 130 163 161 130 234 231 186 234 231 186 234 231 186 240 235 191 240 235 191 240 235 191 240 235 191 240 235 191 237 230 186 237 230 186 237 230 186 232 225 178 232 225 178 232 225 178 232 225 178 232 225 178 162 157 124 162 157 124 162 157 124 162 157 124 165 161 130 165 161 130 165 161 130 168 164 133 168 164 133 168 164 133 163 161 130 163 161 130 224 228 180 156 159 126 150 155 123 143 150 119 143 150 119 129 139 105 129 139 105 129 139 102 129 139 102 129 139 102 122 136 98 116 134 93 116 134 93 116 134 93 107 133 88 107 133 88 100 130 83 108 140 88 108 140 88 155 200 126 123 150 100 108 140 88 176 215 143 176 215 143 176 215 143 176 215 143 216 224 164 216 224 164 170 163 145 216 224 164 243 234 208 243 234 208 243 234 208 243 234 208 221 240 230 221 240 230 221 240 230 221 240 230 221 240 230 208 240 255 208 240 255 208 240 255 130 163 178 130 163 178 174 227 255 174 227 255 121 158 178 116 156 172 116 156 172 166 224 247 159 221 240 159 221 240 111 154 168 159 221 240 159 221 240 159 221 240 159 221 240 105 149 167 151 214 239 151 214 239 105 149 167 105 149 167 105 149 167 105 149 167 105 149 167 151 214 239 151 214 239 151 214 239 105 149 167 159 221 240 151 214 239 151 214 239 151 214 239 151 214 239 151 214 239 144 204 238 144 204 238 100 142 166 96 138 171 100 142 166 144 204 238 96 138 171 96 138 171 96 138 171 91 135 168 91 135 168 91 135 168 91 135 168 130 194 240 130 194 240 91 135 168 130 194 240 91 135 168 91 135 168 85 133 166 85 133 166 80 128 164 76 126 161 109 180 231 109 180 231 109 180 231 109 180 231 109 180 231 76 126 161 71 122 158 102 175 227 102 175 227 102 175 227 66 119 156 66 119 156 66 119 156 63 118 154 63 118 154 91 169 221 58 116 152 58 116 152 58 116 152 58 116 152 55 113 149

234 231 186 163 161 130 163 161 130 240 235 191 240 235 191 237 230 186 237 230 186 237 230 186 232 225 178 232 225 178 232 225 178 165 161 130 165 161 130 165 161 130 165 161 130 237 230 186 237 230 186 237 230 186 165 161 130 168 164 133 237 230 186 168 164 133 163 161 130 234 231 186 240 235 191 234 231 186 224 228 180 224 228 180 224 228 180 224 228 180 150 155 123 150 155 123 150 155 123 215 222 176 143 150 119 143 150 119 143 150 119 143 150 119 205 215 171 136 144 112 143 150 119 136 144 112 195 206 160 195 206 160 195 206 160 195 206 160 129 139 105 129 139 105 129 139 102 129 139 102 122 136 98 122 136 98 175 195 141 175 195 141 175 195 141 175 195 141 166 192 134 175 195 141 116 134 93 175 195 141 175 195 141 175 195 141 175 195 141 175 195 141 185 199 146 185 199 146 185 199 146 185 199 146 185 199 146 185 199 146 185 199 150 185 199 146 185 199 150 129 139 102 129 139 102 185 199 146 185 199 146 185 199 146 185 199 150 185 199 150 185 199 150 195 206 160 195 206 160 205 215 171 205 215 171 205 215 171 215 222 176 215 222 176 215 222 176 215 222 176 150 155 123 215 222 176 224 228 180 234 231 186 234 231 186 240 235 191 237 230 186 237 230 186 237 230 186 237 230 186 237 230 186 237 230 186 237 230 186 240 235 191 240 235 191 240 235 191 240 235 191 163 161 130 163 161 130 234 231 186 234 231 186 234 231 186 240 235 191 240 235 191 240 235 191 240 235 191 240 235 191 240 235 191 237 230 186 237 230 186 232 225 178 232 225 178 232 225 178 232 225 178 232 225 178 162 157 124 162 157 124 162 157 124 162 157 124 162 157 124 232 225 178 165 161 130 165 161 130 168 164 133 237 230 186 168 164 133 240 235 191 163 161 130 156 159 126 156 159 126 156 159 126 143 150 119 143 150 119 136 144 112 129 139 105 129 139 102 129 139 102 122 136 98 122 136 98 116 134 93 116 134 93 166 192 134 166 192 134 107 133 88 107 133 88 143 187 119 155 200 126 155 200 126 155 200 126 176 215 143 155 200 126 123 150 100 176 215 143 176 215 143 176 215 143 216 224 164 216 224 164 216 224 164 216 224 164 216 224 164 216 224 164 243 234 208 243 234 208 221 240 230 221 240 230 221 240 230 243 234 208 154 168 161 221 240 230 208 240 255 208 240 255 186 234 255 186 234 255 121 158 178 121 158 178 174 227 255 166 224 247 111 154 168 111 154 168 159 221 240 159 221 240 159 221 240 166 224 247 111 154 168 105 149 167 105 149 167 151 214 239 151 214 239 105 149 167 151 214 239 105 149 167 105 149 167 105 149 167 151 214 239 151 214 239 105 149 167 105 149 167 159 221 240 159 221 240 159 221 240 159 221 240 105 149 167 105 149 167 100 142 166 100 142 166 100 142 166 144 204 238 144 204 238 144 204 238 96 138 171 138 198 245 96 138 171 91 135 168 91 135 168 85 133 166 85 133 166 85 133 166 91 135 168 130 194 240 130 194 240 130 194 240 130 194 240 130 194 240 85 133 166 80 128 164 76 126 161 109 180 231 76 126 161 109 180 231 109 180 231 109 180 231 71 122 158 76 126 161 102 175 227 102 175 227 71 122 158 66 119 156 95 171 224 63 118 154 63 118 154 63 118 154 91 169 221 58 116 152 58 116 152 58 116 152 55 113 149 55 113 149

234 231 186 234 231 186 234 231 186 234 231 186 240 235 191 237 230 186 165 161 130 237 230 186 237 230 186 165 161 130 165 161 130 165 161 130 165 161 130 237 230 186 237 230 186 237 230 186 237 230 186 165 161 130 165 161 130 168 164 133 237 230 186 168 164 133 240 235 191 234 231 186 163 161 130 163 161 130 156 159 126 156 159 126 224 228 180 224 228 180 224 228 180 215 222 176 215 222 176 215 222 176 143 150 119 143 150 119 143 150 119 205 215 171 136 144 112 136 144 112 136 144 112 136 144 112 136 144 112 195 206 160 195 206 160 136 144 112 195 206 160 129 139 105 129 139 102 129 139 102 122 136 98 175 195 141 122 136 98 122 136 98 175 195 141 122 136 98 175 195 141 166 192 134 116 134 93 175 195 141 175 195 141 175 195 141 175 195 141 185 199 146 185 199 146 129 139 102 185 199 146 185 199 146 185 199 146 185 199 150 185 199 150 185 199 150 129 139 102 129 139 102 185 199 146 129 139 102 185 199 146 129 139 102 185 199 150 185 199 150 185 199 150 195 206 160 195 206 160 205 215 171 205 215 171 143 150 119 205 215 171 215 222 176 215 222 176 215 222 176 215 222 176 215 222 176 224 228 180 224 228 180 234 231 186 240 235 191 240 235 191 168 164 133 237 230 186 165 161 130 237 230 186 165 161 130 168 164 133 168 164 133 168 164 133 240 235 191 168 164 133 163 161 130 240 235 191 240 235 191 240 235 191 240 235 191 240 235 191 240 235 191 240 235 191 237 230 186 237 230 186 237 230 186 237 230 186 237 230 186 237 230 186 162 157 124 165 161 130 232 225 178 162 157 124 162 157 124 232 225 178 162 157 124 162 157 124 162 157 124 232 225 178 165 161 130 165 161 130 168 164 133 168 164 133 168 164 133 163 161 130 163 161 130 156 159 126 156 159 126 150 155 123 150 155 123 136 144 112 136 144 112 129 139 105 129 139 102 122 136 98 122 136 98 122 136 98 122 136 98 116 134 93 166 192 134 166 192 134 107 133 88 107 133 88 100 130 83 143 187 119 143 187 119 155 200 126 108 140 88 155 200 126 123 150 100 176 215 143 176 215 143 176 215 143 123 150 100 176 215 143 216 224 164 216 224 164 216 224 164 151 156 114 170 163 145 170 163 145 243 234 208 243 234 208 221 240 230 221 240 230 154 168 161 221 240 230 145 168 178 145 168 178 130 163 178 130 163 178 130 163 178 174 227 255 116 156 172 116 156 172 116 156 172 159 221 240 159 221 240 111 154 168 159 221 240 111 154 168 111 154 168 105 149 167 151 214 239 151 214 239 151 214 239 105 149 167 151 214 239 105 149 167 151 214 239 151 214 239 151 214 239 151 214 239 105 149 167 151 214 239 151 214 239 111 154 168 111 154 168 105 149 167 105 149 167 151 214 239 105 149 167 100 142 166 100 142 166 100 142 166 144 204 238 144 204 238 100 142 166 138 198 245 96 138 171 91 135 168 91 135 168 130 194 240 85 133 166 130 194 240 130 194 240 130 194 240 91 135 168 85 133 166 85 133 166 85 133 166 85 133 166 80 128 164 76 126 161 76 126 161 76 126 161 76 126 161 76 126 161 71 122 158 76 126 161 71 122 158 71 122 158 71 122 158 66 119 156 66 119 156 66 119 156 66 119 156 63 118 154 91 169 221 91 169 221 91 169 221 91 169 221 83 166 218 83 166 218 83 166 218

234 231 186 163 161 130 234 231 186 163 161 130 240 235 191 168 164 133 165 161 130 237 230 186 165 161 130 237 230 186 237 230 186 165 161 130 165 161 130 237 230 186 237 230 186 237 230 186 237 230 186 168 164 133 168 164 133 168 164 133 237 230 186 168 164 133 168 164 133 168 164 133 163 161 130 234 231 186 234 231 186 234 231 186 224 228 180 156 159 126 156 159 126 150 155 123 150 155 123 150 155 123 150 155 123 205 215 171 143 150 119 143 150 119 136 144 112 136 144 112 136 144 112 195 206 160 195 206 160 195 206 160 205 215 171 195 206 160 195 206 160 129 139 105 185 199 150 185 199 146 185 199 146 185 199 146 175 195 141 175 195 141 122 136 98 175 195 141 175 195 141 122 136 98 166 192 134 166 192 134 175 195 141 175 195 141 175 195 141 185 199 146 185 199 146 185 199 146 185 199 146 185 199 150 185 199 150 185 199 150 185 199 150 185 199 150 129 139 102 185 199 150 185 199 146 185 199 146 185 199 146 129 139 102 185 199 150 185 199 150 195 206 160 195 206 160 195 206 160 195 206 160 205 215 171 143 150 119 205 215 171 205 215 171 215 222 176 215 222 176 215 222 176 224 228 180 224 228 180 224 228 180 234 231 186 234 231 186 163 161 130 240 235 191 240 235 191 237 230 186 237 230 186 237 230 186 237 230 186 168 164 133 168 164 133 168 164 133 168 164 133 163 161 130 234 231 186 240 235 191 240 235 191 240 235 191 237 230 186 237 230 186 237 230 186 237 230 186 237 230 186 237 230 186 237 230 186 237 230 186 237 230 186 165 161 130 165 161 130 237 230 186 232 225 178 232 225 178 232 225 178 232 225 178 232 225 178 232 225 178 232 225 178 165 161 130 165 161 130 168 164 133 168 164 133 163 161 130 163 161 130 156 159 126 156 159 126 224 228 180 150 155 123 143 150 119 143 150 119 136 144 112 129 139 105 129 139 102 129 139 102 185 199 146 175 195 141 122 136 98 116 134 93 166 192 134 116 134 93 107 133 88 154 190 126 100 130 83 100 130 83 100 130 83 108 140 88 155 200 126 155 200 126 123 150 100 176 215 143 123 150 100 123 150 100 176 215 143 176 215 143 176 215 143 176 215 143 216 224 164 151 156 114 170 163 145 243 234 208 243 234 208 243 234 208 170 163 145 243 234 208 154 168 161 221 240 230 154 168 161 208 240 255 130 163 178 130 163 178 121 158 178 121 158 178 116 156 172 116 156 172 111 154 168 111 154 168 111 154 168 159 221 240 159 221 240 159 221 240 111 154 168 159 221 240 159 221 240 151 214 239 151 214 239 151 214 239 105 149 167 105 149 167 151 214 239 151 214 239 151 214 239 105 149 167 105 149 167 151 214 239 105 149 167 151 214 239 105 149 167 105 149 167 105 149 167 151 214 239 105 149 167 100 142 166 100 142 166 100 142 166 144 204 238 144 204 238 100 142 166 96 138 171 96 138 171 91 135 168 91 135 168 91 135 168 85 133 166 122 190 238 130 194 240 130 194 240 85 133 166 85 133 166 85 133 166 85 133 166 80 128 164 80 128 164 76 126 161 76 126 161 109 180 231 109 180 231 71 122 158 109 180 231 102 175 227 71 122 158 102 175 227 66 119 156 66 119 156 66 119 156 66 119 156 95 171 224 95 171 224 95 171 224 91 169 221 95 171 224 91 169 221 91 169 221 91 169 221 91 169 221

234 231 186 234 231 186 234 231 186 163 161 130 234 231 186 168 164 133 240 235 191 168 164 133 237 230 186 237 230 186 165 161 130 237 230 186 237 230 186 237 230 186 237 230 186 165 161 130 168 164 133 168 164 133 237 230 186 237 230 186 168 164 133 168 164 133 163 161 130 163 161 130 163 161 130 234 231 186 234 231 186 163 161 130 234 231 186 156 159 126 156 159 126 156 159 126 150 155 123 150 155 123 150 155 123 143 150 119 143 150 119 136 144 112 205 215 171 205 215 171 195 206 160 195 206 160 195 206 160 205 215 171 195 206 160 136 144 112 136 144 112 136 144 112 185 199 150 185 199 150 129 139 102 185 199 146 185 199 146 185 199 146 122 136 98 175 195 141 175 195 141 122 136 98 175 195 141 175 195 141 175 195 141 175 195 141 185 199 146 185 199 146 185 199 146 185 199 150 185 199 146 185 199 150 185 199 150 185 199 150 185 199 150 185 199 150 185 199 150 185 199 150 185 199 150 185 199 150 185 199 146 185 199 150 185 199 150 185 199 150 195 206 160 195 206 160 195 206 160 195 206 160 205 215 171 205 215 171 205 215 171 205 215 171 215 222 176 215 222 176 215 222 176 215 222 176 224 228 180 224 228 180 234 231 186 234 231 186 234 231 186 240 235 191 168 164 133 168 164 133 168 164 133 168 164 133 168 164 133 168 164 133 240 235 191 240 235 191 240 235 191 240 235 191 240 235 191 240 235 191 240 235 191 240 235 191 237 230 186 237 230 186 237 230 186 237 230 186 232 225 178 237 230 186 237 230 186 165 161 130 237 230 186 165 161 130 237 230 186 237 230 186 232 225 178 165 161 130 165 161 130 165 161 130 232 225 178 165 161 130 165 161 130 165 161 130 168 164 133 168 164 133 168 164 133 163 161 130 163 161 130 156 159 126 156 159 126 150 155 123 150 155 123 143 150 119 143 150 119 136 144 112 129 139 105 129 139 102 129 139 102 122 136 98 122 136 98 122 136 98 116 134 93 116 134 93 116 134 93 166 192 134 107 133 88 100 130 83 100 130 83 100 130 83 100 130 83 108 140 88 155 200 126 155 200 126 155 200 126 155 200 126 176 215 143 176 215 143 176 215 143 176 215 143 176 215 143 123 150 100 216 224 164 216 224 164 216 224 164 243 234 208 243 234 208 170 163 145 243 234 208 154 168 161 154 168 161 154 168 161 145 168 178 130 163 178 121 158 178 121 158 178 116 156 172 116 156 172 166 224 247 116 156 172 166 224 247 111 154 168 111 154 168 111 154 168 111 154 168 111 154 168 111 154 168 111 154 168 105 149 167 151 214 239 151 214 239 105 149 167 105 149 167 151 214 239 151 214 239 105 149 167 151 214 239 105 149 167 105 149 167 151 214 239 105 149 167 105 149 167 151 214 239 105 149 167 105 149 167 105 149 167 151 214 239 144 204 238 144 204 238 144 204 238 144 204 238 144 204 238 96 138 171 96 138 171 91 135 168 130 194 240 91 135 168 130 194 240 130 194 240 130 194 240 91 135 168 85 133 166 122 190 238 85 133 166 122 190 238 85 133 166 80 128 164 115 184 235 76 126 161 109 180 231 109 180 231 76 126 161 109 180 231 71 122 158 71 122 158 71 122 158 66 119 156 66 119 156 95 171 224 66 119 156 95 171 224 95 171 224 66 119 156 95 171 224 95 171 224 63 118 154 91 169 221 91 169 221 91 169 221

234 231 186 156 159 126 234 231 186 234 231 186 234 231 186 163 161 130 163 161 130 163 161 130 168 164 133 237 230 186 237 230 186 232 225 178 232 225 178 165 161 130 165 161 130 165 161 130 237 230 186 240 235 191 240 235 191 168 164 133 168 164 133 168 164 133 240 235 191 234 231 186 234 231 186 234 231 186 240 235 191 163 161 130 234 231 186 156 159 126 156 159 126 224 228 180 150 155 123 150 155 123 150 155 123 143 150 119 143 150 119 143 150 119 195 206 160 205 215 171 205 215 171 205 215 171 205 215 171 205 215 171 143 150 119 195 206 160 136 144 112 129 139 105 129 139 105 129 139 105 129 139 105 185 199 146 185 199 146 129 139 102 122 136 98 175 195 141 175 195 141 175 195 141 175 195 141 175 195 141 175 195 141 175 195 141 185 199 146 185 199 146 185 199 150 185 199 150 185 199 150 185 199 150 185 199 150 185 199 150 195 206 160 129 139 105 195 206 160 185 199 150 185 199 150 185 199 150 185 199 150 185 199 150 185 199 150 185 199 150 195 206 160 195 206 160 195 206 160 195 206 160 205 215 171 205 215 171 205 215 171 205 215 171 215 222 176 215 222 176 150 155 123 150 155 123 224 228 180 234 231 186 234 231 186 234 231 186 234 231 186 234 231 186 163 161 130 240 235 191 240 235 191 240 235 191 240 235 191 240 235 191 237 230 186 240 235 191 240 235 191 240 235 191 237 230 186 240 235 191 240 235 191 240 235 191 240 235 191 237 230 186 237 230 186 237 230 186 232 225 178 232 225 178 237 230 186 237 230 186 165 161 130 165 161 130 237 230 186 237 230 186 232 225 178 165 161 130 165 161 130 165 161 130 237 230 186 165 161 130 237 230 186 165 161 130 237 230 186 168 164 133 163 161 130 163 161 130 163 161 130 156 159 126 150 155 123 150 155 123 150 155 123 143 150 119 136 144 112 136 144 112 129 139 105 129 139 102 129 139 102 122 136 98 122 136 98 122 136 98 116 134 93 116 134 93 116 134 93 166 192 134 107 133 88 107 133 88 143 187 119 143 187 119 100 130 83 108 140 88 155 200 126 155 200 126 155 200 126 155 200 126 155 200 126 155 200 126 155 200 126 176 215 143 123 150 100 176 215 143 176 215 143 216 224 164 216 224 164 170 163 145 243 234 208 170 163 145 154 168 161 154 168 161 221 240 230 221 240 230 154 168 161 130 163 178 121 158 178 121 158 178 116 156 172 116 156 172 116 156 172 116 156 172 111 154 168 111 154 168 111 154 168 111 154 168 105 149 167 159 221 240 111 154 168 105 149 167 105 149 167 151 214 239 159 221 240 105 149 167 105 149 167 105 149 167 105 149 167 105 149 167 151 214 239 105 149 167 105 149 167 105 149 167 105 149 167 151 214 239 151 214 239 105 149 167 105 149 167 100 142 166 151 214 239 100 142 166 151 214 239 144 204 238 144 204 238 100 142 166 100 142 166 138 198 245 138 198 245 91 135 168 91 135 168 130 194 240 130 194 240 130 194 240 91 135 168 85 133 166 85 133 166 85 133 166 122 190 238 85 133 166 80 128 164 80 128 164 80 128 164 109 180 231 109 180 231 76 126 161 109 180 231 71 122 158 71 122 158 66 119 156 66 119 156 66 119 156 66 119 156 95 171 224 102 175 227 95 171 224 66 119 156 95 171 224 102 175 227 95 171 224 95 171 224 95 171 224 95 171 224

234 231 186 156 159 126 234 231 186 234 231 186 163 161 130 163 161 130 234 231 186 163 161 130 240 235 191 240 235 191 237 230 186 237 230 186 165 161 130 165 161 130 237 230 186 237 230 186 237 230 186 237 230 186 237 230 186 237 230 186 237 230 186 237 230 186 240 235 191 240 235 191 234 231 186 234 231 186 240 235 191 163 161 130 163 161 130 156 159 126 156 159 126 156 159 126 150 155 123 150 155 123 143 150 119 143 150 119 143 150 119 205 215 171 205 215 171 205 215 171 205 215 171 205 215 171 205 215 171 205 215 171 136 144 112 136 144 112 129 139 105 136 144 112 185 199 150 129 139 105 129 139 102 129 139 102 129 139 102 129 139 102 185 199 146 175 195 141 175 195 141 122 136 98 175 195 141 122 136 98 175 195 141 185 199 146 185 199 146 185 199 150 185 199 150 185 199 150 185 199 150 185 199 150 185 199 150 195 206 160 195 206 160 195 206 160 185 199 150 129 139 105 129 139 105 129 139 105 185 199 150 195 206 160 195 206 160 195 206 160 195 206 160 195 206 160 195 206 160 205 215 171 205 215 171 205 215 171 205 215 171 215 222 176 215 222 176 150 155 123 215 222 176 215 222 176 224 228 180 224 228 180 234 231 186 234 231 186 234 231 186 234 231 186 234 231 186 240 235 191 168 164 133 168 164 133 240 235 191 240 235 191 240 235 191 237 230 186 237 230 186 240 235 191 240 235 191 168 164 133 240 235 191 240 235 191 237 230 186 237 230 186 237 230 186 165 161 130 165 161 130 165 161 130 165 161 130 165 161 130 165 161 130 237 230 186 237 230 186 165 161 130 165 161 130 165 161 130 237 230 186 237 230 186 165 161 130 165 161 130 165 161 130 165 161 130 168 164 133 168 164 133 163 161 130 163 161 130 163 161 130 156 159 126 150 155 123 150 155 123 143 150 119 143 150 119 136 144 112 129 139 105 129 139 102 129 139 102 122 136 98 122 136 98 116 134 93 122 136 98 116 134 93 116 134 93 107 133 88 107 133 88 107 133 88 107 133 88 107 133 88 100 130 83 143 187 119 143 187 119 155 200 126 155 200 126 155 200 126 108 140 88 155 200 126 155 200 126 155 200 126 108 140 88 155 200 126 176 215 143 123 150 100 123 150 100 151 156 114 151 156 114 170 163 145 170 163 145 154 168 161 154 168 161 154 168 161 154 168 161 145 168 178 130 163 178 121 158 178 121 158 178 116 156 172 116 156 172 116 156 172 111 154 168 116 156 172 111 154 168 159 221 240 159 221 240 105 149 167 159 221 240 111 154 168 105 149 167 151 214 239 151 214 239 159 221 240 105 149 167 151 214 239 105 149 167 151 214 239 100 142 166 100 142 166 105 149 167 151 214 239 151 214 239 151 214 239 151 214 239 151 214 239 105 149 167 105 149 167 100 142 166 144 204 238 100 142 166 144 204 238 100 142 166 100 142 166 100 142 166 100 142 166 96 138 171 96 138 171 91 135 168 130 194 240 130 194 240 130 194 240 130 194 240 130 194 240 85 133 166 122 190 238 122 190 238 122 190 238 85 133 166 80 128 164 80 128 164 76 126 161 76 126 161 109 180 231 76 126 161 76 126 161 71 122 158 71 122 158 66 119 156 66 119 156 95 171 224 95 171 224 95 171 224 95 171 224 66 119 156 95 171 224 102 175 227 95 171 224 66 119 156 95 171 224 95 171 224 95 171 224

234 231 186 234 231 186 234 231 186 163 161 130 163 161 130 234 231 186 234 231 186 163 161 130 234 231 186 240 235 191 237 230 186 237 230 186 232 225 178 237 230 186 232 225 178 237 230 186 232 225 178 237 230 186 237 230 186 165 161 130 237 230 186 165 161 130 237 230 186 240 235 191 168 164 133 240 235 191 240 235 191 163 161 130 163 161 130 156 159 126 156 159 126 150 155 123 150 155 123 150 155 123 143 150 119 205 215 171 205 215 171 205 215 171 205 215 171 143 150 119 205 215 171 205 215 171 205 215 171 205 215 171 136 144 112 136 144 112 129 139 105 129 139 105 129 139 105 129 139 105 129 139 102 185 199 150 185 199 150 185 199 146 185 199 146 122 136 98 122 136 98 122 136 98 122 136 98 175 195 141 175 195 141 185 199 146 185 199 146 185 199 146 185 199 150 185 199 150 195 206 160 195 206 160 195 206 160 195 206 160 129 139 105 129 139 105 195 206 160 195 206 160 129 139 105 185 199 150 195 206 160 195 206 160 195 206 160 195 206 160 195 206 160 195 206 160 205 215 171 205 215 171 205 215 171 215 222 176 215 222 176 215 222 176 215 222 176 150 155 123 215 222 176 215 222 176 224 228 180 224 228 180 234 231 186 234 231 186 234 231 186 234 231 186 240 235 191 240 235 191 240 235 191 240 235 191 237 230 186 240 235 191 237 230 186 237 230 186 237 230 186 237 230 186 237 230 186 237 230 186 237 230 186 237 230 186 237 230 186 237 230 186 237 230 186 168 164 133 168 164 133 237 230 186 165 161 130 168 164 133 237 230 186 237 230 186 237 230 186 165 161 130 165 161 130 168 164 133 237 230 186 165 161 130 165 161 130 165 161 130 165 161 130 168 164 133 168 164 133 168 164 133 168 164 133 163 161 130 163 161 130 156 159 126 150 155 123 143 150 119 143 150 119 136 144 112 129 139 105 129 139 105 129 139 102 122 136 98 122 136 98 116 134 93 116 134 93 116 134 93 116 134 93 107 133 88 107 133 88 107 133 88 107 133 88 154 190 126 100 130 83 100 130 83 143 187 119 143 187 119 143 187 119 155 200 126 155 200 126 108 140 88 108 140 88 155 200 126 155 200 126 108 140 88 155 200 126 123 150 100 123 150 100 151 156 114 151 156 114 151 156 114 151 156 114 243 234 208 170 163 145 221 240 230 154 168 161 154 168 161 145 168 178 130 163 178 121 158 178 121 158 178 174 227 255 166 224 247 116 156 172 166 224 247 166 224 247 111 154 168 159 221 240 159 221 240 159 221 240 159 221 240 159 221 240 159 221 240 159 221 240 151 214 239 151 214 239 105 149 167 105 149 167 105 149 167 100 142 166 100 142 166 100 142 166 144 204 238 151 214 239 105 149 167 151 214 239 151 214 239 151 214 239 105 149 167 100 142 166 100 142 166 144 204 238 144 204 238 100 142 166 100 142 166 144 204 238 100 142 166 96 138 171 96 138 171 144 204 238 96 138 171 130 194 240 130 194 240 130 194 240 130 194 240 130 194 240 91 135 168 130 194 240 122 190 238 122 190 238 122 190 238 80 128 164 80 128 164 115 184 235 76 126 161 76 126 161 76 126 161 71 122 158 71 122 158 71 122 158 66 119 156 66 119 156 95 171 224 66 119 156 95 171 224 95 171 224 102 175 227 95 171 224 102 175 227 102 175 227 102 175 227 102 175 227 102 175 227 102 175 227

224 228 180 156 159 126 156 159 126 156 159 126 234 231 186 234 231 186 234 231 186 234 231 186 240 235 191 240 235 191 237 230 186 237 230 186 237 230 186 162 157 124 232 225 178 232 225 178 232 225 178 162 157 124 237 230 186 165 161 130 237 230 186 237 230 186 237 230 186 237 230 186 237 230 186 240 235 191 240 235 191 168 164 133 163 161 130 156 159 126 156 159 126 150 155 123 150 155 123 150 155 123 215 222 176 215 222 176 205 215 171 143 150 119 143 150 119 205 215 171 205 215 171 205 215 171 143 150 119 143 150 119 136 144 112 136 144 112 136 144 112 185 199 150 129 139 105 129 139 105 129 139 102 185 199 146 129 139 102 129 139 102 122 136 98 122 136 98 122 136 98 175 195 141 175 195 141 175 195 141 175 195 141 185 199 146 185 199 146 185 199 150 185 199 150 185 199 150 195 206 160 195 206 160 195 206 160 136 144 112 195 206 160 195 206 160 195 206 160 195 206 160 129 139 105 195 206 160 195 206 160 195 206 160 195 206 160 195 206 160 195 206 160 195 206 160 205 215 171 205 215 171 215 222 176 215 222 176 215 222 176 215 222 176 215 222 176 215 222 176 215 222 176 224 228 180 224 228 180 234 231 186 234 231 186 234 231 186 234 231 186 234 231 186 234 231 186 240 235 191 240 235 191 240 235 191 237 230 186 165 161 130 237 230 186 237 230 186 165 161 130 237 230 186 237 230 186 237 230 186 237 230 186 237 230 186 237 230 186 237 230 186 237 230 186 168 164 133 237 230 186 237 230 186 165 161 130 165 161 130 240 235 191 237 230 186 168 164 133 168 164 133 168 164 133 168 164 133 237 230 186 165 161 130 168 164 133 168 164 133 168 164 133 168 164 133 163 161 130 163 161 130 163 161 130 163 161 130 156 159 126 156 159 126 150 155 123 143 150 119 143 150 119 136 144 112 129 139 105 129 139 102 129 139 102 122 136 98 116 134 93 116 134 93 166 192 134 116 134 93 116 134 93 107 133 88 107 133 88 107 133 88 100 130 83 100 130 83 100 130 83 100 130 83 143 187 119 143 187 119 100 130 83 100 130 83 108 140 88 155 200 126 155 200 126 155 200 126 155 200 126 155 200 126 155 200 126 108 140 88 123 150 100 176 215 143 151 156 114 151 156 114 170 163 145 170 163 145 170 163 145 154 168 161 154 168 161 154 168 161 145 168 178 130 163 178 121 158 178 121 158 178 116 156 172 116 156 172 116 156 172 166 224 247 166 224 247 166 224 247 166 224 247 166 224 247 159 221 240 159 221 240 159 221 240 159 221 240 159 221 240 159 221 240 105 149 167 105 149 167 105 149 167 105 149 167 100 142 166 100 142 166 100 142 166 151 214 239 151 214 239 151 214 239 151 214 239 151 214 239 151 214 239 105 149 167 151 214 239 151 214 239 144 204 238 100 142 166 100 142 166 144 204 238 100 142 166 96 138 171 96 138 171 138 198 245 144 204 238 96 138 171 138 198 245 138 198 245 91 135 168 138 198 245 130 194 240 130 194 240 130 194 240 130 194 240 122 190 238 85 133 166 80 128 164 80 128 164 76 126 161 76 126 161 76 126 161 71 122 158 71 122 158 71 122 158 71 122 158 66 119 156 66 119 156 63 118 154 95 171 224 95 171 224 95 171 224 95 171 224 102 175 227 102 175 227 102 175 227 102 175 227 109 180 231 109 180 231 109 180 231

215 222 176 156 159 126 156 159 126 156 159 126 234 231 186 156 159 126 163 161 130 163 161 130 234 231 186 240 235 191 237 230 186 237 230 186 237 230 186 237 230 186 165 161 130 232 225 178 232 225 178 232 225 178 165 161 130 237 230 186 232 225 178 165 161 130 237 230 186 237 230 186 237 230 186 165 161 130 168 164 133 163 161 130 163 161 130 163 161 130 156 159 126 156 159 126 150 155 123 150 155 123 215 222 176 215 222 176 215 222 176 215 222 176 205 215 171 205 215 171 215 222 176 205 215 171 143 150 119 136 144 112 136 144 112 195 206 160 129 139 105 129 139 105 129 139 105 185 199 150 129 139 102 185 199 146 185 199 146 185 199 146 122 136 98 175 195 141 122 136 98 175 195 141 175 195 141 175 195 141 175 195 141 175 195 141 185 199 146 185 199 146 185 199 150 195 206 160 195 206 160 195 206 160 205 215 171 195 206 160 195 206 160 136 144 112 195 206 160 195 206 160 195 206 160 195 206 160 205 215 171 195 206 160 195 206 160 195 206 160 205 215 171 205 215 171 205 215 171 205 215 171 215 222 176 215 222 176 215 222 176 215 222 176 224 228 180 215 222 176 215 222 176 224 228 180 224 228 180 224 228 180 156 159 126 234 231 186 240 235 191 240 235 191 240 235 191 240 235 191 240 235 191 240 235 191 237 230 186 237 230 186 237 230 186 237 230 186 165 161 130 237 230 186 237 230 186 237 230 186 165 161 130 237 230 186 237 230 186 165 161 130 165 161 130 237 230 186 168 164 133 168 164 133 168 164 133 237 230 186 237 230 186 168 164 133 168 164 133 168 164 133 168 164 133 168 164 133 237 230 186 237 230 186 237 230 186 168 164 133 168 164 133 168 164 133 163 161 130 163 161 130 156 159 126 156 159 126 163 161 130 150 155 123 143 150 119 143 150 119 143 150 119 136 144 112 129 139 105 129 139 102 122 136 98 122 136 98 122 136 98 166 192 134 116 134 93 107 133 88 166 192 134 107 133 88 107 133 88 107 133 88 100 130 83 100 130 83 100 130 83 108 140 88 100 130 83 100 130 83 154 190 126 143 187 119 143 187 119 143 187 119 143 187 119 155 200 126 155 200 126 155 200 126 155 200 126 155 200 126 123 150 100 151 156 114 151 156 114 216 224 164 216 224 164 216 224 164 170 163 145 170 163 145 154 168 161 221 240 230 145 168 178 130 163 178 130 163 178 121 158 178 116 156 172 166 224 247 174 227 255 166 224 247 174 227 255 166 224 247 166 224 247 116 156 172 166 224 247 166 224 247 159 221 240 159 221 240 159 221 240 105 149 167 105 149 167 105 149 167 100 142 166 100 142 166 100 142 166 144 204 238 144 204 238 144 204 238 151 214 239 105 149 167 151 214 239 105 149 167 105 149 167 105 149 167 151 214 239 105 149 167 100 142 166 100 142 166 151 214 239 100 142 166 96 138 171 96 138 171 144 204 238 138 198 245 144 204 238 96 138 171 144 204 238 138 198 245 138 198 245 138 198 245 138 198 245 138 198 245 138 198 245 91 135 168 130 194 240 80 128 164 80 128 164 76 126 161 76 126 161 71 122 158 71 122 158 66 119 156 71 122 158 71 122 158 71 122 158 66 119 156 66 119 156 63 118 154 95 171 224 95 171 224 95 171 224 102 175 227 102 175 227 102 175 227 109 180 231 109 180 231 109 180 231 109 180 231 115 184 235

224 228 180 215 222 176 224 228 180 224 228 180 224 228 180 156 159 126 234 231 186 234 231 186 234 231 186 240 235 191 237 230 186 237 230 186 165 161 130 237 230 186 165 161 130 232 225 178 162 157 124 165 161 130 165 161 130 237 230 186 165 161 130 165 161 130 237 230 186 165 161 130 168 164 133 168 164 133 168 164 133 163 161 130 163 161 130 163 161 130 156 159 126 150 155 123 150 155 123 215 222 176 215 222 176 150 155 123 150 155 123 215 222 176 215 222 176 215 222 176 215 222 176 143 150 119 143 150 119 136 144 112 136 144 112 136 144 112 129 139 105 129 139 105 185 199 150 129 139 105 129 139 105 129 139 102 129 139 102 129 139 102 129 139 102 175 195 141 175 195 141 175 195 141 175 195 141 175 195 141 175 195 141 185 199 146 185 199 146 185 199 150 185 199 150 195 206 160 195 206 160 195 206 160 195 206 160 205 215 171 205 215 171 205 215 171 195 206 160 195 206 160 195 206 160 205 215 171 205 215 171 136 144 112 136 144 112 205 215 171 205 215 171 205 215 171 205 215 171 215 222 176 215 222 176 215 222 176 215 222 176 224 228 180 224 228 180 224 228 180 224 228 180 224 228 180 224 228 180 224 228 180 224 228 180 234 231 186 234 231 186 163 161 130 163 161 130 240 235 191 240 235 191 240 235 191 240 235 191 165 161 130 237 230 186 165 161 130 237 230 186 237 230 186 237 230 186 237 230 186 232 225 178 237 230 186 165 161 130 165 161 130 237 230 186 237 230 186 237 230 186 240 235 191 168 164 133 240 235 191 168 164 133 168 164 133 168 164 133 168 164 133 168 164 133 240 235 191 240 235 191 168 164 133 168 164 133 168 164 133 163 161 130 163 161 130 163 161 130 163 161 130 156 159 126 156 159 126 150 155 123 150 155 123 143 150 119 143 150 119 136 144 112 129 139 105 129 139 102 122 136 98 122 136 98 122 136 98 116 134 93 116 134 93 116 134 93 116 134 93 107 133 88 107 133 88 100 130 83 100 130 83 100 130 83 100 130 83 108 140 88 108 140 88 143 187 119 143 187 119 143 187 119 100 130 83 100 130 83 143 187 119 143 187 119 108 140 88 108 140 88 155 200 126 108 140 88 108 140 88 123 150 100 123 150 100 176 215 143 151 156 114 151 156 114 151 156 114 170 163 145 154 168 161 154 168 161 221 240 230 145 168 178 208 240 255 186 234 255 121 158 178 174 227 255 174 227 255 174 227 255 174 227 255 174 227 255 116 156 172 166 224 247 166 224 247 166 224 247 166 224 247 111 154 168 159 221 240 111 154 168 111 154 168 105 149 167 105 149 167 151 214 239 144 204 238 144 204 238 151 214 239 100 142 166 144 204 238 144 204 238 151 214 239 151 214 239 105 149 167 105 149 167 100 142 166 100 142 166 105 149 167 100 142 166 100 142 166 100 142 166 100 142 166 96 138 171 138 198 245 138 198 245 144 204 238 144 204 238 96 138 171 144 204 238 100 142 166 96 138 171 138 198 245 96 138 171 96 138 171 91 135 168 91 135 168 91 135 168 80 128 164 80 128 164 76 126 161 76 126 161 71 122 158 71 122 158 66 119 156 66 119 156 66 119 156 66 119 156 66 119 156 95 171 224 95 171 224 95 171 224 95 171 224 102 175 227 102 175 227 102 175 227 102 175 227 109 180 231 109 180 231 109 180 231 109 180 231 115 184 235

224 228 180 224 228 180 215 222 176 150 155 123 224 228 180 156 159 126 234 231 186 234 231 186 234 231 186 234 231 186 240 235 191 168 164 133 237 230 186 232 225 178 232 225 178 237 230 186 165 161 130 165 161 130 165 161 130 165 161 130 168 164 133 168 164 133 165 161 130 168 164 133 168 164 133 168 164 133 163 161 130 163 161 130 163 161 130 163 161 130 156 159 126 150 155 123 150 155 123 215 222 176 215 222 176 215 222 176 215 222 176 215 222 176 215 222 176 215 222 176 215 222 176 143 150 119 143 150 119 136 144 112 136 144 112 195 206 160 129 139 105 185 199 150 195 206 160 185 199 150 129 139 105 129 139 102 129 139 102 129 139 102 129 139 102 122 136 98 185 199 146 185 199 146 185 199 146 185 199 146 185 199 146 185 199 150 185 199 150 185 199 150 195 206 160 195 206 160 195 206 160 195 206 160 205 215 171 205 215 171 205 215 171 205 215 171 205 215 171 205 215 171 205 215 171 205 215 171 205 215 171 205 215 171 205 215 171 205 215 171 205 215 171 205 215 171 215 222 176 215 222 176 215 222 176 215 222 176 224 228 180 224 228 180 224 228 180 224 228 180 224 228 180 224 228 180 224 228 180 234 231 186 234 231 186 234 231 186 234 231 186 163 161 130 234 231 186 240 235 191 240 235 191 240 235 191 168 164 133 240 235 191 237 230 186 237 230 186 237 230 186 237 230 186 237 230 186 237 230 186 232 225 178 232 225 178 165 161 130 165 161 130 168 164 133 237 230 186 168 164 133 168 164 133 168 164 133 240 235 191 168 164 133 168 164 133 240 235 191 163 161 130 163 161 130 163 161 130 168 164 133 163 161 130 163 161 130 163 161 130 163 161 130 163 161 130 163 161 130 156 159 126 156 159 126 156 159 126 150 155 123 150 155 123 143 150 119 136 144 112 136 144 112 129 139 105 129 139 102 122 136 98 122 136 98 116 134 93 116 134 93 116 134 93 107 133 88 107 133 88 107 133 88 107 133 88 107 133 88 100 130 83 100 130 83 108 140 88 108 140 88 143 187 119 143 187 119 100 130 83 100 130 83 143 187 119 100 130 83 108 140 88 143 187 119 108 140 88 143 187 119 155 200 126 108 140 88 123 150 100 123 150 100 176 215 143 176 215 143 151 156 114 216 224 164 170 163 145 170 163 145 170 163 145 243 234 208 221 240 230 221 240 230 145 168 178 145 168 178 130 163 178 186 234 255 174 227 255 174 227 255 174 227 255 174 227 255 174 227 255 174 227 255 166 224 247 166 224 247 166 224 247 166 224 247 159 221 240 159 221 240 159 221 240 159 221 240 105 149 167 151 214 239 151 214 239 151 214 239 144 204 238 100 142 166 144 204 238 151 214 239 144 204 238 100 142 166 100 142 166 100 142 166 100 142 166 100 142 166 100 142 166 100 142 166 100 142 166 100 142 166 96 138 171 96 138 171 138 198 245 144 204 238 138 198 245 96 138 171 96 138 171 144 204 238 144 204 238 96 138 171 138 198 245 96 138 171 96 138 171 138 198 245 91 135 168 85 133 166 85 133 166 80 128 164 76 126 161 76 126 161 71 122 158 71 122 158 66 119 156 66 119 156 95 171 224 95 171 224 102 175 227 102 175 227 102 175 227 102 175 227 95 171 224 102 175 227 102 175 227 109 180 231 102 175 227 109 180 231 109 180 231 109 180 231 109 180 231 76 126 161

215 222 176 150 155 123 150 155 123 224 228 180 224 228 180 224 228 180 234 231 186 234 231 186 234 231 186 240 235 191 240 235 191 240 235 191 237 230 186 237 230 186 232 225 178 165 161 130 165 161 130 165 161 130 165 161 130 168 164 133 168 164 133 240 235 191 168 164 133 168 164 133 168 164 133 168 164 133 163 161 130 163 161 130 156 159 126 156 159 126 156 159 126 150 155 123 215 222 176 215 222 176 215 222 176 150 155 123 215 222 176 215 222 176 215 222 176 150 155 123 215 222 176 143 150 119 143 150 119 143 150 119 136 144 112 195 206 160 136 144 112 185 199 150 185 199 150 129 139 105 129 139 105 129 139 102 185 199 146 129 139 102 185 199 146 185 199 146 185 199 146 185 199 150 185 199 150 185 199 146 185 199 146 185 199 150 195 206 160 195 206 160 195 206 160 195 206 160 195 206 160 195 206 160 205 215 171 205 215 171 205 215 171 205 215 171 205 215 171 205 215 171 205 215 171 205 215 171 205 215 171 215 222 176 205 215 171 215 222 176 205 215 171 215 222 176 215 222 176 215 222 176 215 222 176 224 228 180 224 228 180 224 228 180 224 228 180 224 228 180 224 228 180 156 159 126 156 159 126 156 159 126 156 159 126 234 231 186 234 231 186 234 231 186 234 231 186 234 231 186 240 235 191 240 235 191 237 230 186 237 230 186 237 230 186 237 230 186 237 230 186 237 230 186 237 230 186 232 225 178 232 225 178 162 157 124 165 161 130 165 161 130 168 164 133 237 230 186 237 230 186 240 235 191 168 164 133 240 235 191 168 164 133 168 164 133 168 164 133 168 164 133 163 161 130 163 161 130 163 161 130 163 161 130 163 161 130 163 161 130 163 161 130 163 161 130 156 159 126 156 159 126 156 159 126 150 155 123 150 155 123 143 150 119 136 144 112 136 144 112 129 139 105 129 139 105 122 136 98 122 136 98 116 134 93 116 134 93 116 134 93 107 133 88 107 133 88 107 133 88 100 130 83 100 130 83 100 130 83 100 130 83 100 130 83 100 130 83 108 140 88 143 187 119 143 187 119 143 187 119 143 187 119 143 187 119 143 187 119 100 130 83 143 187 119 143 187 119 143 187 119 108 140 88 108 140 88 123 150 100 176 215 143 155 200 126 123 150 100 123 150 100 216 224 164 151 156 114 216 224 164 170 163 145 243 234 208 170 163 145 154 168 161 154 168 161 145 168 178 145 168 178 186 234 255 186 234 255 174 227 255 121 158 178 121 158 178 174 227 255 121 158 178 116 156 172 166 224 247 166 224 247 116 156 172 111 154 168 159 221 240 111 154 168 111 154 168 105 149 167 151 214 239 151 214 239 105 149 167 151 214 239 151 214 239 144 204 238 144 204 238 151 214 239 100 142 166 100 142 166 100 142 166 100 142 166 100 142 166 100 142 166 100 142 166 96 138 171 96 138 171 96 138 171 138 198 245 138 198 245 144 204 238 144 204 238 96 138 171 144 204 238 96 138 171 96 138 171 96 138 171 96 138 171 96 138 171 138 198 245 91 135 168 91 135 168 85 133 166 85 133 166 80 128 164 76 126 161 76 126 161 71 122 158 71 122 158 71 122 158 95 171 224 95 171 224 95 171 224 95 171 224 102 175 227 102 175 227 102 175 227 102 175 227 102 175 227 102 175 227 102 175 227 109 180 231 109 180 231 109 180 231 109 180 231 115 184 235 115 184 235

215 222 176 150 155 123 224 228 180 224 228 180 224 228 180 224 228 180 234 231 186 234 231 186 163 161 130 234 231 186 240 235 191 237 230 186 237 230 186 237 230 186 165 161 130 165 161 130 165 161 130 165 161 130 237 230 186 165 161 130 240 235 191 168 164 133 168 164 133 168 164 133 168 164 133 163 161 130 163 161 130 163 161 130 163 161 130 156 159 126 156 159 126 156 159 126 150 155 123 150 155 123 150 155 123 150 155 123 215 222 176 150 155 123 215 222 176 215 222 176 150 155 123 143 150 119 143 150 119 136 144 112 136 144 112 136 144 112 129 139 105 195 206 160 195 206 160 185 199 150 129 139 105 129 139 105 185 199 146 129 139 102 185 199 146 185 199 150 185 199 150 185 199 150 185 199 150 185 199 150 185 199 150 185 199 150 195 206 160 195 206 160 205 215 171 195 206 160 195 206 160 205 215 171 205 215 171 205 215 171 215 222 176 205 215 171 205 215 171 205 215 171 205 215 171 205 215 171 205 215 171 205 215 171 215 222 176 215 222 176 215 222 176 215 222 176 215 222 176 224 228 180 224 228 180 224 228 180 234 231 186 234 231 186 234 231 186 156 159 126 224 228 180 224 228 180 224 228 180 224 228 180 224 228 180 234 231 186 234 231 186 234 231 186 234 231 186 234 231 186 240 235 191 240 235 191 237 230 186 237 230 186 232 225 178 232 225 178 232 225 178 165 161 130 232 225 178 232 225 178 165 161 130 165 161 130 165 161 130 165 161 130 165 161 130 168 164 133 168 164 133 168 164 133 168 164 133 240 235 191 240 235 191 168 164 133 168 164 133 163 161 130 240 235 191 234 231 186 163 161 130 156 159 126 163 161 130 156 159 126 156 159 126 156 159 126 156 159 126 150 155 123 150 155 123 143 150 119 143 150 119 143 150 119 136 144 112 129 139 105 129 139 105 129 139 102 122 136 98 116 134 93 116 134 93 116 134 93 107 133 88 107 133 88 107 133 88 100 130 83 100 130 83 100 130 83 100 130 83 100 130 83 143 187 119 100 130 83 143 187 119 155 200 126 143 187 119 143 187 119 100 130 83 143 187 119 100 130 83 143 187 119 143 187 119 100 130 83 143 187 119 108 140 88 108 140 88 123 150 100 155 200 126 155 200 126 155 200 126 123 150 100 151 156 114 151 156 114 216 224 164 170 163 145 243 234 208 154 168 161 154 168 161 221 240 230 154 168 161 208 240 255 208 240 255 130 163 178 186 234 255 174 227 255 174 227 255 121 158 178 174 227 255 174 227 255 174 227 255 174 227 255 116 156 172 111 154 168 166 224 247 111 154 168 111 154 168 105 149 167 159 221 240 151 214 239 151 214 239 105 149 167 100 142 166 100 142 166 144 204 238 100 142 166 100 142 166 100 142 166 100 142 166 100 142 166 96 138 171 96 138 171 96 138 171 100 142 166 144 204 238 138 198 245 96 138 171 96 138 171 138 198 245 96 138 171 96 138 171 138 198 245 96 138 171 138 198 245 138 198 245 138 198 245 138 198 245 138 198 245 91 135 168 91 135 168 91 135 168 85 133 166 80 128 164 80 128 164 76 126 161 109 180 231 71 122 158 102 175 227 66 119 156 95 171 224 102 175 227 102 175 227 102 175 227 102 175 227 71 122 158 102 175 227 102 175 227 102 175 227 102 175 227 109 180 231 109 180 231 115 184 235 115 184 235 115 184 235 115 184 235

215 222 176 215 222 176 224 228 180 156 159 126 224 228 180 224 228 180 224 228 180 234 231 186 234 231 186 240 235 191 240 235 191 237 230 186 237 230 186 237 230 186 165 161 130 165 161 130 165 161 130 165 161 130 237 230 186 168 164 133 168 164 133 168 164 133 168 164 133 168 164 133 163 161 130 163 161 130 163 161 130 156 159 126 156 159 126 156 159 126 224 228 180 150 155 123 150 155 123 150 155 123 150 155 123 215 222 176 215 222 176 150 155 123 215 222 176 150 155 123 143 150 119 143 150 119 143 150 119 136 144 112 195 206 160 195 206 160 136 144 112 195 206 160 195 206 160 136 144 112 129 139 105 185 199 150 185 199 150 185 199 150 185 199 146 185 199 150 185 199 150 185 199 150 185 199 150 195 206 160 195 206 160 195 206 160 195 206 160 205 215 171 205 215 171 205 215 171 205 215 171 205 215 171 205 215 171 205 215 171 143 150 119 143 150 119 143 150 119 205 215 171 205 215 171 215 222 176 205 215 171 215 222 176 215 222 176 215 222 176 215 222 176 215 222 176 224 228 180 224 228 180 224 228 180 234 231 186 234 231 186 234 231 186 234 231 186 163 161 130 224 228 180 234 231 186 224 228 180 224 228 180 234 231 186 234 231 186 234 231 186 234 231 186 234 231 186 234 231 186 240 235 191 240 235 191 237 230 186 237 230 186 237 230 186 165 161 130 165 161 130 165 161 130 232 225 178 162 157 124 165 161 130 165 161 130 165 161 130 165 161 130 165 161 130 168 164 133 168 164 133 168 164 133 168 164 133 163 161 130 163 161 130 163 161 130 163 161 130 163 161 130 163 161 130 163 161 130 156 159 126 156 159 126 156 159 126 156 159 126 156 159 126 150 155 123 150 155 123 150 155 123 143 150 119 143 150 119 143 150 119 136 144 112 129 139 105 129 139 105 129 139 102 129 139 102 122 136 98 122 136 98 166 192 134 116 134 93 107 133 88 107 133 88 107 133 88 100 130 83 143 187 119 100 130 83 143 187 119 143 187 119 100 130 83 100 130 83 143 187 119 143 187 119 143 187 119 100 130 83 100 130 83 100 130 83 100 130 83 143 187 119 100 130 83 100 130 83 108 140 88 100 130 83 155 200 126 108 140 88 176 215 143 123 150 100 123 150 100 123 150 100 176 215 143 176 215 143 216 224 164 151 156 114 170 163 145 243 234 208 243 234 208 154 168 161 145 168 178 145 168 178 130 163 178 130 163 178 130 163 178 121 158 178 121 158 178 174 227 255 186 234 255 186 234 255 174 227 255 121 158 178 121 158 178 166 224 247 166 224 247 111 154 168 111 154 168 159 221 240 151 214 239 105 149 167 105 149 167 105 149 167 100 142 166 100 142 166 100 142 166 144 204 238 100 142 166 100 142 166 100 142 166 144 204 238 96 138 171 138 198 245 138 198 245 138 198 245 144 204 238 96 138 171 138 198 245 138 198 245 96 138 171 96 138 171 96 138 171 96 138 171 96 138 171 96 138 171 96 138 171 96 138 171 91 135 168 91 135 168 91 135 168 85 133 166 85 133 166 85 133 166 80 128 164 76 126 161 76 126 161 76 126 161 71 122 158 71 122 158 102 175 227 102 175 227 102 175 227 102 175 227 102 175 227 71 122 158 71 122 158 102 175 227 102 175 227 71 122 158 102 175 227 109 180 231 109 180 231 115 184 235 115 184 235 115 184 235 115 184 235

215 222 176 215 222 176 224 228 180 156 159 126 224 228 180 224 228 180 234 231 186 234 231 186 234 231 186 234 231 186 240 235 191 237 230 186 237 230 186 237 230 186 165 161 130 168 164 133 168 164 133 165 161 130 237 230 186 168 164 133 168 164 133 240 235 191 240 235 191 240 235 191 240 235 191 234 231 186 163 161 130 163 161 130 224 228 180 224 228 180 224 228 180 150 155 123 150 155 123 150 155 123 215 222 176 215 222 176 215 222 176 215 222 176 150 155 123 143 150 119 143 150 119 143 150 119 143 150 119 136 144 112 205 215 171 195 206 160 195 206 160 195 206 160 195 206 160 195 206 160 129 139 105 185 199 150 185 199 150 185 199 150 185 199 150 185 199 150 185 199 150 185 199 150 185 199 150 195 206 160 195 206 160 195 206 160 195 206 160 205 215 171 205 215 171 205 215 171 205 215 171 205 215 171 215 222 176 205 215 171 215 222 176 205 215 171 205 215 171 205 215 171 205 215 171 205 215 171 215 222 176 215 222 176 224 228 180 224 228 180 224 228 180 224 228 180 224 228 180 224 228 180 224 228 180 224 228 180 156 159 126 234 231 186 163 161 130 234 231 186 234 231 186 234 231 186 156 159 126 224 228 180 156 159 126 156 159 126 234 231 186 234 231 186 234 231 186 240 235 191 240 235 191 240 235 191 237 230 186 165 161 130 237 230 186 165 161 130 232 225 178 165 161 130 165 161 130 165 161 130 165 161 130 237 230 186 237 230 186 168 164 133 165 161 130 168 164 133 163 161 130 168 164 133 163 161 130 163 161 130 163 161 130 163 161 130 163 161 130 156 159 126 156 159 126 156 159 126 150 155 123 150 155 123 150 155 123 150 155 123 150 155 123 143 150 119 143 150 119 143 150 119 143 150 119 136 144 112 136 144 112 129 139 105 129 139 105 129 139 105 185 199 150 129 139 102 129 139 102 122 136 98 116 134 93 116 134 93 107 133 88 107 133 88 154 190 126 100 130 83 100 130 83 100 130 83 100 130 83 100 130 83 100 130 83 108 140 88 108 140 88 143 187 119 143 187 119 108 140 88 108 140 88 108 140 88 108 140 88 143 187 119 143 187 119 143 187 119 108 140 88 143 187 119 143 187 119 108 140 88 108 140 88 176 215 143 123 150 100 123 150 100 123 150 100 176 215 143 151 156 114 216 224 164 216 224 164 170 163 145 170 163 145 154 168 161 221 240 230 145 168 178 130 163 178 186 234 255 130 163 178 121 158 178 121 158 178 174 227 255 186 234 255 186 234 255 186 234 255 174 227 255 174 227 255 116 156 172 166 224 247 116 156 172 111 154 168 105 149 167 105 149 167 105 149 167 105 149 167 100 142 166 100 142 166 100 142 166 144 204 238 144 204 238 100 142 166 144 204 238 144 204 238 96 138 171 96 138 171 138 198 245 138 198 245 144 204 238 144 204 238 144 204 238 144 204 238 144 204 238 96 138 171 138 198 245 138 198 245 138 198 245 138 198 245 138 198 245 138 198 245 91 135 168 91 135 168 91 135 168 91 135 168 91 135 168 85 133 166 80 128 164 80 128 164 80 128 164 76 126 161 109 180 231 71 122 158 71 122 158 71 122 158 71 122 158 102 175 227 102 175 227 102 175 227 71 122 158 71 122 158 102 175 227 102 175 227 109 180 231 109 180 231 109 180 231 109 180 231 115 184 235 115 184 235 115 184 235 122 190 238

215 222 176 224 228 180 224 228 180 224 228 180 224 228 180 234 231 186 224 228 180 234 231 186 234 231 186 240 235 191 240 235 191 237 230 186 165 161 130 165 161 130 168 164 133 165 161 130 237 230 186 237 230 186 168 164 133 168 164 133 240 235 191 240 235 191 240 235 191 168 164 133 240 235 191 240 235 191 163 161 130 163 161 130 156 159 126 224 228 180 156 159 126 156 159 126 150 155 123 215 222 176 150 155 123 143 150 119 150 155 123 215 222 176 150 155 123 143 150 119 205 215 171 205 215 171 143 150 119 205 215 171 205 215 171 205 215 171 195 206 160 195 206 160 195 206 160 136 144 112 129 139 105 185 199 150 185 199 150 185 199 150 185 199 150 185 199 150 185 199 150 185 199 150 185 199 150 195 206 160 195 206 160 205 215 171 205 215 171 205 215 171 205 215 171 143 150 119 205 215 171 215 222 176 215 222 176 215 222 176 215 222 176 143 150 119 215 222 176 215 222 176 215 222 176 215 222 176 215 222 176 215 222 176 215 222 176 224 228 180 224 228 180 224 228 180 224 228 180 224 228 180 224 228 180 224 228 180 224 228 180 234 231 186 234 231 186 234 231 186 163 161 130 234 231 186 156 159 126 234 231 186 224 228 180 234 231 186 234 231 186 234 231 186 234 231 186 234 231 186 240 235 191 168 164 133 240 235 191 168 164 133 237 230 186 237 230 186 165 161 130 165 161 130 165 161 130 165 161 130 165 161 130 165 161 130 165 161 130 168 164 133 168 164 133 168 164 133 163 161 130 163 161 130 163 161 130 163 161 130 163 161 130 163 161 130 156 159 126 156 159 126 150 155 123 150 155 123 150 155 123 150 155 123 150 155 123 143 150 119 143 150 119 143 150 119 143 150 119 143 150 119 136 144 112 136 144 112 129 139 105 129 139 105 129 139 105 129 139 102 129 139 102 129 139 102 122 136 98 122 136 98 116 134 93 116 134 93 107 133 88 154 190 126 154 190 126 107 133 88 100 130 83 100 130 83 143 187 119 143 187 119 100 130 83 143 187 119 143 187 119 143 187 119 108 140 88 108 140 88 108 140 88 108 140 88 108 140 88 155 200 126 108 140 88 143 187 119 100 130 83 143 187 119 143 187 119 108 140 88 123 150 100 155 200 126 176 215 143 176 215 143 176 215 143 123 150 100 176 215 143 176 215 143 151 156 114 170 163 145 170 163 145 154 168 161 145 168 178 145 168 178 145 168 178 130 163 178 130 163 178 130 163 178 186 234 255 186 234 255 186 234 255 186 234 255 130 163 178 130 163 178 121 158 178 121 158 178 116 156 172 116 156 172 111 154 168 105 149 167 151 214 239 105 149 167 105 149 167 100 142 166 100 142 166 144 204 238 144 204 238 144 204 238 100 142 166 144 204 238 100 142 166 96 138 171 96 138 171 138 198 245 138 198 245 96 138 171 96 138 171 96 138 171 144 204 238 144 204 238 96 138 171 138 198 245 96 138 171 138 198 245 96 138 171 91 135 168 96 138 171 91 135 168 91 135 168 91 135 168 85 133 166 91 135 168 85 133 166 85 133 166 80 128 164 80 128 164 76 126 161 109 180 231 76 126 161 102 175 227 102 175 227 102 175 227 102 175 227 102 175 227 102 175 227 71 122 158 71 122 158 102 175 227 102 175 227 102 175 227 109 180 231 109 180 231 115 184 235 115 184 235 115 184 235 115 184 235 122 190 238

224 228 180 224 228 180 224 228 180 224 228 180 234 231 186 224 228 180 156 159 126 234 231 186 240 235 191 240 235 191 240 235 191 237 230 186 237 230 186 168 164 133 168 164 133 237 230 186 237 230 186 237 230 186 237 230 186 240 235 191 237 230 186 240 235 191 240 235 191 168 164 133 240 235 191 240 235 191 240 235 191 163 161 130 234 231 186 224 228 180 156 159 126 224 228 180 224 228 180 215 222 176 150 155 123 215 222 176 215 222 176 215 222 176 150 155 123 143 150 119 143 150 119 143 150 119 143 150 119 205 215 171 205 215 171 205 215 171 205 215 171 205 215 171 136 144 112 129 139 105 129 139 105 129 139 105 129 139 105 185 199 150 195 206 160 195 206 160 185 199 150 185 199 150 195 206 160 195 206 160 205 215 171 205 215 171 205 215 171 205 215 171 215 222 176 215 222 176 205 215 171 215 222 176 215 222 176 215 222 176 215 222 176 215 222 176 215 222 176 150 155 123 215 222 176 215 222 176 215 222 176 224 228 180 224 228 180 224 228 180 234 231 186 224 228 180 224 228 180 224 228 180 234 231 186 234 231 186 234 231 186 234 231 186 234 231 186 234 231 186 234 231 186 234 231 186 163 161 130 234 231 186 234 231 186 234 231 186 234 231 186 234 231 186 234 231 186 240 235 191 240 235 191 240 235 191 168 164 133 168 164 133 237 230 186 237 230 186 168 164 133 168 164 133 237 230 186 168 164 133 168 164 133 165 161 130 237 230 186 168 164 133 168 164 133 163 161 130 163 161 130 163 161 130 156 159 126 234 231 186 234 231 186 156 159 126 156 159 126 150 155 123 150 155 123 150 155 123 143 150 119 143 150 119 143 150 119 143 150 119 143 150 119 136 144 112 136 144 112 136 144 112 136 144 112 136 144 112 136 144 112 129 139 105 129 139 105 129 139 102 129 139 102 129 139 102 122 136 98 116 134 93 175 195 141 116 134 93 107 133 88 107 133 88 107 133 88 107 133 88 100 130 83 143 187 119 143 187 119 100 130 83 143 187 119 143 187 119 143 187 119 143 187 119 108 140 88 155 200 126 108 140 88 108 140 88 155 200 126 143 187 119 143 187 119 143 187 119 108 140 88 108 140 88 143 187 119 108 140 88 108 140 88 123 150 100 123 150 100 123 150 100 123 150 100 176 215 143 176 215 143 151 156 114 151 156 114 170 163 145 154 168 161 154 168 161 154 168 161 145 168 178 145 168 178 130 163 178 130 163 178 130 163 178 186 234 255 186 234 255 186 234 255 186 234 255 186 234 255 121 158 178 121 158 178 116 156 172 116 156 172 116 156 172 111 154 168 111 154 168 159 221 240 105 149 167 105 149 167 100 142 166 100 142 166 144 204 238 144 204 238 100 142 166 100 142 166 144 204 238 100 142 166 96 138 171 96 138 171 138 198 245 144 204 238 138 198 245 138 198 245 96 138 171 138 198 245 144 204 238 96 138 171 96 138 171 96 138 171 91 135 168 91 135 168 138 198 245 138 198 245 91 135 168 91 135 168 130 194 240 91 135 168 122 190 238 130 194 240 85 133 166 122 190 238 80 128 164 115 184 235 109 180 231 109 180 231 109 180 231 71 122 158 102 175 227 109 180 231 71 122 158 71 122 158 71 122 158 71 122 158 102 175 227 102 175 227 102 175 227 109 180 231 109 180 231 115 184 235 115 184 235 115 184 235 122 190 238 122 190 238

224 228 180 224 228 180 224 228 180 224 228 180 224 228 180 234 231 186 234 231 186 234 231 186 234 231 186 168 164 133 240 235 191 168 164 133 168 164 133 168 164 133 168 164 133 240 235 191 165 161 130 168 164 133 168 164 133 168 164 133 168 164 133 168 164 133 168 164 133 168 164 133 168 164 133 168 164 133 168 164 133 163 161 130 234 231 186 163 161 130 156 159 126 156 159 126 150 155 123 150 155 123 150 155 123 215 222 176 150 155 123 143 150 119 143 150 119 143 150 119 205 215 171 143 150 119 143 150 119 205 215 171 143 150 119 143 150 119 205 215 171 143 150 119 136 144 112 195 206 160 185 199 150 185 199 150 129 139 105 185 199 150 195 206 160 195 206 160 195 206 160 195 206 160 195 206 160 205 215 171 205 215 171 143 150 119 205 215 171 205 215 171 205 215 171 215 222 176 143 150 119 215 222 176 215 222 176 150 155 123 150 155 123 215 222 176 215 222 176 150 155 123 215 222 176 215 222 176 215 222 176 224 228 180 224 228 180 156 159 126 224 228 180 156 159 126 224 228 180 234 231 186 234 231 186 163 161 130 234 231 186 234 231 186 234 231 186 163 161 130 234 231 186 163 161 130 163 161 130 156 159 126 156 159 126 163 161 130 234 231 186 234 231 186 234 231 186 240 235 191 168 164 133 168 164 133 168 164 133 240 235 191 240 235 191 168 164 133 168 164 133 240 235 191 168 164 133 168 164 133 168 164 133 168 164 133 168 164 133 168 164 133 168 164 133 163 161 130 163 161 130 156 159 126 156 159 126 156 159 126 156 159 126 156 159 126 156 159 126 150 155 123 143 150 119 143 150 119 143 150 119 143 150 119 136 144 112 143 150 119 143 150 119 136 144 112 136 144 112 129 139 105 129 139 105 129 139 105 129 139 105 129 139 105 129 139 102 129 139 102 129 139 102 122 136 98 122 136 98 122 136 98 166 192 134 116 134 93 116 134 93 166 192 134 107 133 88 107 133 88 100 130 83 100 130 83 143 187 119 100 130 83 143 187 119 143 187 119 143 187 119 100 130 83 108 140 88 108 140 88 108 140 88 155 200 126 143 187 119 143 187 119 143 187 119 108 140 88 100 130 83 143 187 119 155 200 126 108 140 88 108 140 88 108 140 88 176 215 143 123 150 100 176 215 143 176 215 143 123 150 100 151 156 114 151 156 114 170 163 145 170 163 145 221 240 230 154 168 161 154 168 161 145 168 178 130 163 178 130 163 178 130 163 178 186 234 255 130 163 178 186 234 255 186 234 255 130 163 178 121 158 178 116 156 172 116 156 172 116 156 172 116 156 172 111 154 168 111 154 168 105 149 167 105 149 167 100 142 166 100 142 166 100 142 166 144 204 238 144 204 238 144 204 238 144 204 238 100 142 166 100 142 166 96 138 171 138 198 245 138 198 245 138 198 245 96 138 171 138 198 245 138 198 245 138 198 245 138 198 245 96 138 171 96 138 171 96 138 171 91 135 168 130 194 240 138 198 245 138 198 245 91 135 168 91 135 168 91 135 168 85 133 166 85 133 166 85 133 166 85 133 166 80 128 164 80 128 164 80 128 164 115 184 235 109 180 231 76 126 161 71 122 158 109 180 231 109 180 231 71 122 158 71 122 158 102 175 227 102 175 227 102 175 227 102 175 227 102 175 227 109 180 231 109 180 231 109 180 231 80 128 164 115 184 235 122 190 238 122 190 238

224 228 180 224 228 180 224 228 180 224 228 180 224 228 180 224 228 180 234 231 186 163 161 130 234 231 186 163 161 130 163 161 130 168 164 133 168 164 133 163 161 130 240 235 191 240 235 191 168 164 133 163 161 130 168 164 133 163 161 130 163 161 130 163 161 130 163 161 130 163 161 130 163 161 130 240 235 191 240 235 191 163 161 130 163 161 130 156 159 126 156 159 126 224 228 180 224 228 180 150 155 123 215 222 176 215 222 176 215 222 176 215 222 176 143 150 119 143 150 119 205 215 171 205 215 171 205 215 171 205 215 171 215 222 176 205 215 171 205 215 171 143 150 119 136 144 112 195 206 160 136 144 112 129 139 105 185 199 150 195 206 160 195 206 160 195 206 160 195 206 160 205 215 171 205 215 171 205 215 171 205 215 171 205 215 171 205 215 171 143 150 119 215 222 176 215 222 176 150 155 123 215 222 176 215 222 176 215 222 176 215 222 176 215 222 176 150 155 123 215 222 176 215 222 176 215 222 176 215 222 176 215 222 176 224 228 180 156 159 126 224 228 180 156 159 126 234 231 186 234 231 186 234 231 186 234 231 186 234 231 186 234 231 186 163 161 130 234 231 186 234 231 186 163 161 130 163 161 130 234 231 186 234 231 186 234 231 186 234 231 186 234 231 186 234 231 186 163 161 130 163 161 130 163 161 130 163 161 130 163 161 130 168 164 133 168 164 133 240 235 191 168 164 133 168 164 133 163 161 130 168 164 133 163 161 130 168 164 133 163 161 130 163 161 130 163 161 130 163 161 130 156 159 126 156 159 126 156 159 126 156 159 126 150 155 123 150 155 123 150 155 123 150 155 123 143 150 119 205 215 171 136 144 112 136 144 112 136 144 112 136 144 112 136 144 112 136 144 112 195 206 160 129 139 105 185 199 150 129 139 105 129 139 105 129 139 105 185 199 150 185 199 146 129 139 102 175 195 141 175 195 141 122 136 98 116 134 93 116 134 93 166 192 134 107 133 88 154 190 126 107 133 88 143 187 119 143 187 119 100 130 83 100 130 83 100 130 83 100 130 83 108 140 88 108 140 88 155 200 126 155 200 126 155 200 126 155 200 126 143 187 119 108 140 88 108 140 88 155 200 126 108 140 88 108 140 88 108 140 88 108 140 88 123 150 100 123 150 100 123 150 100 176 215 143 176 215 143 176 215 143 151 156 114 151 156 114 170 163 145 170 163 145 154 168 161 154 168 161 154 168 161 221 240 230 145 168 178 186 234 255 186 234 255 186 234 255 186 234 255 186 234 255 121 158 178 121 158 178 121 158 178 116 156 172 116 156 172 116 156 172 111 154 168 111 154 168 111 154 168 105 149 167 105 149 167 100 142 166 100 142 166 100 142 166 100 142 166 144 204 238 144 204 238 100 142 166 96 138 171 96 138 171 96 138 171 96 138 171 138 198 245 138 198 245 144 204 238 138 198 245 138 198 245 138 198 245 96 138 171 96 138 171 138 198 245 138 198 245 91 135 168 138 198 245 130 194 240 91 135 168 91 135 168 91 135 168 91 135 168 85 133 166 85 133 166 122 190 238 85 133 166 85 133 166 122 190 238 115 184 235 115 184 235 76 126 161 109 180 231 109 180 231 109 180 231 109 180 231 71 122 158 109 180 231 109 180 231 109 180 231 102 175 227 109 180 231 109 180 231 109 180 231 109 180 231 109 180 231 115 184 235 115 184 235 122 190 238 122 190 238

224 228 180 224 228 180 224 228 180 156 159 126 224 228 180 224 228 180 234 231 186 234 231 186 156 159 126 163 161 130 163 161 130 163 161 130 163 161 130 163 161 130 163 161 130 163 161 130 163 161 130 163 161 130 163 161 130 163 161 130 163 161 130 163 161 130 163 161 130 163 161 130 234 231 186 234 231 186 240 235 191 163 161 130 163 161 130 156 159 126 156 159 126 156 159 126 156 159 126 224 228 180 150 155 123 150 155 123 215 222 176 215 222 176 143 150 119 215 222 176 205 215 171 215 222 176 215 222 176 143 150 119 143 150 119 143 150 119 143 150 119 143 150 119 136 144 112 195 206 160 195 206 160 195 206 160 195 206 160 195 206 160 195 206 160 205 215 171 205 215 171 205 215 171 205 215 171 205 215 171 205 215 171 205 215 171 215 222 176 215 222 176 215 222 176 215 222 176 150 155 123 215 222 176 215 222 176 215 222 176 215 222 176 150 155 123 143 150 119 150 155 123 215 222 176 215 222 176 215 222 176 224 228 180 224 228 180 156 159 126 224 228 180 224 228 180 234 231 186 234 231 186 234 231 186 234 231 186 234 231 186 163 161 130 234 231 186 234 231 186 163 161 130 163 161 130 163 161 130 156 159 126 156 159 126 234 231 186 234 231 186 163 161 130 156 159 126 156 159 126 163 161 130 163 161 130 156 159 126 163 161 130 163 161 130 163 161 130 163 161 130 163 161 130 163 161 130 163 161 130 163 161 130 163 161 130 163 161 130 163 161 130 163 161 130 156 159 126 156 159 126 156 159 126 156 159 126 156 159 126 150 155 123 150 155 123 150 155 123 150 155 123 143 150 119 143 150 119 136 144 112 136 144 112 136 144 112 136 144 112 136 144 112 136 144 112 136 144 112 129 139 105 129 139 105 129 139 105 129 139 105 129 139 105 129 139 102 129 139 102 129 139 102 129 139 102 185 199 146 122 136 98 122 136 98 116 134 93 166 192 134 116 134 93 107 133 88 107 133 88 107 133 88 100 130 83 100 130 83 100 130 83 143 187 119 143 187 119 143 187 119 108 140 88 143 187 119 143 187 119 143 187 119 143 187 119 143 187 119 143 187 119 108 140 88 155 200 126 143 187 119 108 140 88 155 200 126 155 200 126 155 200 126 155 200 126 123 150 100 176 215 143 123 150 100 176 215 143 176 215 143 151 156 114 170 163 145 170 163 145 170 163 145 154 168 161 154 168 161 221 240 230 145 168 178 145 168 178 130 163 178 130 163 178 186 234 255 186 234 255 186 234 255 121 158 178 121 158 178 121 158 178 116 156 172 116 156 172 111 154 168 111 154 168 111 154 168 111 154 168 105 149 167 151 214 239 100 142 166 100 142 166 144 204 238 144 204 238 144 204 238 100 142 166 100 142 166 100 142 166 138 198 245 96 138 171 138 198 245 138 198 245 138 198 245 144 204 238 96 138 171 138 198 245 138 198 245 96 138 171 96 138 171 96 138 171 96 138 171 91 135 168 91 135 168 91 135 168 91 135 168 91 135 168 130 194 240 91 135 168 85 133 166 85 133 166 85 133 166 85 133 166 80 128 164 122 190 238 80 128 164 115 184 235 76 126 161 76 126 161 76 126 161 76 126 161 109 180 231 109 180 231 109 180 231 109 180 231 109 180 231 71 122 158 109 180 231 109 180 231 109 180 231 109 180 231 109 180 231 115 184 235 115 184 235 122 190 238 122 190 238

224 228 180 224 228 180 224 228 180 156 159 126 224 228 180 156 159 126 224 228 180 156 159 126 156 159 126 156 159 126 163 161 130 234 231 186 163 161 130 156 159 126 156 159 126 156 159 126 156 159 126 156 159 126 156 159 126 156 159 126 156 159 126 156 159 126 234 231 186 234 231 186 240 235 191 240 235 191 240 235 191 168 164 133 234 231 186 163 161 130 234 231 186 156 159 126 224 228 180 224 228 180 150 155 123 215 222 176 224 228 180 215 222 176 215 222 176 215 222 176 215 222 176 143 150 119 143 150 119 143 150 119 215 222 176 143 150 119 205 215 171 205 215 171 205 215 171 205 215 171 205 215 171 195 206 160 205 215 171 195 206 160 205 215 171 205 215 171 215 222 176 205 215 171 143 150 119 205 215 171 215 222 176 215 222 176 215 222 176 215 222 176 215 222 176 215 222 176 215 222 176 150 155 123 150 155 123 143 150 119 150 155 123 143 150 119 215 222 176 215 222 176 215 222 176 215 222 176 224 228 180 224 228 180 224 228 180 224 228 180 224 228 180 224 228 180 234 231 186 234 231 186 234 231 186 234 231 186 234 231 186 234 231 186 240 235 191 163 161 130 163 161 130 234 231 186 163 161 130 156 159 126 224 228 180 156 159 126 156 159 126 156 159 126 156 159 126 156 159 126 224 228 180 156 159 126 156 159 126 224 228 180 156 159 126 156 159 126 156 159 126 156 159 126 156 159 126 156 159 126 156 159 126 156 159 126 156 159 126 156 159 126 156 159 126 156 159 126 224 228 180 156 159 126 150 155 123 150 155 123 150 155 123 150 155 123 143 150 119 143 150 119 143 150 119 143 150 119 136 144 112 136 144 112 129 139 105 136 144 112 129 139 105 136 144 112 195 206 160 129 139 105 129 139 105 129 139 105 129 139 105 185 199 150 129 139 102 129 139 102 129 139 102 129 139 102 122 136 98 122 136 98 122 136 98 116 134 93 116 134 93 107 133 88 166 192 134 107 133 88 107 133 88 100 130 83 100 130 83 143 187 119 143 187 119 143 187 119 143 187 119 143 187 119 143 187 119 143 187 119 143 187 119 143 187 119 143 187 119 143 187 119 143 187 119 155 200 126 143 187 119 108 140 88 155 200 126 108 140 88 155 200 126 155 200 126 155 200 126 176 215 143 176 215 143 176 215 143 176 215 143 151 156 114 151 156 114 170 163 145 243 234 208 170 163 145 154 168 161 154 168 161 221 240 230 145 168 178 130 163 178 186 234 255 186 234 255 130 163 178 130 163 178 130 163 178 174 227 255 121 158 178 116 156 172 116 156 172 166 224 247 111 154 168 111 154 168 105 149 167 105 149 167 105 149 167 151 214 239 151 214 239 151 214 239 144 204 238 144 204 238 144 204 238 100 142 166 144 204 238 96 138 171 144 204 238 144 204 238 144 204 238 138 198 245 144 204 238 144 204 238 138 198 245 144 204 238 96 138 171 96 138 171 91 135 168 91 135 168 91 135 168 130 194 240 91 135 168 91 135 168 130 194 240 138 198 245 91 135 168 85 133 166 85 133 166 122 190 238 122 190 238 80 128 164 115 184 235 122 190 238 122 190 238 115 184 235 76 126 161 76 126 161 76 126 161 109 180 231 109 180 231 109 180 231 76 126 161 71 122 158 71 122 158 109 180 231 109 180 231 109 180 231 109 180 231 109 180 231 115 184 235 115 184 235 122 190 238 130 194 240

215 222 176 156 159 126 156 159 126 156 159 126 156 159 126 156 159 126 156 159 126 150 155 123 150 155 123 150 155 123 224 228 180 156 159 126 156 159 126 156 159 126 156 159 126 156 159 126 150 155 123 224 228 180 224 228 180 156 159 126 224 228 180 234 231 186 234 231 186 234 231 186 234 231 186 163 161 130 163 161 130 163 161 130 163 161 130 163 161 130 156 159 126 156 159 126 224 228 180 224 228 180 224 228 180 224 228 180 215 222 176 150 155 123 150 155 123 215 222 176 143 150 119 143 150 119 205 215 171 205 215 171 205 215 171 143 150 119 215 222 176 205 215 171 205 215 171 205 215 171 205 215 171 205 215 171 205 215 171 205 215 171 205 215 171 215 222 176 215 222 176 143 150 119 143 150 119 215 222 176 205 215 171 215 222 176 215 222 176 215 222 176 150 155 123 150 155 123 143 150 119 143 150 119 143 150 119 143 150 119 143 150 119 143 150 119 215 222 176 215 222 176 215 222 176 215 222 176 224 228 180 150 155 123 224 228 180 156 159 126 156 159 126 224 228 180 234 231 186 234 231 186 234 231 186 234 231 186 234 231 186 163 161 130 234 231 186 163 161 130 163 161 130 163 161 130 156 159 126 156 159 126 224 228 180 156 159 126 224 228 180 224 228 180 224 228 180 156 159 126 156 159 126 156 159 126 156 159 126 224 228 180 156 159 126 156 159 126 150 155 123 156 159 126 156 159 126 150 155 123 156 159 126 156 159 126 156 159 126 224 228 180 156 159 126 156 159 126 156 159 126 150 155 123 150 155 123 150 155 123 143 150 119 143 150 119 143 150 119 143 150 119 143 150 119 136 144 112 136 144 112 129 139 105 129 139 105 129 139 105 129 139 105 129 139 105 129 139 105 129 139 105 129 139 105 185 199 150 185 199 150 129 139 102 122 136 98 122 136 98 122 136 98 122 136 98 116 134 93 116 134 93 116 134 93 116 134 93 116 134 93 107 133 88 107 133 88 107 133 88 154 190 126 154 190 126 154 190 126 154 190 126 143 187 119 143 187 119 143 187 119 143 187 119 143 187 119 154 190 126 143 187 119 143 187 119 143 187 119 100 130 83 143 187 119 143 187 119 143 187 119 143 187 119 155 200 126 143 187 119 143 187 119 155 200 126 155 200 126 108 140 88 155 200 126 176 215 143 176 215 143 123 150 100 151 156 114 170 163 145 243 234 208 243 234 208 243 234 208 221 240 230 221 240 230 154 168 161 208 240 255 208 240 255 186 234 255 130 163 178 130 163 178 121 158 178 121 158 178 116 156 172 116 156 172 116 156 172 111 154 168 111 154 168 105 149 167 105 149 167 105 149 167 151 214 239 151 214 239 105 149 167 151 214 239 100 142 166 100 142 166 100 142 166 100 142 166 144 204 238 144 204 238 144 204 238 144 204 238 144 204 238 144 204 238 144 204 238 144 204 238 100 142 166 96 138 171 96 138 171 91 135 168 91 135 168 91 135 168 130 194 240 130 194 240 91 135 168 130 194 240 130 194 240 91 135 168 91 135 168 130 194 240 85 133 166 122 190 238 122 190 238 85 133 166 122 190 238 115 184 235 80 128 164 80 128 164 76 126 161 109 180 231 109 180 231 109 180 231 109 180 231 109 180 231 76 126 161 71 122 158 71 122 158 109 180 231 76 126 161 109 180 231 109 180 231 115 184 235 115 184 235 115 184 235 122 190 238 122 190 238

215 222 176 224 228 180 224 228 180 156 159 126 150 155 123 156 159 126 156 159 126 150 155 123 150 155 123 215 222 176 215 222 176 150 155 123 156 159 126 150 155 123 150 155 123 150 155 123 150 155 123 215 222 176 224 228 180 156 159 126 224 228 180 234 231 186 234 231 186 156 159 126 234 231 186 163 161 130 234 231 186 163 161 130 163 161 130 163 161 130 156 159 126 156 159 126 156 159 126 224 228 180 224 228 180 224 228 180 150 155 123 150 155 123 215 222 176 215 222 176 215 222 176 215 222 176 215 222 176 215 222 176 205 215 171 215 222 176 215 222 176 215 222 176 215 222 176 215 222 176 215 222 176 205 215 171 215 222 176 205 215 171 215 222 176 215 222 176 215 222 176 215 222 176 215 222 176 215 222 176 215 222 176 215 222 176 215 222 176 215 222 176 150 155 123 215 222 176 215 222 176 143 150 119 205 215 171 205 215 171 205 215 171 205 215 171 205 215 171 143 150 119 215 222 176 150 155 123 150 155 123 150 155 123 224 228 180 156 159 126 224 228 180 224 228 180 234 231 186 234 231 186 234 231 186 234 231 186 234 231 186 163 161 130 163 161 130 156 159 126 156 159 126 156 159 126 156 159 126 224 228 180 224 228 180 156 159 126 234 231 186 156 159 126 156 159 126 156 159 126 156 159 126 156 159 126 150 155 123 224 228 180 156 159 126 150 155 123 150 155 123 150 155 123 150 155 123 150 155 123 215 222 176 150 155 123 150 155 123 150 155 123 150 155 123 156 159 126 150 155 123 150 155 123 150 155 123 143 150 119 143 150 119 143 150 119 205 215 171 143 150 119 143 150 119 136 144 112 129 139 105 129 139 105 129 139 105 129 139 105 129 139 105 129 139 105 129 139 102 129 139 105 129 139 105 129 139 102 129 139 102 129 139 102 122 136 98 122 136 98 116 134 93 116 134 93 116 134 93 116 134 93 107 133 88 116 134 93 107 133 88 107 133 88 107 133 88 154 190 126 154 190 126 154 190 126 154 190 126 154 190 126 154 190 126 154 190 126 154 190 126 154 190 126 154 190 126 154 190 126 154 190 126 143 187 119 143 187 119 100 130 83 143 187 119 143 187 119 143 187 119 100 130 83 143 187 119 155 200 126 143 187 119 108 140 88 108 140 88 155 200 126 155 200 126 123 150 100 155 200 126 123 150 100 151 156 114 216 224 164 216 224 164 243 234 208 243 234 208 243 234 208 221 240 230 145 168 178 145 168 178 208 240 255 208 240 255 130 163 178 186 234 255 186 234 255 174 227 255 116 156 172 116 156 172 166 224 247 111 154 168 111 154 168 105 149 167 105 149 167 105 149 167 151 214 239 105 149 167 105 149 167 100 142 166 100 142 166 100 142 166 96 138 171 144 204 238 144 204 238 144 204 238 144 204 238 144 204 238 144 204 238 144 204 238 144 204 238 144 204 238 96 138 171 96 138 171 96 138 171 91 135 168 91 135 168 91 135 168 85 133 166 85 133 166 130 194 240 130 194 240 91 135 168 130 194 240 91 135 168 91 135 168 85 133 166 122 190 238 122 190 238 85 133 166 122 190 238 122 190 238 122 190 238 80 128 164 76 126 161 109 180 231 76 126 161 76 126 161 76 126 161 71 122 158 71 122 158 71 122 158 71 122 158 102 175 227 109 180 231 115 184 235 76 126 161 115 184 235 115 184 235 115 184 235 115 184 235 122 190 238

215 222 176 150 155 123 150 155 123 156 159 126 150 155 123 215 222 176 224 228 180 150 155 123 215 222 176 215 222 176 150 155 123 150 155 123 215 222 176 150 155 123 215 222 176 150 155 123 150 155 123 150 155 123 215 222 176 156 159 126 224 228 180 234 231 186 234 231 186 156 159 126 224 228 180 163 161 130 156 159 126 163 161 130 156 159 126 156 159 126 156 159 126 224 228 180 224 228 180 224 228 180 224 228 180 224 228 180 156 159 126 224 228 180 150 155 123 150 155 123 150 155 123 215 222 176 143 150 119 143 150 119 143 150 119 215 222 176 215 222 176 215 222 176 215 222 176 224 228 180 215 222 176 215 222 176 215 222 176 150 155 123 205 215 171 215 222 176 150 155 123 150 155 123 215 222 176 215 222 176 215 222 176 215 222 176 215 222 176 150 155 123 150 155 123 150 155 123 143 150 119 143 150 119 205 215 171 143 150 119 143 150 119 205 215 171 215 222 176 205 215 171 215 222 176 150 155 123 215 222 176 150 155 123 150 155 123 150 155 123 150 155 123 156 159 126 224 228 180 163 161 130 156 159 126 163 161 130 163 161 130 163 161 130 234 231 186 163 161 130 156 159 126 156 159 126 156 159 126 156 159 126 224 228 180 224 228 180 224 228 180 156 159 126 156 159 126 156 159 126 224 228 180 224 228 180 150 155 123 224 228 180 150 155 123 150 155 123 150 155 123 150 155 123 150 155 123 215 222 176 150 155 123 150 155 123 215 222 176 150 155 123 150 155 123 215 222 176 150 155 123 150 155 123 150 155 123 150 155 123 143 150 119 143 150 119 143 150 119 136 144 112 136 144 112 129 139 105 129 139 105 129 139 105 129 139 102 129 139 102 129 139 102 129 139 102 129 139 102 129 139 102 129 139 102 129 139 102 129 139 102 122 136 98 122 136 98 116 134 93 116 134 93 116 134 93 116 134 93 107 133 88 107 133 88 107 133 88 107 133 88 107 133 88 107 133 88 154 190 126 154 190 126 166 192 134 166 192 134 166 192 134 154 190 126 154 190 126 107 133 88 154 190 126 154 190 126 107 133 88 154 190 126 107 133 88 143 187 119 100 130 83 143 187 119 143 187 119 143 187 119 143 187 119 143 187 119 100 130 83 143 187 119 108 140 88 108 140 88 108 140 88 108 140 88 155 200 126 155 200 126 155 200 126 123 150 100 216 224 164 216 224 164 151 156 114 170 163 145 243 234 208 154 168 161 154 168 161 208 240 255 208 240 255 145 168 178 130 163 178 130 163 178 121 158 178 121 158 178 116 156 172 166 224 247 116 156 172 111 154 168 111 154 168 105 149 167 105 149 167 105 149 167 105 149 167 105 149 167 105 149 167 105 149 167 100 142 166 96 138 171 96 138 171 144 204 238 100 142 166 96 138 171 144 204 238 100 142 166 100 142 166 100 142 166 100 142 166 100 142 166 96 138 171 96 138 171 96 138 171 91 135 168 130 194 240 91 135 168 85 133 166 130 194 240 130 194 240 130 194 240 91 135 168 130 194 240 130 194 240 130 194 240 91 135 168 122 190 238 122 190 238 85 133 166 85 133 166 80 128 164 80 128 164 80 128 164 80 128 164 115 184 235 76 126 161 76 126 161 71 122 158 71 122 158 102 175 227 102 175 227 102 175 227 102 175 227 109 180 231 109 180 231 76 126 161 109 180 231 115 184 235 115 184 235 122 190 238 122 190 238

215 222 176 215 222 176 215 222 176 215 222 176 224 228 180 224 228 180 215 222 176 150 155 123 215 222 176 215 222 176 215 222 176 150 155 123 150 155 123 150 155 123 150 155 123 150 155 123 150 155 123 215 222 176 215 222 176 224 228 180 224 228 180 224 228 180 156 159 126 156 159 126 224 228 180 156 159 126 156 159 126 234 231 186 234 231 186 156 159 126 224 228 180 156 159 126 234 231 186 234 231 186 234 231 186 224 228 180 224 228 180 224 228 180 150 155 123 150 155 123 215 222 176 215 222 176 150 155 123 215 222 176 205 215 171 215 222 176 224 228 180 224 228 180 234 231 186 224 228 180 224 228 180 215 222 176 215 222 176 150 155 123 215 222 176 215 222 176 215 222 176 215 222 176 215 222 176 215 222 176 215 222 176 215 222 176 215 222 176 150 155 123 215 222 176 143 150 119 143 150 119 205 215 171 205 215 171 143 150 119 143 150 119 205 215 171 215 222 176 215 222 176 215 222 176 143 150 119 143 150 119 215 222 176 215 222 176 215 222 176 224 228 180 224 228 180 224 228 180 156 159 126 234 231 186 234 231 186 234 231 186 163 161 130 163 161 130 163 161 130 156 159 126 156 159 126 156 159 126 150 155 123 224 228 180 156 159 126 224 228 180 150 155 123 150 155 123 150 155 123 224 228 180 150 155 123 150 155 123 215 222 176 150 155 123 150 155 123 150 155 123 150 155 123 215 222 176 215 222 176 150 155 123 215 222 176 215 222 176 150 155 123 215 222 176 215 222 176 215 222 176 150 155 123 215 222 176 143 150 119 143 150 119 136 144 112 136 144 112 136 144 112 136 144 112 129 139 105 129 139 105 185 199 150 129 139 102 185 199 146 185 199 146 129 139 102 129 139 102 185 199 146 185 199 146 129 139 102 185 199 146 122 136 98 122 136 98 116 134 93 116 134 93 116 134 93 107 133 88 107 133 88 100 130 83 107 133 88 107 133 88 154 190 126 154 190 126 154 190 126 154 190 126 166 192 134 166 192 134 116 134 93 166 192 134 166 192 134 166 192 134 154 190 126 154 190 126 154 190 126 154 190 126 107 133 88 100 130 83 100 130 83 100 130 83 143 187 119 143 187 119 143 187 119 100 130 83 143 187 119 143 187 119 100 130 83 143 187 119 143 187 119 155 200 126 155 200 126 143 187 119 155 200 126 123 150 100 176 215 143 216 224 164 151 156 114 170 163 145 243 234 208 170 163 145 221 240 230 221 240 230 145 168 178 145 168 178 130 163 178 130 163 178 121 158 178 121 158 178 174 227 255 116 156 172 116 156 172 166 224 247 159 221 240 105 149 167 151 214 239 105 149 167 151 214 239 151 214 239 151 214 239 151 214 239 100 142 166 100 142 166 138 198 245 96 138 171 144 204 238 96 138 171 144 204 238 144 204 238 144 204 238 144 204 238 144 204 238 144 204 238 144 204 238 96 138 171 91 135 168 91 135 168 91 135 168 130 194 240 130 194 240 122 190 238 85 133 166 91 135 168 85 133 166 91 135 168 85 133 166 91 135 168 91 135 168 130 194 240 85 133 166 85 133 166 85 133 166 80 128 164 80 128 164 80 128 164 115 184 235 115 184 235 76 126 161 76 126 161 71 122 158 71 122 158 102 175 227 109 180 231 109 180 231 109 180 231 109 180 231 109 180 231 109 180 231 115 184 235 115 184 235 115 184 235 122 190 238 130 194 240

215 222 176 215 222 176 150 155 123 215 222 176 215 222 176 150 155 123 143 150 119 150 155 123 143 150 119 150 155 123 150 155 123 150 155 123 143 150 119 150 155 123 143 150 119 150 155 123 215 222 176 143 150 119 150 155 123 150 155 123 150 155 123 150 155 123 156 159 126 156 159 126 156 159 126 156 159 126 224 228 180 224 228 180 156 159 126 156 159 126 224 228 180 224 228 180 224 228 180 163 161 130 156 159 126 156 159 126 156 159 126 150 155 123 150 155 123 150 155 123 215 222 176 150 155 123 143 150 119 215 222 176 143 150 119 215 222 176 215 222 176 224 228 180 224 228 180 156 159 126 156 159 126 150 155 123 150 155 123 215 222 176 215 222 176 215 222 176 224 228 180 215 222 176 215 222 176 150 155 123 150 155 123 150 155 123 150 155 123 143 150 119 143 150 119 143 150 119 205 215 171 205 215 171 205 215 171 205 215 171 205 215 171 205 215 171 205 215 171 143 150 119 143 150 119 143 150 119 205 215 171 215 222 176 215 222 176 215 222 176 215 222 176 150 155 123 150 155 123 224 228 180 156 159 126 156 159 126 156 159 126 156 159 126 156 159 126 156 159 126 150 155 123 150 155 123 150 155 123 150 155 123 150 155 123 150 155 123 150 155 123 150 155 123 150 155 123 150 155 123 150 155 123 150 155 123 150 155 123 150 155 123 150 155 123 215 222 176 143 150 119 215 222 176 215 222 176 150 155 123 150 155 123 143 150 119 143 150 119 143 150 119 143 150 119 150 155 123 150 155 123 150 155 123 143 150 119 143 150 119 143 150 119 136 144 112 136 144 112 129 139 105 129 139 105 129 139 105 129 139 102 129 139 102 129 139 102 129 139 102 129 139 102 129 139 102 185 199 146 122 136 98 122 136 98 129 139 102 129 139 102 122 136 98 122 136 98 116 134 93 116 134 93 107 133 88 107 133 88 107 133 88 107 133 88 154 190 126 154 190 126 154 190 126 154 190 126 154 190 126 154 190 126 166 192 134 166 192 134 116 134 93 166 192 134 166 192 134 166 192 134 116 134 93 107 133 88 154 190 126 154 190 126 154 190 126 154 190 126 100 130 83 143 187 119 143 187 119 143 187 119 143 187 119 143 187 119 143 187 119 143 187 119 100 130 83 143 187 119 143 187 119 143 187 119 143 187 119 143 187 119 108 140 88 123 150 100 123 150 100 176 215 143 176 215 143 216 224 164 216 224 164 170 163 145 243 234 208 154 168 161 154 168 161 145 168 178 145 168 178 186 234 255 130 163 178 174 227 255 121 158 178 174 227 255 174 227 255 166 224 247 111 154 168 111 154 168 159 221 240 151 214 239 151 214 239 151 214 239 105 149 167 105 149 167 100 142 166 100 142 166 96 138 171 96 138 171 144 204 238 144 204 238 144 204 238 144 204 238 151 214 239 144 204 238 151 214 239 144 204 238 100 142 166 96 138 171 96 138 171 138 198 245 130 194 240 130 194 240 91 135 168 91 135 168 122 190 238 122 190 238 130 194 240 130 194 240 85 133 166 85 133 166 130 194 240 130 194 240 85 133 166 85 133 166 85 133 166 80 128 164 80 128 164 76 126 161 115 184 235 115 184 235 76 126 161 76 126 161 76 126 161 102 175 227 102 175 227 102 175 227 76 126 161 109 180 231 109 180 231 109 180 231 109 180 231 76 126 161 115 184 235 115 184 235 122 190 238 122 190 238

215 222 176 215 222 176 150 155 123 150 155 123 150 155 123 143 150 119 143 150 119 143 150 119 143 150 119 143 150 119 215 222 176 150 155 123 143 150 119 215 222 176 215 222 176 215 222 176 143 150 119 143 150 119 205 215 171 215 222 176 150 155 123 215 222 176 215 222 176 150 155 123 156 159 126 156 159 126 224 228 180 224 228 180 156 159 126 224 228 180 224 228 180 234 231 186 234 231 186 156 159 126 156 159 126 150 155 123 150 155 123 150 155 123 215 222 176 215 222 176 215 222 176 215 222 176 215 222 176 205 215 171 215 222 176 215 222 176 215 222 176 215 222 176 150 155 123 150 155 123 150 155 123 150 155 123 224 228 180 215 222 176 150 155 123 215 222 176 224 228 180 150 155 123 150 155 123 143 150 119 215 222 176 143 150 119 143 150 119 143 150 119 143 150 119 205 215 171 215 222 176 143 150 119 143 150 119 143 150 119 205 215 171 143 150 119 143 150 119 143 150 119 143 150 119 143 150 119 143 150 119 143 150 119 215 222 176 143 150 119 150 155 123 150 155 123 150 155 123 215 222 176 150 155 123 224 228 180 156 159 126 156 159 126 150 155 123 150 155 123 150 155 123 150 155 123 150 155 123 150 155 123 150 155 123 150 155 123 150 155 123 150 155 123 150 155 123 150 155 123 143 150 119 143 150 119 143 150 119 143 150 119 215 222 176 150 155 123 150 155 123 143 150 119 143 150 119 143 150 119 143 150 119 143 150 119 143 150 119 143 150 119 143 150 119 143 150 119 143 150 119 143 150 119 143 150 119 136 144 112 136 144 112 136 144 112 129 139 105 129 139 105 129 139 105 129 139 102 129 139 102 129 139 102 185 199 146 122 136 98 122 136 98 122 136 98 185 199 146 185 199 146 175 195 141 175 195 141 122 136 98 122 136 98 116 134 93 116 134 93 107 133 88 107 133 88 107 133 88 107 133 88 154 190 126 154 190 126 154 190 126 166 192 134 166 192 134 166 192 134 166 192 134 166 192 134 166 192 134 166 192 134 166 192 134 166 192 134 166 192 134 166 192 134 107 133 88 154 190 126 154 190 126 107 133 88 107 133 88 154 190 126 143 187 119 143 187 119 154 190 126 143 187 119 154 190 126 154 190 126 154 190 126 143 187 119 143 187 119 143 187 119 143 187 119 143 187 119 108 140 88 108 140 88 155 200 126 155 200 126 176 215 143 123 150 100 151 156 114 216 224 164 216 224 164 243 234 208 154 168 161 154 168 161 145 168 178 145 168 178 208 240 255 130 163 178 186 234 255 121 158 178 174 227 255 174 227 255 174 227 255 166 224 247 166 224 247 166 224 247 159 221 240 151 214 239 159 221 240 105 149 167 151 214 239 151 214 239 100 142 166 144 204 238 144 204 238 144 204 238 144 204 238 151 214 239 151 214 239 151 214 239 151 214 239 144 204 238 100 142 166 96 138 171 96 138 171 96 138 171 138 198 245 138 198 245 130 194 240 91 135 168 130 194 240 85 133 166 130 194 240 130 194 240 130 194 240 85 133 166 85 133 166 122 190 238 91 135 168 85 133 166 85 133 166 80 128 164 80 128 164 80 128 164 80 128 164 115 184 235 115 184 235 115 184 235 109 180 231 109 180 231 71 122 158 109 180 231 109 180 231 109 180 231 109 180 231 109 180 231 109 180 231 109 180 231 109 180 231 115 184 235 115 184 235 115 184 235 122 190 238

205 215 171 143 150 119 143 150 119 143 150 119 143 150 119 143 150 119 143 150 119 143 150 119 136 144 112 143 150 119 205 215 171 143 150 119 143 150 119 215 222 176 143 150 119 143 150 119 143 150 119 205 215 171 215 222 176 143 150 119 143 150 119 215 222 176 215 222 176 215 222 176 215 222 176 224 228 180 224 228 180 156 159 126 156 159 126 224 228 180 156 159 126 156 159 126 156 159 126 156 159 126 156 159 126 150 155 123 215 222 176 215 222 176 150 155 123 215 222 176 215 222 176 150 155 123 215 222 176 150 155 123 215 222 176 215 222 176 215 222 176 215 222 176 215 222 176 150 155 123 215 222 176 215 222 176 150 155 123 150 155 123 150 155 123 215 222 176 215 222 176 150 155 123 150 155 123 143 150 119 205 215 171 143 150 119 143 150 119 205 215 171 143 150 119 143 150 119 143 150 119 143 150 119 143 150 119 205 215 171 143 150 119 205 215 171 205 215 171 205 215 171 143 150 119 143 150 119 205 215 171 205 215 171 205 215 171 143 150 119 205 215 171 215 222 176 215 222 176 150 155 123 143 150 119 150 155 123 150 155 123 150 155 123 150 155 123 150 155 123 150 155 123 150 155 123 215 222 176 150 155 123 150 155 123 150 155 123 215 222 176 215 222 176 150 155 123 150 155 123 143 150 119 215 222 176 205 215 171 143 150 119 143 150 119 143 150 119 143 150 119 143 150 119 143 150 119 136 144 112 136 144 112 136 144 112 136 144 112 136 144 112 136 144 112 136 144 112 136 144 112 143 150 119 143 150 119 136 144 112 129 139 105 129 139 105 129 139 105 129 139 105 129 139 102 129 139 102 129 139 102 122 136 98 185 199 146 129 139 102 175 195 141 175 195 141 122 136 98 129 139 102 122 136 98 122 136 98 122 136 98 122 136 98 116 134 93 116 134 93 116 134 93 154 190 126 154 190 126 154 190 126 154 190 126 154 190 126 154 190 126 166 192 134 166 192 134 166 192 134 166 192 134 175 195 141 166 192 134 175 195 141 166 192 134 166 192 134 166 192 134 166 192 134 166 192 134 166 192 134 107 133 88 107 133 88 154 190 126 154 190 126 154 190 126 154 190 126 154 190 126 154 190 126 154 190 126 107 133 88 107 133 88 100 130 83 143 187 119 143 187 119 143 187 119 100 130 83 100 130 83 143 187 119 155 200 126 143 187 119 155 200 126 176 215 143 176 215 143 216 224 164 151 156 114 170 163 145 170 163 145 154 168 161 145 168 178 145 168 178 208 240 255 130 163 178 186 234 255 186 234 255 186 234 255 186 234 255 174 227 255 121 158 178 166 224 247 166 224 247 111 154 168 159 221 240 159 221 240 159 221 240 151 214 239 105 149 167 151 214 239 151 214 239 151 214 239 144 204 238 151 214 239 151 214 239 151 214 239 105 149 167 105 149 167 105 149 167 100 142 166 144 204 238 138 198 245 138 198 245 96 138 171 91 135 168 91 135 168 91 135 168 130 194 240 130 194 240 130 194 240 130 194 240 85 133 166 85 133 166 85 133 166 122 190 238 130 194 240 85 133 166 85 133 166 80 128 164 80 128 164 80 128 164 115 184 235 115 184 235 115 184 235 115 184 235 76 126 161 76 126 161 71 122 158 109 180 231 109 180 231 109 180 231 115 184 235 115 184 235 115 184 235 109 180 231 115 184 235 115 184 235 115 184 235 115 184 235 122 190 238

215 222 176 205 215 171 205 215 171 143 150 119 143 150 119 143 150 119 136 144 112 136 144 112 136 144 112 195 206 160 205 215 171 205 215 171 205 215 171 143 150 119 143 150 119 143 150 119 215 222 176 205 215 171 215 222 176 143 150 119 205 215 171 215 222 176 150 155 123 215 222 176 150 155 123 150 155 123 150 155 123 156 159 126 224 228 180 224 228 180 156 159 126 224 228 180 234 231 186 156 159 126 156 159 126 150 155 123 224 228 180 150 155 123 150 155 123 215 222 176 215 222 176 215 222 176 215 222 176 150 155 123 215 222 176 215 222 176 215 222 176 215 222 176 215 222 176 150 155 123 215 222 176 224 228 180 224 228 180 215 222 176 150 155 123 215 222 176 224 228 180 150 155 123 143 150 119 143 150 119 143 150 119 143 150 119 143 150 119 143 150 119 205 215 171 143 150 119 143 150 119 143 150 119 143 150 119 205 215 171 205 215 171 205 215 171 205 215 171 143 150 119 205 215 171 205 215 171 205 215 171 136 144 112 136 144 112 143 150 119 143 150 119 205 215 171 215 222 176 143 150 119 143 150 119 215 222 176 215 222 176 215 222 176 150 155 123 215 222 176 215 222 176 150 155 123 143 150 119 143 150 119 215 222 176 150 155 123 215 222 176 143 150 119 215 222 176 150 155 123 143 150 119 215 222 176 143 150 119 143 150 119 205 215 171 143 150 119 136 144 112 136 144 112 136 144 112 136 144 112 136 144 112 136 144 112 136 144 112 136 144 112 136 144 112 195 206 160 195 206 160 136 144 112 136 144 112 129 139 105 129 139 105 129 139 105 129 139 105 129 139 102 129 139 102 129 139 102 129 139 102 185 199 146 185 199 146 122 136 98 122 136 98 122 136 98 175 195 141 175 195 141 122 136 98 122 136 98 116 134 93 175 195 141 116 134 93 166 192 134 166 192 134 166 192 134 154 190 126 154 190 126 166 192 134 154 190 126 166 192 134 166 192 134 175 195 141 175 195 141 175 195 141 175 195 141 175 195 141 175 195 141 175 195 141 175 195 141 175 195 141 166 192 134 166 192 134 166 192 134 116 134 93 154 190 126 166 192 134 166 192 134 166 192 134 154 190 126 154 190 126 154 190 126 154 190 126 154 190 126 154 190 126 154 190 126 154 190 126 143 187 119 143 187 119 100 130 83 143 187 119 143 187 119 143 187 119 143 187 119 143 187 119 155 200 126 155 200 126 176 215 143 176 215 143 216 224 164 243 234 208 243 234 208 154 168 161 221 240 230 221 240 230 208 240 255 130 163 178 186 234 255 186 234 255 186 234 255 121 158 178 174 227 255 174 227 255 166 224 247 116 156 172 166 224 247 159 221 240 159 221 240 111 154 168 151 214 239 159 221 240 151 214 239 151 214 239 151 214 239 151 214 239 151 214 239 151 214 239 105 149 167 151 214 239 151 214 239 151 214 239 151 214 239 144 204 238 144 204 238 96 138 171 138 198 245 138 198 245 91 135 168 130 194 240 91 135 168 130 194 240 85 133 166 85 133 166 85 133 166 122 190 238 122 190 238 130 194 240 85 133 166 80 128 164 80 128 164 115 184 235 115 184 235 115 184 235 115 184 235 115 184 235 80 128 164 80 128 164 109 180 231 109 180 231 109 180 231 109 180 231 115 184 235 115 184 235 115 184 235 115 184 235 76 126 161 115 184 235 115 184 235 122 190 238 122 190 238 122 190 238

205 215 171 143 150 119 143 150 119 143 150 119 143 150 119 136 144 112 136 144 112 136 144 112 195 206 160 136 144 112 136 144 112 136 144 112 143 150 119 143 150 119 205 215 171 143 150 119 143 150 119 143 150 119 205 215 171 143 150 119 205 215 171 205 215 171 215 222 176 215 222 176 215 222 176 150 155 123 150 155 123 215 222 176 150 155 123 156 159 126 156 159 126 224 228 180 224 228 180 156 159 126 150 155 123 156 159 126 150 155 123 150 155 123 215 222 176 215 222 176 215 222 176 215 222 176 150 155 123 150 155 123 215 222 176 215 222 176 215 222 176 215 222 176 150 155 123 150 155 123 215 222 176 215 222 176 150 155 123 150 155 123 150 155 123 215 222 176 150 155 123 150 155 123 143 150 119 143 150 119 143 150 119 143 150 119 143 150 119 205 215 171 205 215 171 143 150 119 136 144 112 136 144 112 136 144 112 136 144 112 136 144 112 205 215 171 143 150 119 136 144 112 136 144 112 136 144 112 205 215 171 136 144 112 136 144 112 195 206 160 205 215 171 205 215 171 205 215 171 143 150 119 143 150 119 205 215 171 215 222 176 143 150 119 150 155 123 150 155 123 143 150 119 143 150 119 143 150 119 215 222 176 215 222 176 215 222 176 215 222 176 143 150 119 143 150 119 143 150 119 143 150 119 143 150 119 143 150 119 143 150 119 143 150 119 143 150 119 136 144 112 136 144 112 136 144 112 195 206 160 195 206 160 136 144 112 195 206 160 129 139 105 129 139 105 195 206 160 136 144 112 136 144 112 129 139 105 129 139 105 129 139 105 129 139 105 129 139 102 129 139 102 129 139 102 129 139 102 122 136 98 129 139 102 122 136 98 122 136 98 175 195 141 175 195 141 175 195 141 122 136 98 175 195 141 122 136 98 175 195 141 116 134 93 116 134 93 166 192 134 116 134 93 107 133 88 107 133 88 107 133 88 154 190 126 166 192 134 166 192 134 166 192 134 175 195 141 175 195 141 175 195 141 175 195 141 175 195 141 175 195 141 185 199 146 185 199 146 175 195 141 175 195 141 166 192 134 175 195 141 175 195 141 166 192 134 166 192 134 166 192 134 166 192 134 166 192 134 154 190 126 154 190 126 107 133 88 154 190 126 154 190 126 154 190 126 154 190 126 154 190 126 143 187 119 143 187 119 154 190 126 143 187 119 143 187 119 143 187 119 143 187 119 100 130 83 155 200 126 108 140 88 123 150 100 151 156 114 151 156 114 243 234 208 243 234 208 221 240 230 221 240 230 145 168 178 130 163 178 186 234 255 208 240 255 186 234 255 130 163 178 174 227 255 121 158 178 121 158 178 116 156 172 116 156 172 166 224 247 166 224 247 111 154 168 159 221 240 159 221 240 159 221 240 151 214 239 151 214 239 151 214 239 105 149 167 151 214 239 105 149 167 151 214 239 151 214 239 151 214 239 105 149 167 100 142 166 100 142 166 96 138 171 138 198 245 138 198 245 91 135 168 130 194 240 85 133 166 85 133 166 85 133 166 85 133 166 85 133 166 85 133 166 85 133 166 122 190 238 85 133 166 80 128 164 80 128 164 115 184 235 115 184 235 80 128 164 80 128 164 80 128 164 80 128 164 115 184 235 115 184 235 115 184 235 109 180 231 109 180 231 115 184 235 115 184 235 115 184 235 115 184 235 80 128 164 115 184 235 115 184 235 115 184 235 122 190 238 122 190 238

205 215 171 205 215 171 143 150 119 205 215 171 136 144 112 136 144 112 136 144 112 136 144 112 195 206 160 129 139 105 195 206 160 195 206 160 205 215 171 205 215 171 205 215 171 143 150 119 143 150 119 205 215 171 205 215 171 143 150 119 143 150 119 205 215 171 215 222 176 150 155 123 215 222 176 150 155 123 150 155 123 215 222 176 150 155 123 150 155 123 224 228 180 224 228 180 224 228 180 156 159 126 150 155 123 150 155 123 150 155 123 215 222 176 215 222 176 215 222 176 215 222 176 150 155 123 150 155 123 215 222 176 215 222 176 215 222 176 215 222 176 150 155 123 150 155 123 143 150 119 150 155 123 150 155 123 150 155 123 150 155 123 150 155 123 150 155 123 150 155 123 143 150 119 143 150 119 143 150 119 205 215 171 205 215 171 205 215 171 136 144 112 205 215 171 136 144 112 136 144 112 136 144 112 136 144 112 136 144 112 195 206 160 136 144 112 136 144 112 136 144 112 136 144 112 195 206 160 136 144 112 136 144 112 195 206 160 195 206 160 205 215 171 143 150 119 205 215 171 143 150 119 143 150 119 205 215 171 205 215 171 143 150 119 143 150 119 143 150 119 143 150 119 143 150 119 143 150 119 215 222 176 215 222 176 215 222 176 143 150 119 143 150 119 143 150 119 143 150 119 205 215 171 205 215 171 205 215 171 143 150 119 143 150 119 205 215 171 136 144 112 136 144 112 195 206 160 195 206 160 136 144 112 136 144 112 129 139 105 129 139 105 129 139 105 195 206 160 195 206 160 129 139 105 129 139 105 129 139 105 129 139 105 129 139 102 129 139 102 129 139 102 185 199 146 122 136 98 185 199 146 185 199 146 185 199 146 175 195 141 175 195 141 122 136 98 175 195 141 122 136 98 122 136 98 122 136 98 175 195 141 175 195 141 166 192 134 116 134 93 116 134 93 107 133 88 154 190 126 154 190 126 154 190 126 166 192 134 175 195 141 166 192 134 175 195 141 122 136 98 175 195 141 175 195 141 175 195 141 175 195 141 185 199 146 185 199 146 185 199 146 175 195 141 175 195 141 175 195 141 175 195 141 175 195 141 166 192 134 175 195 141 166 192 134 116 134 93 116 134 93 154 190 126 107 133 88 154 190 126 107 133 88 107 133 88 154 190 126 154 190 126 154 190 126 154 190 126 154 190 126 154 190 126 154 190 126 143 187 119 143 187 119 100 130 83 108 140 88 108 140 88 108 140 88 176 215 143 176 215 143 170 163 145 170 163 145 154 168 161 154 168 161 145 168 178 208 240 255 208 240 255 208 240 255 130 163 178 130 163 178 186 234 255 121 158 178 174 227 255 116 156 172 166 224 247 166 224 247 116 156 172 166 224 247 159 221 240 159 221 240 159 221 240 105 149 167 151 214 239 151 214 239 151 214 239 151 214 239 151 214 239 159 221 240 151 214 239 105 149 167 100 142 166 100 142 166 144 204 238 144 204 238 96 138 171 96 138 171 91 135 168 91 135 168 85 133 166 85 133 166 85 133 166 85 133 166 80 128 164 122 190 238 80 128 164 85 133 166 80 128 164 80 128 164 80 128 164 115 184 235 115 184 235 80 128 164 115 184 235 76 126 161 80 128 164 115 184 235 115 184 235 115 184 235 76 126 161 115 184 235 115 184 235 115 184 235 115 184 235 80 128 164 80 128 164 115 184 235 115 184 235 115 184 235 80 128 164 122 190 238

205 215 171 136 144 112 143 150 119 205 215 171 136 144 112 136 144 112 195 206 160 136 144 112 195 206 160 129 139 105 195 206 160 195 206 160 195 206 160 205 215 171 143 150 119 143 150 119 205 215 171 143 150 119 205 215 171 205 215 171 205 215 171 215 222 176 143 150 119 150 155 123 143 150 119 150 155 123 143 150 119 150 155 123 215 222 176 215 222 176 215 222 176 224 228 180 224 228 180 156 159 126 150 155 123 150 155 123 150 155 123 215 222 176 150 155 123 215 222 176 215 222 176 150 155 123 215 222 176 150 155 123 215 222 176 215 222 176 150 155 123 215 222 176 150 155 123 143 150 119 143 150 119 143 150 119 143 150 119 143 150 119 143 150 119 143 150 119 215 222 176 150 155 123 143 150 119 143 150 119 143 150 119 136 144 112 136 144 112 136 144 112 136 144 112 136 144 112 129 139 105 129 139 105 129 139 105 129 139 105 129 139 105 129 139 105 129 139 105 136 144 112 195 206 160 195 206 160 136 144 112 136 144 112 136 144 112 205 215 171 205 215 171 205 215 171 205 215 171 205 215 171 143 150 119 143 150 119 143 150 119 143 150 119 143 150 119 143 150 119 143 150 119 143 150 119 205 215 171 215 222 176 215 222 176 150 155 123 215 222 176 143 150 119 143 150 119 143 150 119 205 215 171 205 215 171 143 150 119 143 150 119 205 215 171 205 215 171 136 144 112 136 144 112 195 206 160 195 206 160 129 139 105 129 139 105 129 139 105 129 139 105 129 139 105 185 199 150 129 139 105 129 139 105 129 139 105 129 139 105 129 139 105 129 139 102 185 199 146 185 199 146 129 139 102 122 136 98 122 136 98 122 136 98 122 136 98 122 136 98 122 136 98 122 136 98 175 195 141 122 136 98 122 136 98 175 195 141 175 195 141 175 195 141 122 136 98 116 134 93 116 134 93 166 192 134 154 190 126 166 192 134 154 190 126 166 192 134 166 192 134 175 195 141 175 195 141 122 136 98 175 195 141 185 199 146 185 199 146 185 199 146 185 199 146 185 199 146 185 199 146 185 199 146 185 199 146 185 199 146 185 199 146 185 199 146 122 136 98 175 195 141 116 134 93 116 134 93 166 192 134 166 192 134 107 133 88 107 133 88 154 190 126 154 190 126 154 190 126 107 133 88 154 190 126 154 190 126 154 190 126 154 190 126 107 133 88 154 190 126 143 187 119 100 130 83 100 130 83 108 140 88 155 200 126 155 200 126 176 215 143 151 156 114 216 224 164 243 234 208 154 168 161 221 240 230 221 240 230 208 240 255 208 240 255 145 168 178 208 240 255 186 234 255 130 163 178 174 227 255 174 227 255 174 227 255 116 156 172 116 156 172 166 224 247 111 154 168 166 224 247 166 224 247 159 221 240 159 221 240 159 221 240 159 221 240 151 214 239 159 221 240 159 221 240 105 149 167 151 214 239 151 214 239 151 214 239 100 142 166 100 142 166 96 138 171 96 138 171 91 135 168 91 135 168 85 133 166 122 190 238 122 190 238 85 133 166 122 190 238 122 190 238 85 133 166 122 190 238 122 190 238 115 184 235 115 184 235 115 184 235 80 128 164 80 128 164 80 128 164 80 128 164 76 126 161 76 126 161 76 126 161 115 184 235 115 184 235 115 184 235 115 184 235 115 184 235 115 184 235 115 184 235 115 184 235 115 184 235 115 184 235 80 128 164 115 184 235 115 184 235

205 215 171 143 150 119 195 206 160 205 215 171 205 215 171 136 144 112 195 206 160 129 139 105 129 139 105 129 139 105 195 206 160 195 206 160 205 215 171 205 215 171 136 144 112 205 215 171 136 144 112 143 150 119 205 215 171 205 215 171 215 222 176 143 150 119 143 150 119 205 215 171 143 150 119 215 222 176 215 222 176 215 222 176 215 222 176 215 222 176 150 155 123 150 155 123 156 159 126 150 155 123 150 155 123 215 222 176 215 222 176 150 155 123 215 222 176 215 222 176 150 155 123 150 155 123 150 155 123 143 150 119 143 150 119 150 155 123 215 222 176 143 150 119 150 155 123 143 150 119 143 150 119 143 150 119 143 150 119 205 215 171 205 215 171 205 215 171 215 222 176 143 150 119 143 150 119 136 144 112 136 144 112 129 139 105 136 144 112 136 144 112 136 144 112 129 139 105 129 139 105 129 139 105 129 139 105 129 139 105 129 139 105 129 139 105 129 139 105 129 139 105 129 139 105 195 206 160 136 144 112 129 139 105 136 144 112 195 206 160 205 215 171 143 150 119 205 215 171 143 150 119 143 150 119 136 144 112 143 150 119 143 150 119 136 144 112 136 144 112 205 215 171 205 215 171 205 215 171 205 215 171 143 150 119 215 222 176 215 222 176 143 150 119 205 215 171 205 215 171 205 215 171 205 215 171 143 150 119 205 215 171 205 215 171 205 215 171 143 150 119 195 206 160 205 215 171 136 144 112 129 139 105 129 139 105 129 139 105 129 139 102 129 139 105 129 139 105 185 199 150 129 139 105 129 139 105 185 199 150 129 139 102 129 139 102 185 199 150 129 139 102 185 199 146 122 136 98 122 136 98 116 134 93 116 134 93 116 134 93 116 134 93 175 195 141 175 195 141 122 136 98 122 136 98 175 195 141 175 195 141 175 195 141 175 195 141 116 134 93 166 192 134 166 192 134 107 133 88 166 192 134 107 133 88 166 192 134 175 195 141 175 195 141 175 195 141 175 195 141 175 195 141 185 199 146 185 199 146 185 199 146 185 199 150 185 199 150 185 199 150 185 199 146 185 199 146 185 199 146 185 199 150 185 199 146 122 136 98 175 195 141 116 134 93 116 134 93 116 134 93 166 192 134 166 192 134 154 190 126 154 190 126 107 133 88 154 190 126 107 133 88 154 190 126 154 190 126 166 192 134 154 190 126 154 190 126 107 133 88 100 130 83 100 130 83 108 140 88 108 140 88 143 187 119 155 200 126 155 200 126 176 215 143 176 215 143 216 224 164 243 234 208 243 234 208 221 240 230 221 240 230 221 240 230 145 168 178 208 240 255 208 240 255 186 234 255 186 234 255 186 234 255 174 227 255 174 227 255 166 224 247 166 224 247 166 224 247 166 224 247 166 224 247 166 224 247 166 224 247 159 221 240 159 221 240 159 221 240 159 221 240 159 221 240 159 221 240 159 221 240 151 214 239 105 149 167 105 149 167 144 204 238 96 138 171 96 138 171 91 135 168 85 133 166 85 133 166 122 190 238 122 190 238 122 190 238 122 190 238 122 190 238 122 190 238 122 190 238 122 190 238 122 190 238 115 184 235 122 190 238 80 128 164 115 184 235 76 126 161 76 126 161 76 126 161 115 184 235 109 180 231 115 184 235 80 128 164 80 128 164 115 184 235 122 190 238 115 184 235 115 184 235 115 184 235 122 190 238 122 190 238 122 190 238 115 184 235 122 190 238

195 206 160 136 144 112 136 144 112 136 144 112 136 144 112 136 144 112 195 206 160 136 144 112 185 199 150 195 206 160 195 206 160 195 206 160 195 206 160 205 215 171 205 215 171 205 215 171 205 215 171 205 215 171 205 215 171 205 215 171 205 215 171 143 150 119 143 150 119 143 150 119 143 150 119 205 215 171 215 222 176 150 155 123 215 222 176 215 222 176 215 222 176 150 155 123 150 155 123 143 150 119 150 155 123 215 222 176 150 155 123 150 155 123 215 222 176 215 222 176 150 155 123 150 155 123 150 155 123 143 150 119 205 215 171 205 215 171 143 150 119 150 155 123 143 150 119 143 150 119 143 150 119 143 150 119 205 215 171 205 215 171 143 150 119 143 150 119 143 150 119 136 144 112 136 144 112 136 144 112 129 139 105 129 139 105 129 139 105 129 139 105 129 139 105 129 139 102 129 139 102 129 139 102 185 199 150 129 139 105 129 139 102 129 139 102 185 199 150 129 139 105 129 139 105 185 199 150 129 139 105 195 206 160 195 206 160 195 206 160 136 144 112 136 144 112 136 144 112 136 144 112 136 144 112 136 144 112 136 144 112 143 150 119 136 144 112 205 215 171 205 215 171 205 215 171 143 150 119 143 150 119 143 150 119 205 215 171 143 150 119 143 150 119 143 150 119 205 215 171 143 150 119 143 150 119 136 144 112 136 144 112 205 215 171 205 215 171 205 215 171 205 215 171 136 144 112 136 144 112 136 144 112 129 139 105 129 139 105 185 199 150 185 199 150 185 199 150 185 199 150 129 139 105 185 199 150 129 139 105 129 139 102 129 139 102 185 199 146 129 139 102 122 136 98 122 136 98 122 136 98 116 134 93 166 192 134 166 192 134 175 195 141 175 195 141 175 195 141 122 136 98 175 195 141 175 195 141 185 199 146 185 199 146 122 136 98 122 136 98 166 192 134 166 192 134 166 192 134 166 192 134 166 192 134 175 195 141 175 195 141 175 195 141 175 195 141 175 195 141 175 195 141 185 199 146 185 199 146 129 139 102 185 199 150 185 199 150 185 199 150 129 139 105 185 199 150 185 199 150 185 199 150 129 139 105 122 136 98 122 136 98 116 134 93 116 134 93 166 192 134 166 192 134 116 134 93 107 133 88 154 190 126 107 133 88 154 190 126 107 133 88 154 190 126 154 190 126 154 190 126 107 133 88 107 133 88 107 133 88 154 190 126 100 130 83 143 187 119 143 187 119 143 187 119 108 140 88 108 140 88 123 150 100 123 150 100 151 156 114 151 156 114 170 163 145 154 168 161 154 168 161 154 168 161 145 168 178 208 240 255 208 240 255 208 240 255 208 240 255 186 234 255 121 158 178 174 227 255 174 227 255 166 224 247 166 224 247 116 156 172 116 156 172 166 224 247 166 224 247 111 154 168 111 154 168 111 154 168 159 221 240 111 154 168 159 221 240 105 149 167 105 149 167 105 149 167 105 149 167 100 142 166 96 138 171 91 135 168 91 135 168 130 194 240 122 190 238 122 190 238 85 133 166 122 190 238 85 133 166 122 190 238 85 133 166 80 128 164 85 133 166 85 133 166 80 128 164 80 128 164 80 128 164 76 126 161 76 126 161 76 126 161 76 126 161 109 180 231 76 126 161 115 184 235 115 184 235 115 184 235 115 184 235 115 184 235 80 128 164 80 128 164 115 184 235 122 190 238 122 190 238 122 190 238 80 128 164 115 184 235

195 206 160 136 144 112 136 144 112 136 144 112 195 206 160 195 206 160 195 206 160 195 206 160 195 206 160 195 206 160 195 206 160 195 206 160 195 206 160 205 215 171 205 215 171 205 215 171 205 215 171 205 215 171 205 215 171 205 215 171 205 215 171 143 150 119 205 215 171 143 150 119 205 215 171 205 215 171 215 222 176 143 150 119 215 222 176 143 150 119 150 155 123 143 150 119 150 155 123 143 150 119 143 150 119 143 150 119 150 155 123 215 222 176 215 222 176 150 155 123 150 155 123 150 155 123 143 150 119 143 150 119 143 150 119 143 150 119 143 150 119 205 215 171 143 150 119 205 215 171 205 215 171 143 150 119 205 215 171 143 150 119 136 144 112 136 144 112 136 144 112 136 144 112 136 144 112 136 144 112 129 139 105 129 139 105 129 139 102 129 139 105 129 139 102 129 139 102 129 139 102 129 139 102 185 199 146 129 139 102 129 139 102 129 139 102 185 199 146 185 199 150 185 199 150 185 199 150 185 199 150 185 199 150 129 139 105 195 206 160 195 206 160 136 144 112 136 144 112 136 144 112 136 144 112 136 144 112 136 144 112 195 206 160 136 144 112 195 206 160 205 215 171 205 215 171 205 215 171 205 215 171 205 215 171 143 150 119 143 150 119 143 150 119 205 215 171 205 215 171 143 150 119 205 215 171 205 215 171 205 215 171 205 215 171 205 215 171 205 215 171 143 150 119 136 144 112 195 206 160 136 144 112 129 139 105 185 199 150 129 139 105 129 139 105 129 139 102 185 199 150 129 139 102 129 139 105 129 139 102 129 139 102 129 139 102 185 199 146 129 139 102 122 136 98 122 136 98 122 136 98 116 134 93 166 192 134 116 134 93 175 195 141 175 195 141 185 199 146 175 195 141 175 195 141 185 199 146 185 199 146 185 199 146 185 199 146 175 195 141 175 195 141 175 195 141 116 134 93 166 192 134 175 195 141 175 195 141 175 195 141 175 195 141 175 195 141 175 195 141 175 195 141 185 199 146 185 199 146 185 199 146 185 199 150 185 199 150 129 139 105 185 199 150 185 199 150 185 199 150 185 199 150 129 139 105 129 139 102 175 195 141 175 195 141 175 195 141 175 195 141 175 195 141 166 192 134 166 192 134 107 133 88 107 133 88 107 133 88 107 133 88 154 190 126 154 190 126 154 190 126 107 133 88 154 190 126 107 133 88 107 133 88 100 130 83 100 130 83 143 187 119 143 187 119 100 130 83 155 200 126 108 140 88 123 150 100 151 156 114 151 156 114 170 163 145 154 168 161 221 240 230 221 240 230 154 168 161 221 240 230 208 240 255 208 240 255 145 168 178 208 240 255 186 234 255 186 234 255 121 158 178 174 227 255 174 227 255 174 227 255 166 224 247 166 224 247 116 156 172 166 224 247 159 221 240 111 154 168 159 221 240 111 154 168 105 149 167 159 221 240 105 149 167 105 149 167 100 142 166 96 138 171 96 138 171 91 135 168 91 135 168 130 194 240 91 135 168 130 194 240 122 190 238 122 190 238 85 133 166 85 133 166 85 133 166 80 128 164 80 128 164 80 128 164 80 128 164 80 128 164 80 128 164 80 128 164 76 126 161 76 126 161 76 126 161 109 180 231 109 180 231 109 180 231 115 184 235 115 184 235 115 184 235 115 184 235 115 184 235 80 128 164 80 128 164 80 128 164 80 128 164 85 133 166 80 128 164 122 190 238

195 206 160 195 206 160 136 144 112 136 144 112 136 144 112 195 206 160 195 206 160 136 144 112 195 206 160 195 206 160 195 206 160 195 206 160 195 206 160 205 215 171 205 215 171 205 215 171 205 215 171 205 215 171 143 150 119 143 150 119 205 215 171 143 150 119 205 215 171 143 150 119 205 215 171 205 215 171 143 150 119 143 150 119 143 150 119 143 150 119 143 150 119 143 150 119 143 150 119 143 150 119 143 150 119 143 150 119 143 150 119 143 150 119 143 150 119 143 150 119 215 222 176 143 150 119 143 150 119 143 150 119 205 215 171 205 215 171 205 215 171 205 215 171 205 215 171 205 215 171 143 150 119 143 150 119 205 215 171 143 150 119 136 144 112 136 144 112 136 144 112 136 144 112 129 139 105 129 139 105 129 139 105 129 139 102 129 139 102 129 139 102 122 136 98 122 136 98 129 139 102 129 139 102 129 139 102 129 139 102 185 199 146 185 199 146 185 199 146 185 199 150 185 199 150 129 139 105 129 139 105 185 199 150 129 139 105 129 139 105 129 139 105 129 139 105 129 139 105 129 139 105 129 139 105 129 139 105 136 144 112 136 144 112 136 144 112 136 144 112 136 144 112 205 215 171 205 215 171 205 215 171 143 150 119 143 150 119 143 150 119 205 215 171 205 215 171 143 150 119 143 150 119 143 150 119 136 144 112 136 144 112 205 215 171 205 215 171 136 144 112 143 150 119 136 144 112 195 206 160 136 144 112 136 144 112 185 199 150 185 199 150 185 199 150 185 199 150 129 139 102 129 139 102 129 139 102 129 139 102 185 199 146 185 199 146 185 199 146 129 139 102 122 136 98 122 136 98 122 136 98 116 134 93 175 195 141 166 192 134 175 195 141 185 199 146 175 195 141 122 136 98 175 195 141 175 195 141 185 199 146 129 139 102 122 136 98 185 199 146 175 195 141 122 136 98 116 134 93 175 195 141 175 195 141 175 195 141 122 136 98 122 136 98 175 195 141 175 195 141 185 199 146 185 199 146 185 199 146 185 199 150 185 199 150 185 199 150 185 199 150 185 199 150 185 199 150 185 199 150 185 199 150 129 139 105 129 139 102 129 139 102 175 195 141 122 136 98 175 195 141 175 195 141 116 134 93 116 134 93 166 192 134 154 190 126 154 190 126 107 133 88 154 190 126 154 190 126 154 190 126 107 133 88 107 133 88 107 133 88 100 130 83 100 130 83 143 187 119 143 187 119 100 130 83 108 140 88 108 140 88 108 140 88 123 150 100 123 150 100 151 156 114 170 163 145 170 163 145 221 240 230 221 240 230 154 168 161 221 240 230 221 240 230 208 240 255 208 240 255 208 240 255 208 240 255 130 163 178 186 234 255 186 234 255 174 227 255 174 227 255 174 227 255 174 227 255 166 224 247 166 224 247 166 224 247 166 224 247 159 221 240 111 154 168 105 149 167 151 214 239 105 149 167 105 149 167 100 142 166 96 138 171 96 138 171 96 138 171 91 135 168 130 194 240 91 135 168 130 194 240 130 194 240 122 190 238 122 190 238 122 190 238 80 128 164 80 128 164 115 184 235 80 128 164 80 128 164 80 128 164 76 126 161 76 126 161 76 126 161 76 126 161 109 180 231 109 180 231 109 180 231 109 180 231 115 184 235 115 184 235 80 128 164 115 184 235 80 128 164 80 128 164 115 184 235 115 184 235 115 184 235 115 184 235 80 128 164 80 128 164

195 206 160 136 144 112 129 139 105 129 139 105 195 206 160 195 206 160 136 144 112 136 144 112 205 215 171 195 206 160 205 215 171 205 215 171 205 215 171 205 215 171 205 215 171 143 150 119 205 215 171 143 150 119 143 150 119 143 150 119 205 215 171 205 215 171 205 215 171 143 150 119 205 215 171 143 150 119 143 150 119 143 150 119 215 222 176 143 150 119 143 150 119 143 150 119 136 144 112 136 144 112 143 150 119 136 144 112 136 144 112 205 215 171 205 215 171 205 215 171 215 222 176 143 150 119 143 150 119 205 215 171 205 215 171 205 215 171 215 222 176 143 150 119 205 215 171 143 150 119 143 150 119 143 150 119 205 215 171 136 144 112 136 144 112 136 144 112 136 144 112 129 139 105 129 139 105 129 139 102 129 139 102 129 139 102 129 139 102 122 136 98 122 136 98 122 136 98 175 195 141 122 136 98 185 199 146 185 199 146 185 199 146 185 199 146 185 199 150 185 199 150 185 199 150 129 139 102 185 199 150 185 199 150 129 139 105 129 139 105 185 199 150 185 199 150 129 139 105 129 139 105 185 199 150 185 199 150 129 139 105 195 206 160 136 144 112 195 206 160 195 206 160 205 215 171 205 215 171 143 150 119 143 150 119 205 215 171 205 215 171 136 144 112 143 150 119 205 215 171 205 215 171 143 150 119 136 144 112 195 206 160 205 215 171 143 150 119 136 144 112 205 215 171 205 215 171 205 215 171 195 206 160 136 144 112 195 206 160 129 139 105 129 139 105 129 139 105 129 139 102 185 199 146 129 139 102 185 199 150 185 199 150 129 139 102 129 139 102 129 139 102 185 199 146 122 136 98 116 134 93 116 134 93 166 192 134 116 134 93 175 195 141 175 195 141 185 199 146 185 199 146 175 195 141 185 199 146 185 199 146 185 199 146 185 199 146 185 199 146 185 199 146 122 136 98 175 195 141 175 195 141 185 199 146 122 136 98 175 195 141 175 195 141 175 195 141 175 195 141 185 199 146 185 199 146 185 199 146 185 199 146 185 199 150 195 206 160 195 206 160 195 206 160 195 206 160 185 199 150 195 206 160 129 139 105 129 139 102 185 199 146 185 199 146 185 199 146 175 195 141 175 195 141 175 195 141 166 192 134 166 192 134 107 133 88 107 133 88 107 133 88 154 190 126 107 133 88 107 133 88 107 133 88 154 190 126 100 130 83 107 133 88 154 190 126 143 187 119 100 130 83 100 130 83 108 140 88 108 140 88 155 200 126 108 140 88 123 150 100 151 156 114 170 163 145 170 163 145 243 234 208 221 240 230 154 168 161 221 240 230 221 240 230 221 240 230 221 240 230 208 240 255 208 240 255 145 168 178 186 234 255 186 234 255 121 158 178 174 227 255 174 227 255 174 227 255 174 227 255 174 227 255 174 227 255 166 224 247 111 154 168 159 221 240 105 149 167 151 214 239 105 149 167 105 149 167 100 142 166 100 142 166 138 198 245 96 138 171 91 135 168 91 135 168 130 194 240 130 194 240 130 194 240 130 194 240 122 190 238 122 190 238 85 133 166 80 128 164 76 126 161 76 126 161 76 126 161 76 126 161 76 126 161 76 126 161 76 126 161 109 180 231 109 180 231 76 126 161 115 184 235 115 184 235 115 184 235 115 184 235 115 184 235 80 128 164 80 128 164 80 128 164 115 184 235 115 184 235 115 184 235 80 128 164 115 184 235 115 184 235

185 199 150 136 144 112 129 139 105 185 199 150 185 199 150 195 206 160 195 206 160 195 206 160 195 206 160 205 215 171 195 206 160 205 215 171 205 215 171 205 215 171 205 215 171 143 150 119 136 144 112 143 150 119 205 215 171 205 215 171 205 215 171 143 150 119 143 150 119 143 150 119 205 215 171 143 150 119 205 215 171 143 150 119 143 150 119 136 144 112 136 144 112 136 144 112 136 144 112 136 144 112 136 144 112 136 144 112 136 144 112 195 206 160 143 150 119 205 215 171 215 222 176 143 150 119 143 150 119 205 215 171 215 222 176 215 222 176 215 222 176 150 155 123 215 222 176 205 215 171 143 150 119 205 215 171 136 144 112 136 144 112 195 206 160 136 144 112 136 144 112 129 139 105 129 139 105 129 139 105 129 139 102 129 139 102 122 136 98 122 136 98 122 136 98 116 134 93 175 195 141 122 136 98 175 195 141 185 199 146 185 199 146 185 199 146 185 199 150 129 139 102 129 139 102 129 139 102 129 139 102 129 139 102 129 139 102 129 139 105 129 139 102 129 139 102 129 139 102 185 199 150 185 199 150 185 199 150 185 199 150 129 139 105 129 139 105 195 206 160 136 144 112 136 144 112 136 144 112 136 144 112 136 144 112 136 144 112 205 215 171 205 215 171 205 215 171 143 150 119 143 150 119 136 144 112 136 144 112 195 206 160 205 215 171 205 215 171 205 215 171 205 215 171 136 144 112 136 144 112 136 144 112 136 144 112 129 139 105 129 139 105 129 139 105 129 139 105 129 139 102 185 199 146 185 199 150 185 199 150 185 199 150 129 139 102 129 139 102 129 139 102 185 199 146 122 136 98 175 195 141 175 195 141 175 195 141 175 195 141 175 195 141 185 199 146 185 199 146 129 139 102 185 199 146 185 199 146 185 199 146 185 199 146 185 199 146 185 199 146 129 139 102 185 199 146 175 195 141 175 195 141 185 199 146 122 136 98 175 195 141 185 199 146 185 199 146 185 199 146 185 199 146 185 199 150 185 199 150 185 199 150 185 199 150 195 206 160 195 206 160 136 144 112 136 144 112 195 206 160 185 199 150 129 139 105 185 199 150 185 199 150 129 139 102 129 139 102 122 136 98 122 136 98 122 136 98 116 134 93 116 134 93 116 134 93 107 133 88 154 190 126 154 190 126 107 133 88 107 133 88 154 190 126 154 190 126 154 190 126 154 190 126 154 190 126 100 130 83 100 130 83 143 187 119 108 140 88 108 140 88 108 140 88 108 140 88 123 150 100 123 150 100 151 156 114 216 224 164 216 224 164 243 234 208 243 234 208 221 240 230 221 240 230 221 240 230 154 168 161 145 168 178 145 168 178 130 163 178 130 163 178 186 234 255 186 234 255 186 234 255 186 234 255 186 234 255 174 227 255 174 227 255 121 158 178 116 156 172 116 156 172 166 224 247 111 154 168 159 221 240 105 149 167 105 149 167 100 142 166 144 204 238 96 138 171 96 138 171 96 138 171 91 135 168 130 194 240 130 194 240 130 194 240 130 194 240 91 135 168 122 190 238 85 133 166 80 128 164 76 126 161 76 126 161 109 180 231 109 180 231 109 180 231 109 180 231 76 126 161 76 126 161 76 126 161 109 180 231 115 184 235 115 184 235 115 184 235 80 128 164 80 128 164 80 128 164 115 184 235 115 184 235 115 184 235 115 184 235 115 184 235 80 128 164 80 128 164 80 128 164

185 199 150 185 199 150 195 206 160 185 199 150 195 206 160 195 206 160 195 206 160 195 206 160 195 206 160 205 215 171 205 215 171 205 215 171 205 215 171 136 144 112 143 150 119 136 144 112 136 144 112 205 215 171 205 215 171 143 150 119 205 215 171 143 150 119 205 215 171 205 215 171 205 215 171 143 150 119 136 144 112 136 144 112 136 144 112 136 144 112 136 144 112 136 144 112 136 144 112 136 144 112 136 144 112 136 144 112 195 206 160 195 206 160 205 215 171 205 215 171 143 150 119 143 150 119 205 215 171 205 215 171 215 222 176 215 222 176 215 222 176 215 222 176 215 222 176 215 222 176 205 215 171 143 150 119 136 144 112 136 144 112 136 144 112 136 144 112 129 139 105 129 139 105 185 199 150 129 139 105 129 139 102 122 136 98 122 136 98 122 136 98 116 134 93 116 134 93 166 192 134 122 136 98 175 195 141 175 195 141 185 199 146 129 139 102 185 199 150 129 139 102 129 139 102 129 139 102 129 139 102 129 139 102 129 139 102 129 139 102 129 139 102 129 139 102 129 139 102 129 139 102 129 139 105 129 139 105 185 199 150 129 139 105 185 199 150 195 206 160 129 139 105 195 206 160 195 206 160 195 206 160 195 206 160 195 206 160 195 206 160 205 215 171 205 215 171 205 215 171 136 144 112 136 144 112 195 206 160 205 215 171 205 215 171 143 150 119 205 215 171 136 144 112 136 144 112 136 144 112 136 144 112 136 144 112 136 144 112 129 139 105 185 199 150 185 199 150 185 199 150 185 199 150 185 199 150 185 199 150 185 199 150 129 139 102 185 199 146 185 199 146 185 199 146 122 136 98 122 136 98 175 195 141 175 195 141 175 195 141 175 195 141 185 199 146 185 199 146 129 139 102 185 199 146 185 199 146 185 199 150 185 199 146 185 199 150 185 199 146 185 199 146 185 199 146 185 199 146 185 199 146 185 199 146 122 136 98 175 195 141 185 199 146 185 199 146 185 199 146 185 199 150 185 199 146 185 199 150 185 199 150 195 206 160 195 206 160 195 206 160 195 206 160 195 206 160 195 206 160 195 206 160 195 206 160 195 206 160 185 199 150 185 199 150 129 139 102 122 136 98 122 136 98 116 134 93 116 134 93 166 192 134 116 134 93 166 192 134 166 192 134 154 190 126 107 133 88 154 190 126 154 190 126 154 190 126 107 133 88 107 133 88 154 190 126 154 190 126 143 187 119 143 187 119 143 187 119 108 140 88 155 200 126 155 200 126 123 150 100 155 200 126 123 150 100 216 224 164 216 224 164 216 224 164 170 163 145 154 168 161 221 240 230 243 234 208 221 240 230 145 168 178 145 168 178 208 240 255 208 240 255 186 234 255 208 240 255 186 234 255 186 234 255 186 234 255 186 234 255 186 234 255 121 158 178 116 156 172 116 156 172 166 224 247 166 224 247 159 221 240 105 149 167 105 149 167 151 214 239 144 204 238 100 142 166 144 204 238 138 198 245 138 198 245 130 194 240 91 135 168 130 194 240 91 135 168 91 135 168 85 133 166 85 133 166 80 128 164 80 128 164 109 180 231 115 184 235 109 180 231 115 184 235 115 184 235 76 126 161 109 180 231 109 180 231 109 180 231 109 180 231 115 184 235 115 184 235 115 184 235 115 184 235 115 184 235 115 184 235 115 184 235 115 184 235 115 184 235 80 128 164 80 128 164 115 184 235 115 184 235

185 199 150 129 139 105 185 199 150 195 206 160 195 206 160 195 206 160 195 206 160 195 206 160 205 215 171 205 215 171 143 150 119 143 150 119 136 144 112 136 144 112 205 215 171 136 144 112 195 206 160 205 215 171 205 215 171 143 150 119 136 144 112 136 144 112 136 144 112 205 215 171 205 215 171 136 144 112 136 144 112 136 144 112 129 139 105 136 144 112 136 144 112 136 144 112 129 139 105 129 139 105 129 139 105 129 139 105 195 206 160 195 206 160 205 215 171 143 150 119 205 215 171 205 215 171 143 150 119 205 215 171 215 222 176 215 222 176 215 222 176 215 222 176 215 222 176 150 155 123 143 150 119 143 150 119 136 144 112 136 144 112 136 144 112 129 139 105 129 139 105 129 139 105 185 199 150 129 139 102 122 136 98 122 136 98 116 134 93 116 134 93 116 134 93 116 134 93 166 192 134 175 195 141 175 195 141 122 136 98 175 195 141 185 199 146 185 199 146 129 139 102 129 139 102 185 199 146 185 199 146 185 199 146 185 199 146 122 136 98 129 139 102 129 139 102 129 139 102 185 199 146 185 199 146 185 199 150 185 199 150 185 199 150 185 199 150 185 199 150 129 139 105 195 206 160 136 144 112 136 144 112 136 144 112 136 144 112 136 144 112 205 215 171 205 215 171 205 215 171 205 215 171 205 215 171 205 215 171 205 215 171 205 215 171 143 150 119 205 215 171 143 150 119 195 206 160 136 144 112 136 144 112 129 139 105 129 139 105 129 139 105 185 199 150 185 199 150 185 199 150 129 139 105 185 199 150 129 139 105 185 199 150 185 199 150 185 199 146 129 139 102 129 139 102 129 139 102 175 195 141 185 199 146 175 195 141 175 195 141 175 195 141 175 195 141 185 199 146 185 199 146 185 199 146 185 199 146 185 199 150 185 199 150 185 199 146 185 199 150 185 199 146 129 139 102 129 139 102 129 139 102 122 136 98 122 136 98 175 195 141 185 199 146 185 199 146 185 199 146 185 199 146 129 139 102 185 199 150 185 199 150 195 206 160 195 206 160 195 206 160 195 206 160 195 206 160 195 206 160 205 215 171 195 206 160 195 206 160 129 139 105 129 139 105 129 139 102 185 199 146 122 136 98 175 195 141 166 192 134 166 192 134 166 192 134 166 192 134 116 134 93 107 133 88 107 133 88 107 133 88 154 190 126 107 133 88 107 133 88 154 190 126 154 190 126 154 190 126 154 190 126 154 190 126 143 187 119 100 130 83 108 140 88 108 140 88 108 140 88 176 215 143 155 200 126 176 215 143 176 215 143 216 224 164 170 163 145 170 163 145 221 240 230 154 168 161 154 168 161 145 168 178 208 240 255 208 240 255 145 168 178 208 240 255 208 240 255 208 240 255 221 240 230 208 240 255 208 240 255 130 163 178 121 158 178 121 158 178 116 156 172 116 156 172 116 156 172 111 154 168 105 149 167 105 149 167 151 214 239 151 214 239 144 204 238 100 142 166 96 138 171 96 138 171 96 138 171 130 194 240 130 194 240 130 194 240 91 135 168 85 133 166 85 133 166 85 133 166 80 128 164 115 184 235 115 184 235 115 184 235 115 184 235 76 126 161 76 126 161 109 180 231 109 180 231 109 180 231 109 180 231 115 184 235 115 184 235 80 128 164 80 128 164 115 184 235 115 184 235 115 184 235 80 128 164 80 128 164 80 128 164 115 184 235 115 184 235 115 184 235

185 199 150 129 139 105 185 199 150 195 206 160 195 206 160 205 215 171 205 215 171 205 215 171 205 215 171 143 150 119 205 215 171 136 144 112 136 144 112 136 144 112 136 144 112 136 144 112 205 215 171 195 206 160 205 215 171 205 215 171 205 215 171 136 144 112 195 206 160 195 206 160 143 150 119 136 144 112 136 144 112 129 139 105 136 144 112 185 199 150 129 139 105 129 139 105 129 139 105 185 199 150 185 199 150 129 139 105 185 199 150 136 144 112 195 206 160 136 144 112 205 215 171 205 215 171 205 215 171 215 222 176 215 222 176 150 155 123 150 155 123 215 222 176 224 228 180 150 155 123 143 150 119 136 144 112 136 144 112 129 139 105 195 206 160 129 139 105 129 139 105 129 139 102 129 139 102 129 139 102 129 139 102 122 136 98 116 134 93 116 134 93 107 133 88 116 134 93 166 192 134 116 134 93 116 134 93 116 134 93 175 195 141 175 195 141 185 199 146 129 139 102 129 139 102 185 199 146 185 199 146 122 136 98 129 139 102 122 136 98 175 195 141 185 199 146 185 199 146 185 199 146 185 199 150 185 199 150 195 206 160 185 199 150 195 206 160 185 199 150 195 206 160 185 199 150 136 144 112 195 206 160 195 206 160 136 144 112 195 206 160 205 215 171 205 215 171 143 150 119 143 150 119 205 215 171 205 215 171 205 215 171 205 215 171 205 215 171 205 215 171 143 150 119 143 150 119 195 206 160 195 206 160 129 139 105 129 139 105 185 199 150 129 139 105 129 139 105 185 199 150 185 199 150 185 199 150 185 199 150 195 206 160 129 139 105 129 139 105 129 139 102 185 199 146 185 199 146 185 199 146 185 199 146 122 136 98 175 195 141 185 199 146 185 199 146 185 199 146 185 199 146 185 199 146 185 199 146 185 199 150 185 199 150 185 199 150 185 199 150 185 199 150 129 139 102 129 139 102 122 136 98 122 136 98 175 195 141 185 199 146 185 199 146 185 199 146 185 199 146 185 199 146 185 199 146 185 199 150 185 199 150 185 199 150 129 139 105 195 206 160 195 206 160 195 206 160 205 215 171 205 215 171 136 144 112 195 206 160 129 139 105 129 139 105 129 139 102 185 199 146 122 136 98 116 134 93 116 134 93 175 195 141 116 134 93 166 192 134 116 134 93 166 192 134 166 192 134 154 190 126 154 190 126 107 133 88 154 190 126 154 190 126 154 190 126 154 190 126 154 190 126 154 190 126 154 190 126 100 130 83 143 187 119 155 200 126 155 200 126 155 200 126 155 200 126 155 200 126 176 215 143 176 215 143 151 156 114 243 234 208 243 234 208 221 240 230 221 240 230 221 240 230 221 240 230 221 240 230 221 240 230 208 240 255 208 240 255 221 240 230 221 240 230 243 234 208 208 240 255 130 163 178 186 234 255 174 227 255 116 156 172 166 224 247 166 224 247 116 156 172 111 154 168 105 149 167 151 214 239 151 214 239 151 214 239 100 142 166 96 138 171 96 138 171 138 198 245 138 198 245 138 198 245 138 198 245 91 135 168 130 194 240 122 190 238 85 133 166 80 128 164 115 184 235 115 184 235 76 126 161 76 126 161 115 184 235 109 180 231 109 180 231 109 180 231 109 180 231 115 184 235 115 184 235 115 184 235 80 128 164 115 184 235 122 190 238 80 128 164 80 128 164 80 128 164 80 128 164 115 184 235 80 128 164 80 128 164 76 126 161

185 199 150 185 199 150 195 206 160 195 206 160 205 215 171 205 215 171 205 215 171 205 215 171 205 215 171 143 150 119 205 215 171 136 144 112 136 144 112 136 144 112 136 144 112 136 144 112 195 206 160 136 144 112 195 206 160 136 144 112 136 144 112 136 144 112 195 206 160 195 206 160 136 144 112 136 144 112 195 206 160 129 139 105 185 199 150 129 139 105 185 199 150 129 139 105 185 199 150 185 199 150 185 199 150 129 139 105 185 199 150 195 206 160 195 206 160 205 215 171 195 206 160 143 150 119 205 215 171 143 150 119 143 150 119 143 150 119 143 150 119 215 222 176 150 155 123 143 150 119 136 144 112 136 144 112 129 139 105 136 144 112 195 206 160 129 139 105 129 139 105 129 139 102 129 139 102 129 139 102 122 136 98 122 136 98 116 134 93 116 134 93 166 192 134 166 192 134 166 192 134 166 192 134 166 192 134 166 192 134 175 195 141 175 195 141 175 195 141 185 199 146 185 199 146 185 199 146 129 139 102 122 136 98 122 136 98 122 136 98 122 136 98 175 195 141 185 199 146 185 199 146 185 199 150 185 199 150 185 199 150 195 206 160 185 199 150 195 206 160 185 199 150 195 206 160 195 206 160 195 206 160 195 206 160 205 215 171 205 215 171 205 215 171 205 215 171 143 150 119 136 144 112 143 150 119 205 215 171 205 215 171 205 215 171 205 215 171 205 215 171 143 150 119 205 215 171 205 215 171 136 144 112 136 144 112 129 139 105 185 199 150 185 199 150 185 199 150 185 199 150 195 206 160 195 206 160 195 206 160 195 206 160 136 144 112 185 199 150 185 199 150 185 199 150 185 199 146 129 139 102 129 139 102 185 199 146 185 199 146 185 199 146 185 199 146 185 199 146 185 199 146 185 199 146 185 199 150 185 199 150 185 199 150 185 199 150 185 199 150 185 199 150 129 139 105 129 139 102 185 199 146 185 199 146 185 199 146 185 199 146 185 199 146 185 199 146 185 199 146 185 199 150 185 199 150 185 199 150 195 206 160 195 206 160 195 206 160 195 206 160 195 206 160 205 215 171 205 215 171 205 215 171 143 150 119 136 144 112 136 144 112 185 199 150 129 139 105 129 139 102 185 199 146 175 195 141 175 195 141 175 195 141 175 195 141 166 192 134 116 134 93 166 192 134 166 192 134 166 192 134 154 190 126 154 190 126 107 133 88 154 190 126 154 190 126 154 190 126 154 190 126 154 190 126 107 133 88 100 130 83 143 187 119 143 187 119 155 200 126 155 200 126 108 140 88 155 200 126 108 140 88 123 150 100 151 156 114 151 156 114 170 163 145 243 234 208 221 240 230 221 240 230 221 240 230 221 240 230 221 240 230 221 240 230 221 240 230 221 240 230 221 240 230 221 240 230 145 168 178 145 168 178 130 163 178 121 158 178 121 158 178 116 156 172 116 156 172 166 224 247 111 154 168 159 221 240 151 214 239 151 214 239 105 149 167 100 142 166 100 142 166 96 138 171 96 138 171 91 135 168 91 135 168 91 135 168 91 135 168 85 133 166 85 133 166 85 133 166 80 128 164 80 128 164 80 128 164 80 128 164 109 180 231 76 126 161 76 126 161 109 180 231 76 126 161 109 180 231 109 180 231 115 184 235 115 184 235 76 126 161 80 128 164 80 128 164 80 128 164 80 128 164 76 126 161 76 126 161 80 128 164 80 128 164 76 126 161 76 126 161

185 199 150 185 199 150 195 206 160 195 206 160 205 215 171 205 215 171 205 215 171 136 144 112 136 144 112 136 144 112 143 150 119 136 144 112 205 215 171 195 206 160 195 206 160 195 206 160 136 144 112 136 144 112 195 206 160 136 144 112 136 144 112 136 144 112 195 206 160 195 206 160 136 144 112 136 144 112 136 144 112 129 139 105 185 199 150 129 139 105 185 199 150 185 199 150 185 199 150 195 206 160 185 199 150 129 139 105 185 199 150 185 199 150 195 206 160 136 144 112 136 144 112 205 215 171 205 215 171 205 215 171 205 215 171 143 150 119 205 215 171 205 215 171 143 150 119 143 150 119 136 144 112 129 139 105 129 139 105 129 139 105 129 139 105 129 139 102 129 139 102 129 139 102 129 139 102 122 136 98 122 136 98 116 134 93 116 134 93 116 134 93 116 134 93 116 134 93 166 192 134 166 192 134 116 134 93 166 192 134 175 195 141 175 195 141 175 195 141 122 136 98 129 139 102 185 199 146 129 139 102 122 136 98 122 136 98 122 136 98 175 195 141 175 195 141 185 199 146 185 199 146 185 199 150 185 199 150 195 206 160 195 206 160 195 206 160 195 206 160 195 206 160 195 206 160 195 206 160 205 215 171 205 215 171 205 215 171 205 215 171 205 215 171 205 215 171 136 144 112 205 215 171 205 215 171 205 215 171 205 215 171 205 215 171 143 150 119 205 215 171 143 150 119 205 215 171 136 144 112 136 144 112 136 144 112 129 139 105 185 199 150 195 206 160 195 206 160 185 199 150 185 199 150 195 206 160 195 206 160 195 206 160 195 206 160 195 206 160 195 206 160 185 199 150 185 199 150 185 199 146 185 199 146 185 199 146 185 199 146 185 199 146 185 199 146 185 199 146 185 199 150 185 199 150 185 199 150 185 199 150 185 199 150 195 206 160 185 199 150 185 199 150 185 199 150 129 139 102 185 199 146 185 199 146 185 199 146 185 199 146 185 199 150 185 199 150 185 199 150 185 199 150 185 199 150 195 206 160 185 199 150 195 206 160 195 206 160 195 206 160 205 215 171 205 215 171 205 215 171 205 215 171 143 150 119 143 150 119 195 206 160 129 139 105 129 139 105 129 139 105 129 139 102 129 139 102 122 136 98 175 195 141 175 195 141 116 134 93 175 195 141 166 192 134 116 134 93 166 192 134 107 133 88 107 133 88 154 190 126 154 190 126 154 190 126 166 192 134 166 192 134 154 190 126 107 133 88 100 130 83 100 130 83 100 130 83 108 140 88 155 200 126 108 140 88 155 200 126 108 140 88 123 150 100 176 215 143 151 156 114 170 163 145 243 234 208 243 234 208 221 240 230 221 240 230 221 240 230 221 240 230 221 240 230 221 240 230 221 240 230 221 240 230 154 168 161 145 168 178 208 240 255 130 163 178 130 163 178 121 158 178 174 227 255 166 224 247 166 224 247 111 154 168 159 221 240 159 221 240 151 214 239 105 149 167 105 149 167 144 204 238 100 142 166 138 198 245 91 135 168 130 194 240 130 194 240 130 194 240 91 135 168 85 133 166 85 133 166 80 128 164 122 190 238 115 184 235 80 128 164 76 126 161 115 184 235 109 180 231 76 126 161 109 180 231 115 184 235 109 180 231 115 184 235 80 128 164 80 128 164 109 180 231 115 184 235 76 126 161 76 126 161 76 126 161 76 126 161 76 126 161 76 126 161 76 126 161 115 184 235

195 206 160 195 206 160 195 206 160 195 206 160 205 215 171 205 215 171 143 150 119 143 150 119 205 215 171 205 215 171 205 215 171 136 144 112 136 144 112 136 144 112 136 144 112 195 206 160 195 206 160 195 206 160 136 144 112 136 144 112 195 206 160 195 206 160 195 206 160 195 206 160 195 206 160 195 206 160 195 206 160 129 139 105 185 199 150 129 139 105 129 139 105 129 139 105 129 139 105 195 206 160 195 206 160 185 199 150 129 139 105 195 206 160 195 206 160 195 206 160 136 144 112 136 144 112 205 215 171 205 215 171 143 150 119 205 215 171 136 144 112 136 144 112 136 144 112 136 144 112 129 139 105 129 139 105 129 139 105 129 139 102 129 139 102 129 139 102 129 139 102 129 139 102 122 136 98 122 136 98 116 134 93 116 134 93 116 134 93 116 134 93 166 192 134 166 192 134 166 192 134 116 134 93 116 134 93 166 192 134 166 192 134 116 134 93 122 136 98 122 136 98 175 195 141 122 136 98 122 136 98 185 199 146 175 195 141 175 195 141 175 195 141 175 195 141 185 199 146 185 199 146 185 199 150 185 199 150 185 199 150 129 139 105 136 144 112 195 206 160 195 206 160 195 206 160 195 206 160 205 215 171 205 215 171 205 215 171 205 215 171 143 150 119 143 150 119 143 150 119 195 206 160 205 215 171 205 215 171 205 215 171 143 150 119 215 222 176 205 215 171 143 150 119 205 215 171 143 150 119 136 144 112 195 206 160 195 206 160 195 206 160 195 206 160 136 144 112 195 206 160 195 206 160 195 206 160 136 144 112 195 206 160 195 206 160 195 206 160 195 206 160 195 206 160 185 199 150 129 139 105 185 199 150 185 199 146 185 199 150 185 199 146 185 199 150 185 199 150 185 199 150 185 199 150 195 206 160 195 206 160 195 206 160 195 206 160 129 139 105 185 199 150 129 139 105 185 199 150 185 199 150 185 199 150 185 199 150 185 199 150 185 199 150 185 199 150 195 206 160 195 206 160 195 206 160 185 199 150 129 139 105 195 206 160 195 206 160 205 215 171 205 215 171 205 215 171 143 150 119 205 215 171 143 150 119 143 150 119 136 144 112 136 144 112 185 199 150 185 199 150 185 199 150 185 199 146 185 199 146 185 199 146 175 195 141 122 136 98 175 195 141 175 195 141 116 134 93 166 192 134 166 192 134 166 192 134 154 190 126 154 190 126 154 190 126 107 133 88 107 133 88 107 133 88 107 133 88 100 130 83 100 130 83 100 130 83 143 187 119 155 200 126 143 187 119 155 200 126 108 140 88 123 150 100 123 150 100 151 156 114 216 224 164 243 234 208 243 234 208 243 234 208 243 234 208 243 234 208 243 234 208 243 234 208 243 234 208 221 240 230 154 168 161 154 168 161 154 168 161 145 168 178 145 168 178 186 234 255 121 158 178 121 158 178 174 227 255 166 224 247 116 156 172 111 154 168 105 149 167 105 149 167 105 149 167 105 149 167 100 142 166 96 138 171 96 138 171 91 135 168 91 135 168 130 194 240 91 135 168 91 135 168 85 133 166 85 133 166 80 128 164 115 184 235 80 128 164 80 128 164 76 126 161 76 126 161 76 126 161 109 180 231 109 180 231 76 126 161 76 126 161 115 184 235 80 128 164 76 126 161 76 126 161 76 126 161 76 126 161 76 126 161 76 126 161 76 126 161 109 180 231 109 180 231 115 184 235 109 180 231

195 206 160 195 206 160 195 206 160 195 206 160 205 215 171 205 215 171 143 150 119 205 215 171 205 215 171 205 215 171 205 215 171 136 144 112 136 144 112 195 206 160 136 144 112 195 206 160 195 206 160 136 144 112 129 139 105 129 139 105 129 139 105 136 144 112 195 206 160 195 206 160 205 215 171 136 144 112 195 206 160 129 139 105 129 139 105 129 139 105 185 199 150 185 199 150 195 206 160 185 199 150 129 139 105 129 139 105 129 139 105 185 199 150 195 206 160 136 144 112 136 144 112 195 206 160 195 206 160 136 144 112 205 215 171 136 144 112 136 144 112 136 144 112 129 139 105 129 139 105 129 139 105 129 139 102 129 139 102 129 139 102 129 139 102 129 139 102 122 136 98 122 136 98 122 136 98 116 134 93 107 133 88 107 133 88 107 133 88 166 192 134 166 192 134 166 192 134 166 192 134 166 192 134 166 192 134 166 192 134 116 134 93 166 192 134 175 195 141 175 195 141 175 195 141 175 195 141 185 199 146 175 195 141 185 199 146 175 195 141 175 195 141 175 195 141 185 199 146 185 199 146 185 199 150 129 139 105 185 199 150 195 206 160 195 206 160 195 206 160 205 215 171 205 215 171 205 215 171 205 215 171 205 215 171 205 215 171 205 215 171 205 215 171 205 215 171 205 215 171 205 215 171 205 215 171 205 215 171 205 215 171 215 222 176 205 215 171 143 150 119 143 150 119 205 215 171 143 150 119 136 144 112 195 206 160 195 206 160 136 144 112 195 206 160 195 206 160 195 206 160 195 206 160 195 206 160 195 206 160 195 206 160 195 206 160 195 206 160 195 206 160 205 215 171 136 144 112 129 139 105 185 199 150 195 206 160 185 199 150 185 199 150 185 199 150 185 199 150 185 199 150 195 206 160 195 206 160 195 206 160 195 206 160 195 206 160 129 139 105 185 199 150 129 139 105 129 139 105 185 199 150 195 206 160 185 199 150 195 206 160 195 206 160 195 206 160 195 206 160 195 206 160 195 206 160 129 139 105 185 199 150 195 206 160 195 206 160 205 215 171 205 215 171 205 215 171 205 215 171 215 222 176 205 215 171 205 215 171 136 144 112 136 144 112 136 144 112 129 139 105 185 199 150 185 199 150 129 139 102 129 139 102 122 136 98 122 136 98 175 195 141 175 195 141 116 134 93 116 134 93 166 192 134 166 192 134 107 133 88 166 192 134 154 190 126 154 190 126 154 190 126 154 190 126 107 133 88 100 130 83 108 140 88 143 187 119 143 187 119 143 187 119 143 187 119 143 187 119 108 140 88 155 200 126 176 215 143 151 156 114 151 156 114 216 224 164 216 224 164 216 224 164 216 224 164 243 234 208 243 234 208 243 234 208 243 234 208 154 168 161 154 168 161 154 168 161 221 240 230 145 168 178 145 168 178 208 240 255 121 158 178 121 158 178 174 227 255 116 156 172 116 156 172 111 154 168 105 149 167 105 149 167 105 149 167 151 214 239 100 142 166 100 142 166 96 138 171 96 138 171 130 194 240 138 198 245 91 135 168 91 135 168 85 133 166 122 190 238 80 128 164 122 190 238 115 184 235 115 184 235 76 126 161 76 126 161 109 180 231 76 126 161 76 126 161 76 126 161 109 180 231 115 184 235 76 126 161 76 126 161 76 126 161 76 126 161 76 126 161 71 122 158 71 122 158 109 180 231 109 180 231 115 184 235 109 180 231 115 184 235

205 215 171 205 215 171 205 215 171 205 215 171 205 215 171 205 215 171 143 150 119 205 215 171 143 150 119 143 150 119 136 144 112 136 144 112 136 144 112 136 144 112 136 144 112 136 144 112 129 139 105 136 144 112 129 139 105 185 199 150 195 206 160 195 206 160 195 206 160 195 206 160 136 144 112 136 144 112 136 144 112 129 139 105 129 139 105 129 139 105 185 199 150 185 199 150 185 199 150 129 139 105 129 139 105 129 139 105 185 199 150 185 199 150 129 139 105 129 139 105 195 206 160 195 206 160 195 206 160 195 206 160 136 144 112 129 139 105 129 139 105 129 139 105 129 139 102 129 139 102 129 139 102 129 139 102 129 139 102 122 136 98 122 136 98 122 136 98 122 136 98 116 134 93 116 134 93 107 133 88 107 133 88 107 133 88 107 133 88 107 133 88 166 192 134 166 192 134 116 134 93 166 192 134 116 134 93 116 134 93 166 192 134 116 134 93 116 134 93 116 134 93 116 134 93 122 136 98 122 136 98 122 136 98 175 195 141 122 136 98 122 136 98 175 195 141 185 199 146 185 199 150 185 199 146 185 199 150 185 199 150 195 206 160 195 206 160 205 215 171 205 215 171 205 215 171 205 215 171 205 215 171 205 215 171 205 215 171 205 215 171 143 150 119 205 215 171 143 150 119 205 215 171 205 215 171 143 150 119 143 150 119 143 150 119 143 150 119 143 150 119 143 150 119 143 150 119 143 150 119 143 150 119 136 144 112 195 206 160 195 206 160 195 206 160 195 206 160 195 206 160 195 206 160 136 144 112 195 206 160 136 144 112 136 144 112 136 144 112 136 144 112 136 144 112 136 144 112 195 206 160 195 206 160 195 206 160 195 206 160 195 206 160 185 199 150 185 199 150 195 206 160 195 206 160 205 215 171 195 206 160 195 206 160 136 144 112 129 139 105 185 199 150 129 139 105 185 199 150 195 206 160 195 206 160 195 206 160 195 206 160 195 206 160 195 206 160 195 206 160 195 206 160 195 206 160 195 206 160 195 206 160 195 206 160 195 206 160 205 215 171 205 215 171 205 215 171 215 222 176 215 222 176 150 155 123 143 150 119 143 150 119 195 206 160 195 206 160 195 206 160 185 199 150 185 199 150 129 139 102 185 199 146 185 199 146 175 195 141 175 195 141 122 136 98 116 134 93 166 192 134 166 192 134 166 192 134 166 192 134 166 192 134 166 192 134 107 133 88 107 133 88 107 133 88 107 133 88 100 130 83 100 130 83 143 187 119 143 187 119 100 130 83 143 187 119 143 187 119 108 140 88 108 140 88 123 150 100 123 150 100 176 215 143 176 215 143 216 224 164 176 215 143 216 224 164 216 224 164 216 224 164 243 234 208 170 163 145 154 168 161 221 240 230 221 240 230 221 240 230 154 168 161 145 168 178 130 163 178 130 163 178 174 227 255 121 158 178 116 156 172 116 156 172 111 154 168 111 154 168 151 214 239 105 149 167 100 142 166 100 142 166 96 138 171 96 138 171 96 138 171 138 198 245 91 135 168 85 133 166 85 133 166 85 133 166 122 190 238 85 133 166 80 128 164 80 128 164 80 128 164 76 126 161 76 126 161 76 126 161 76 126 161 76 126 161 109 180 231 109 180 231 76 126 161 76 126 161 76 126 161 76 126 161 71 122 158 71 122 158 71 122 158 102 175 227 109 180 231 76 126 161 76 126 161 76 126 161 76 126 161

205 215 171 205 215 171 205 215 171 205 215 171 205 215 171 205 215 171 205 215 171 205 215 171 205 215 171 136 144 112 136 144 112 129 139 105 129 139 105 129 139 105 136 144 112 129 139 105 129 139 105 195 206 160 129 139 105 195 206 160 195 206 160 195 206 160 195 206 160 195 206 160 195 206 160 195 206 160 136 144 112 129 139 105 185 199 150 185 199 150 185 199 150 185 199 150 185 199 150 129 139 105 129 139 102 129 139 105 185 199 150 185 199 150 185 199 150 185 199 150 185 199 150 195 206 160 195 206 160 129 139 105 129 139 105 129 139 105 129 139 105 129 139 102 129 139 102 129 139 102 129 139 102 122 136 98 129 139 102 122 136 98 122 136 98 116 134 93 116 134 93 116 134 93 107 133 88 107 133 88 107 133 88 107 133 88 107 133 88 154 190 126 154 190 126 116 134 93 166 192 134 166 192 134 116 134 93 166 192 134 107 133 88 166 192 134 166 192 134 166 192 134 175 195 141 116 134 93 175 195 141 122 136 98 122 136 98 122 136 98 122 136 98 185 199 146 185 199 146 185 199 150 185 199 150 185 199 150 195 206 160 195 206 160 195 206 160 195 206 160 205 215 171 205 215 171 205 215 171 205 215 171 215 222 176 205 215 171 215 222 176 205 215 171 205 215 171 205 215 171 205 215 171 205 215 171 205 215 171 205 215 171 143 150 119 143 150 119 143 150 119 205 215 171 143 150 119 136 144 112 143 150 119 205 215 171 205 215 171 136 144 112 195 206 160 195 206 160 195 206 160 205 215 171 205 215 171 195 206 160 136 144 112 195 206 160 195 206 160 136 144 112 195 206 160 195 206 160 195 206 160 195 206 160 195 206 160 195 206 160 205 215 171 195 206 160 195 206 160 195 206 160 205 215 171 205 215 171 205 215 171 205 215 171 195 206 160 195 206 160 195 206 160 195 206 160 195 206 160 195 206 160 205 215 171 205 215 171 205 215 171 195 206 160 195 206 160 195 206 160 195 206 160 195 206 160 136 144 112 195 206 160 195 206 160 195 206 160 205 215 171 205 215 171 215 222 176 215 222 176 215 222 176 215 222 176 215 222 176 143 150 119 136 144 112 195 206 160 195 206 160 195 206 160 195 206 160 129 139 102 129 139 102 185 199 146 122 136 98 122 136 98 175 195 141 175 195 141 175 195 141 175 195 141 175 195 141 166 192 134 166 192 134 116 134 93 107 133 88 107 133 88 154 190 126 100 130 83 154 190 126 100 130 83 143 187 119 143 187 119 143 187 119 143 187 119 100 130 83 108 140 88 108 140 88 155 200 126 123 150 100 176 215 143 176 215 143 176 215 143 176 215 143 176 215 143 216 224 164 216 224 164 216 224 164 170 163 145 243 234 208 243 234 208 243 234 208 221 240 230 221 240 230 145 168 178 130 163 178 130 163 178 121 158 178 121 158 178 116 156 172 166 224 247 116 156 172 111 154 168 105 149 167 105 149 167 100 142 166 100 142 166 96 138 171 96 138 171 96 138 171 91 135 168 91 135 168 85 133 166 85 133 166 80 128 164 85 133 166 80 128 164 80 128 164 80 128 164 76 126 161 76 126 161 76 126 161 76 126 161 71 122 158 109 180 231 109 180 231 109 180 231 76 126 161 76 126 161 76 126 161 71 122 158 71 122 158 66 119 156 71 122 158 102 175 227 109 180 231 71 122 158 76 126 161 76 126 161 109 180 231

205 215 171 205 215 171 205 215 171 205 215 171 205 215 171 143 150 119 143 150 119 143 150 119 136 144 112 136 144 112 136 144 112 136 144 112 195 206 160 195 206 160 195 206 160 129 139 105 185 199 150 185 199 150 129 139 105 195 206 160 136 144 112 136 144 112 195 206 160 136 144 112 195 206 160 136 144 112 136 144 112 129 139 105 185 199 150 185 199 150 185 199 150 185 199 150 129 139 105 129 139 105 129 139 102 185 199 150 129 139 102 185 199 150 185 199 150 195 206 160 195 206 160 195 206 160 195 206 160 129 139 105 129 139 102 129 139 102 129 139 102 129 139 102 122 136 98 122 136 98 122 136 98 122 136 98 122 136 98 122 136 98 116 134 93 107 133 88 107 133 88 107 133 88 107 133 88 107 133 88 107 133 88 154 190 126 154 190 126 107 133 88 154 190 126 166 192 134 166 192 134 116 134 93 107 133 88 166 192 134 166 192 134 166 192 134 107 133 88 116 134 93 116 134 93 116 134 93 116 134 93 116 134 93 116 134 93 175 195 141 185 199 146 185 199 146 185 199 146 185 199 150 185 199 150 185 199 150 195 206 160 195 206 160 205 215 171 195 206 160 205 215 171 205 215 171 143 150 119 215 222 176 215 222 176 215 222 176 215 222 176 215 222 176 143 150 119 143 150 119 143 150 119 143 150 119 143 150 119 143 150 119 143 150 119 205 215 171 143 150 119 205 215 171 205 215 171 205 215 171 195 206 160 136 144 112 205 215 171 205 215 171 205 215 171 195 206 160 205 215 171 205 215 171 136 144 112 136 144 112 136 144 112 195 206 160 195 206 160 195 206 160 195 206 160 195 206 160 195 206 160 205 215 171 205 215 171 205 215 171 205 215 171 143 150 119 205 215 171 205 215 171 205 215 171 205 215 171 205 215 171 136 144 112 205 215 171 195 206 160 195 206 160 205 215 171 205 215 171 205 215 171 205 215 171 205 215 171 205 215 171 205 215 171 205 215 171 195 206 160 136 144 112 136 144 112 195 206 160 195 206 160 195 206 160 195 206 160 205 215 171 205 215 171 215 222 176 224 228 180 215 222 176 215 222 176 150 155 123 143 150 119 143 150 119 136 144 112 195 206 160 136 144 112 136 144 112 129 139 105 129 139 102 129 139 102 122 136 98 175 195 141 175 195 141 185 199 146 185 199 146 175 195 141 175 195 141 175 195 141 116 134 93 116 134 93 107 133 88 107 133 88 100 130 83 100 130 83 143 187 119 100 130 83 143 187 119 143 187 119 143 187 119 143 187 119 143 187 119 143 187 119 155 200 126 108 140 88 123 150 100 176 215 143 176 215 143 176 215 143 123 150 100 151 156 114 151 156 114 151 156 114 170 163 145 170 163 145 243 234 208 243 234 208 243 234 208 170 163 145 154 168 161 145 168 178 130 163 178 130 163 178 121 158 178 121 158 178 116 156 172 116 156 172 111 154 168 111 154 168 105 149 167 105 149 167 100 142 166 100 142 166 96 138 171 96 138 171 91 135 168 91 135 168 85 133 166 85 133 166 85 133 166 80 128 164 80 128 164 80 128 164 76 126 161 76 126 161 76 126 161 76 126 161 76 126 161 76 126 161 71 122 158 109 180 231 109 180 231 71 122 158 109 180 231 109 180 231 71 122 158 71 122 158 66 119 156 66 119 156 66 119 156 71 122 158 71 122 158 109 180 231 109 180 231 109 180 231 109 180 231

215 222 176 215 222 176 215 222 176 205 215 171 143 150 119 143 150 119 136 144 112 143 150 119 205 215 171 136 144 112 136 144 112 129 139 105 129 139 105 129 139 105 129 139 105 129 139 105 185 199 150 185 199 150 185 199 150 185 199 150 195 206 160 129 139 105 195 206 160 195 206 160 205 215 171 195 206 160 195 206 160 129 139 105 195 206 160 185 199 150 195 206 160 129 139 105 129 139 105 129 139 102 129 139 102 185 199 150 129 139 102 185 199 150 185 199 150 195 206 160 195 206 160 195 206 160 136 144 112 129 139 105 129 139 102 129 139 102 129 139 102 122 136 98 116 134 93 122 136 98 116 134 93 116 134 93 116 134 93 116 134 93 107 133 88 107 133 88 100 130 83 100 130 83 107 133 88 107 133 88 100 130 83 100 130 83 100 130 83 154 190 126 154 190 126 154 190 126 166 192 134 107 133 88 166 192 134 166 192 134 116 134 93 107 133 88 107 133 88 107 133 88 107 133 88 166 192 134 166 192 134 166 192 134 175 195 141 175 195 141 185 199 146 185 199 146 185 199 150 185 199 150 195 206 160 195 206 160 195 206 160 195 206 160 205 215 171 205 215 171 205 215 171 205 215 171 205 215 171 215 222 176 215 222 176 224 228 180 224 228 180 224 228 180 150 155 123 205 215 171 205 215 171 205 215 171 143 150 119 205 215 171 143 150 119 205 215 171 143 150 119 136 144 112 143 150 119 136 144 112 205 215 171 205 215 171 205 215 171 143 150 119 205 215 171 205 215 171 205 215 171 205 215 171 205 215 171 195 206 160 195 206 160 195 206 160 195 206 160 195 206 160 195 206 160 205 215 171 205 215 171 205 215 171 215 222 176 205 215 171 205 215 171 205 215 171 205 215 171 205 215 171 205 215 171 143 150 119 205 215 171 205 215 171 205 215 171 205 215 171 205 215 171 205 215 171 205 215 171 205 215 171 205 215 171 205 215 171 205 215 171 205 215 171 205 215 171 205 215 171 195 206 160 195 206 160 195 206 160 195 206 160 205 215 171 205 215 171 205 215 171 205 215 171 215 222 176 224 228 180 224 228 180 150 155 123 150 155 123 143 150 119 205 215 171 136 144 112 136 144 112 136 144 112 195 206 160 129 139 105 129 139 102 129 139 102 129 139 102 175 195 141 185 199 146 185 199 146 185 199 146 122 136 98 122 136 98 175 195 141 175 195 141 116 134 93 107 133 88 154 190 126 100 130 83 143 187 119 100 130 83 100 130 83 143 187 119 143 187 119 143 187 119 154 190 126 154 190 126 143 187 119 100 130 83 108 140 88 108 140 88 176 215 143 123 150 100 123 150 100 176 215 143 176 215 143 151 156 114 151 156 114 216 224 164 216 224 164 216 224 164 243 234 208 216 224 164 170 163 145 154 168 161 145 168 178 130 163 178 130 163 178 121 158 178 116 156 172 121 158 178 116 156 172 166 224 247 111 154 168 105 149 167 105 149 167 100 142 166 144 204 238 144 204 238 96 138 171 91 135 168 91 135 168 91 135 168 130 194 240 85 133 166 122 190 238 80 128 164 76 126 161 115 184 235 109 180 231 76 126 161 76 126 161 109 180 231 76 126 161 76 126 161 109 180 231 109 180 231 71 122 158 109 180 231 71 122 158 71 122 158 71 122 158 66 119 156 66 119 156 66 119 156 102 175 227 102 175 227 102 175 227 109 180 231 71 122 158 109 180 231

215 222 176 150 155 123 143 150 119 143 150 119 143 150 119 136 144 112 136 144 112 195 206 160 136 144 112 136 144 112 136 144 112 129 139 105 129 139 105 129 139 105 129 139 105 129 139 105 185 199 150 129 139 105 129 139 105 185 199 150 195 206 160 136 144 112 195 206 160 195 206 160 195 206 160 136 144 112 136 144 112 136 144 112 195 206 160 195 206 160 195 206 160 129 139 105 129 139 105 129 139 102 185 199 150 185 199 146 129 139 102 185 199 150 185 199 150 129 139 105 129 139 105 129 139 105 129 139 102 129 139 102 129 139 102 129 139 102 122 136 98 116 134 93 122 136 98 166 192 134 116 134 93 116 134 93 107 133 88 107 133 88 107 133 88 107 133 88 154 190 126 154 190 126 154 190 126 100 130 83 100 130 83 143 187 119 143 187 119 154 190 126 107 133 88 107 133 88 107 133 88 107 133 88 107 133 88 107 133 88 107 133 88 107 133 88 107 133 88 154 190 126 166 192 134 166 192 134 116 134 93 166 192 134 166 192 134 175 195 141 185 199 146 185 199 146 185 199 146 185 199 150 185 199 150 129 139 105 195 206 160 195 206 160 205 215 171 143 150 119 205 215 171 205 215 171 205 215 171 215 222 176 215 222 176 215 222 176 150 155 123 150 155 123 150 155 123 215 222 176 205 215 171 205 215 171 143 150 119 205 215 171 205 215 171 205 215 171 205 215 171 205 215 171 205 215 171 205 215 171 205 215 171 205 215 171 205 215 171 143 150 119 205 215 171 205 215 171 205 215 171 205 215 171 205 215 171 205 215 171 205 215 171 195 206 160 205 215 171 205 215 171 205 215 171 205 215 171 205 215 171 215 222 176 215 222 176 150 155 123 143 150 119 205 215 171 215 222 176 205 215 171 205 215 171 143 150 119 205 215 171 205 215 171 143 150 119 205 215 171 136 144 112 143 150 119 205 215 171 143 150 119 143 150 119 143 150 119 205 215 171 143 150 119 143 150 119 143 150 119 136 144 112 195 206 160 205 215 171 205 215 171 205 215 171 205 215 171 215 222 176 215 222 176 215 222 176 224 228 180 224 228 180 150 155 123 150 155 123 143 150 119 205 215 171 136 144 112 136 144 112 136 144 112 136 144 112 129 139 105 129 139 102 129 139 102 129 139 102 185 199 146 175 195 141 122 136 98 122 136 98 122 136 98 122 136 98 175 195 141 122 136 98 116 134 93 166 192 134 166 192 134 154 190 126 154 190 126 143 187 119 154 190 126 154 190 126 154 190 126 154 190 126 154 190 126 154 190 126 107 133 88 143 187 119 108 140 88 155 200 126 123 150 100 123 150 100 123 150 100 151 156 114 151 156 114 151 156 114 216 224 164 216 224 164 216 224 164 170 163 145 170 163 145 170 163 145 170 163 145 154 168 161 145 168 178 130 163 178 130 163 178 121 158 178 121 158 178 116 156 172 116 156 172 111 154 168 111 154 168 105 149 167 105 149 167 100 142 166 100 142 166 96 138 171 96 138 171 91 135 168 91 135 168 91 135 168 85 133 166 85 133 166 85 133 166 80 128 164 115 184 235 115 184 235 76 126 161 76 126 161 109 180 231 71 122 158 71 122 158 109 180 231 109 180 231 76 126 161 71 122 158 71 122 158 71 122 158 66 119 156 66 119 156 66 119 156 66 119 156 95 171 224 95 171 224 66 119 156 71 122 158 71 122 158 71 122 158 71 122 158

205 215 171 143 150 119 143 150 119 143 150 119 143 150 119 136 144 112 136 144 112 129 139 105 129 139 105 129 139 105 129 139 105 129 139 105 129 139 105 185 199 150 129 139 105 129 139 105 129 139 105 129 139 105 185 199 150 185 199 150 129 139 105 129 139 105 195 206 160 136 144 112 195 206 160 136 144 112 195 206 160 195 206 160 195 206 160 195 206 160 195 206 160 129 139 105 185 199 150 185 199 150 185 199 146 129 139 102 185 199 146 129 139 102 185 199 150 129 139 102 129 139 105 129 139 102 129 139 102 122 136 98 122 136 98 122 136 98 122 136 98 122 136 98 166 192 134 116 134 93 116 134 93 116 134 93 107 133 88 154 190 126 107 133 88 107 133 88 107 133 88 100 130 83 100 130 83 100 130 83 100 130 83 143 187 119 154 190 126 143 187 119 154 190 126 107 133 88 154 190 126 107 133 88 107 133 88 107 133 88 107 133 88 154 190 126 154 190 126 154 190 126 166 192 134 166 192 134 166 192 134 166 192 134 175 195 141 175 195 141 175 195 141 129 139 102 185 199 146 185 199 146 185 199 150 129 139 105 129 139 105 195 206 160 195 206 160 205 215 171 205 215 171 205 215 171 215 222 176 215 222 176 215 222 176 224 228 180 215 222 176 224 228 180 215 222 176 215 222 176 215 222 176 215 222 176 205 215 171 205 215 171 143 150 119 205 215 171 215 222 176 205 215 171 143 150 119 205 215 171 205 215 171 215 222 176 205 215 171 205 215 171 215 222 176 205 215 171 143 150 119 205 215 171 143 150 119 143 150 119 205 215 171 205 215 171 205 215 171 205 215 171 205 215 171 205 215 171 205 215 171 215 222 176 215 222 176 150 155 123 150 155 123 215 222 176 215 222 176 143 150 119 205 215 171 143 150 119 215 222 176 143 150 119 205 215 171 205 215 171 205 215 171 205 215 171 205 215 171 205 215 171 205 215 171 205 215 171 215 222 176 215 222 176 205 215 171 205 215 171 205 215 171 205 215 171 205 215 171 205 215 171 215 222 176 215 222 176 215 222 176 215 222 176 224 228 180 224 228 180 224 228 180 150 155 123 215 222 176 215 222 176 205 215 171 136 144 112 136 144 112 129 139 105 129 139 105 129 139 105 129 139 105 185 199 146 185 199 146 185 199 146 122 136 98 185 199 146 175 195 141 122 136 98 175 195 141 175 195 141 122 136 98 122 136 98 166 192 134 116 134 93 166 192 134 154 190 126 154 190 126 154 190 126 154 190 126 154 190 126 154 190 126 154 190 126 154 190 126 107 133 88 107 133 88 100 130 83 155 200 126 108 140 88 123 150 100 123 150 100 123 150 100 176 215 143 176 215 143 216 224 164 216 224 164 151 156 114 151 156 114 243 234 208 170 163 145 170 163 145 154 168 161 145 168 178 130 163 178 130 163 178 186 234 255 121 158 178 116 156 172 116 156 172 116 156 172 111 154 168 105 149 167 100 142 166 100 142 166 100 142 166 96 138 171 96 138 171 91 135 168 91 135 168 91 135 168 85 133 166 85 133 166 122 190 238 80 128 164 80 128 164 115 184 235 115 184 235 76 126 161 76 126 161 76 126 161 102 175 227 109 180 231 71 122 158 109 180 231 71 122 158 71 122 158 66 119 156 66 119 156 66 119 156 66 119 156 66 119 156 95 171 224 95 171 224 66 119 156 95 171 224 66 119 156 71 122 158 71 122 158

205 215 171 205 215 171 143 150 119 143 150 119 143 150 119 136 144 112 129 139 105 129 139 105 129 139 105 129 139 105 129 139 105 129 139 105 129 139 102 129 139 102 129 139 102 185 199 150 129 139 102 129 139 105 129 139 105 129 139 105 129 139 105 185 199 150 185 199 150 129 139 105 195 206 160 195 206 160 195 206 160 195 206 160 136 144 112 195 206 160 195 206 160 195 206 160 195 206 160 129 139 105 129 139 102 185 199 146 185 199 146 129 139 102 185 199 146 129 139 102 129 139 102 129 139 102 122 136 98 122 136 98 122 136 98 122 136 98 116 134 93 116 134 93 116 134 93 116 134 93 116 134 93 107 133 88 107 133 88 107 133 88 107 133 88 107 133 88 107 133 88 107 133 88 154 190 126 143 187 119 100 130 83 143 187 119 100 130 83 100 130 83 100 130 83 100 130 83 100 130 83 100 130 83 100 130 83 107 133 88 154 190 126 154 190 126 154 190 126 154 190 126 166 192 134 166 192 134 116 134 93 166 192 134 166 192 134 122 136 98 122 136 98 185 199 146 185 199 146 185 199 146 185 199 150 129 139 105 185 199 150 185 199 150 195 206 160 195 206 160 136 144 112 205 215 171 215 222 176 224 228 180 215 222 176 224 228 180 224 228 180 224 228 180 224 228 180 224 228 180 215 222 176 215 222 176 215 222 176 215 222 176 215 222 176 215 222 176 215 222 176 215 222 176 215 222 176 215 222 176 215 222 176 215 222 176 215 222 176 215 222 176 215 222 176 150 155 123 205 215 171 205 215 171 143 150 119 205 215 171 205 215 171 205 215 171 215 222 176 205 215 171 205 215 171 205 215 171 215 222 176 215 222 176 150 155 123 150 155 123 215 222 176 215 222 176 143 150 119 143 150 119 205 215 171 215 222 176 215 222 176 143 150 119 205 215 171 143 150 119 205 215 171 143 150 119 143 150 119 205 215 171 205 215 171 215 222 176 215 222 176 215 222 176 215 222 176 205 215 171 205 215 171 205 215 171 205 215 171 215 222 176 215 222 176 215 222 176 215 222 176 224 228 180 224 228 180 224 228 180 224 228 180 156 159 126 215 222 176 150 155 123 143 150 119 136 144 112 136 144 112 129 139 105 129 139 105 129 139 102 129 139 102 129 139 102 129 139 102 129 139 102 129 139 102 175 195 141 122 136 98 122 136 98 122 136 98 175 195 141 122 136 98 175 195 141 116 134 93 116 134 93 166 192 134 166 192 134 154 190 126 154 190 126 166 192 134 154 190 126 154 190 126 166 192 134 154 190 126 107 133 88 154 190 126 100 130 83 108 140 88 108 140 88 123 150 100 123 150 100 176 215 143 176 215 143 123 150 100 176 215 143 216 224 164 151 156 114 170 163 145 170 163 145 170 163 145 154 168 161 154 168 161 145 168 178 130 163 178 130 163 178 186 234 255 121 158 178 116 156 172 116 156 172 111 154 168 111 154 168 105 149 167 105 149 167 100 142 166 96 138 171 96 138 171 91 135 168 91 135 168 91 135 168 91 135 168 130 194 240 85 133 166 85 133 166 80 128 164 115 184 235 80 128 164 80 128 164 76 126 161 76 126 161 109 180 231 109 180 231 109 180 231 76 126 161 71 122 158 71 122 158 66 119 156 66 119 156 66 119 156 66 119 156 63 118 154 66 119 156 95 171 224 66 119 156 66 119 156 66 119 156 95 171 224 66 119 156 66 119 156

205 215 171 205 215 171 143 150 119 143 150 119 136 144 112 136 144 112 129 139 105 129 139 102 129 139 102 129 139 102 129 139 102 129 139 102 185 199 150 185 199 150 185 199 150 185 199 146 129 139 102 185 199 146 129 139 102 129 139 102 129 139 102 129 139 105 129 139 105 129 139 105 195 206 160 195 206 160 136 144 112 195 206 160 195 206 160 136 144 112 195 206 160 195 206 160 195 206 160 129 139 105 129 139 102 185 199 146 185 199 146 129 139 102 129 139 102 129 139 102 122 136 98 122 136 98 122 136 98 122 136 98 122 136 98 116 134 93 116 134 93 116 134 93 116 134 93 116 134 93 116 134 93 107 133 88 107 133 88 107 133 88 154 190 126 154 190 126 154 190 126 100 130 83 154 190 126 100 130 83 100 130 83 143 187 119 100 130 83 100 130 83 100 130 83 143 187 119 100 130 83 154 190 126 154 190 126 154 190 126 154 190 126 154 190 126 154 190 126 107 133 88 166 192 134 116 134 93 166 192 134 166 192 134 116 134 93 116 134 93 175 195 141 175 195 141 185 199 146 185 199 146 185 199 150 129 139 105 185 199 150 185 199 150 185 199 150 195 206 160 195 206 160 205 215 171 215 222 176 215 222 176 224 228 180 224 228 180 234 231 186 234 231 186 224 228 180 224 228 180 224 228 180 150 155 123 150 155 123 150 155 123 215 222 176 215 222 176 215 222 176 215 222 176 215 222 176 215 222 176 215 222 176 224 228 180 224 228 180 215 222 176 215 222 176 150 155 123 215 222 176 215 222 176 143 150 119 205 215 171 205 215 171 205 215 171 215 222 176 143 150 119 215 222 176 215 222 176 215 222 176 215 222 176 215 222 176 215 222 176 143 150 119 143 150 119 143 150 119 143 150 119 205 215 171 205 215 171 143 150 119 143 150 119 143 150 119 143 150 119 143 150 119 143 150 119 205 215 171 205 215 171 215 222 176 205 215 171 215 222 176 215 222 176 215 222 176 215 222 176 205 215 171 215 222 176 215 222 176 215 222 176 224 228 180 215 222 176 224 228 180 224 228 180 224 228 180 224 228 180 224 228 180 224 228 180 156 159 126 150 155 123 143 150 119 136 144 112 136 144 112 129 139 105 129 139 105 129 139 102 129 139 102 129 139 102 185 199 146 185 199 146 185 199 146 185 199 146 122 136 98 122 136 98 175 195 141 175 195 141 175 195 141 175 195 141 116 134 93 166 192 134 175 195 141 166 192 134 166 192 134 166 192 134 175 195 141 166 192 134 166 192 134 166 192 134 166 192 134 166 192 134 107 133 88 100 130 83 100 130 83 108 140 88 123 150 100 123 150 100 176 215 143 123 150 100 151 156 114 151 156 114 176 215 143 151 156 114 170 163 145 170 163 145 170 163 145 154 168 161 221 240 230 145 168 178 145 168 178 130 163 178 121 158 178 121 158 178 174 227 255 116 156 172 111 154 168 111 154 168 105 149 167 105 149 167 100 142 166 96 138 171 96 138 171 91 135 168 91 135 168 91 135 168 130 194 240 85 133 166 130 194 240 122 190 238 122 190 238 115 184 235 80 128 164 80 128 164 80 128 164 76 126 161 76 126 161 76 126 161 109 180 231 109 180 231 71 122 158 71 122 158 66 119 156 66 119 156 66 119 156 95 171 224 66 119 156 95 171 224 95 171 224 95 171 224 66 119 156 66 119 156 95 171 224 66 119 156 66 119 156

205 215 171 205 215 171 143 150 119 136 144 112 136 144 112 136 144 112 129 139 105 129 139 102 129 139 102 129 139 102 185 199 146 129 139 102 185 199 146 185 199 150 129 139 102 129 139 102 129 139 102 129 139 102 129 139 102 129 139 102 129 139 102 185 199 146 129 139 105 185 199 150 185 199 150 129 139 105 195 206 160 136 144 112 129 139 105 129 139 105 129 139 105 136 144 112 195 206 160 129 139 105 129 139 105 185 199 146 185 199 146 129 139 102 122 136 98 122 136 98 122 136 98 122 136 98 116 134 93 116 134 93 116 134 93 116 134 93 116 134 93 107 133 88 107 133 88 107 133 88 107 133 88 107 133 88 107 133 88 100 130 83 100 130 83 100 130 83 100 130 83 107 133 88 100 130 83 100 130 83 108 140 88 108 140 88 108 140 88 108 140 88 108 140 88 108 140 88 143 187 119 143 187 119 154 190 126 107 133 88 100 130 83 154 190 126 154 190 126 154 190 126 154 190 126 107 133 88 107 133 88 116 134 93 166 192 134 166 192 134 175 195 141 175 195 141 122 136 98 185 199 146 185 199 146 129 139 102 185 199 150 129 139 105 129 139 105 185 199 150 195 206 160 205 215 171 215 222 176 215 222 176 224 228 180 224 228 180 234 231 186 234 231 186 156 159 126 156 159 126 150 155 123 150 155 123 150 155 123 150 155 123 215 222 176 215 222 176 215 222 176 150 155 123 215 222 176 215 222 176 224 228 180 224 228 180 224 228 180 224 228 180 224 228 180 215 222 176 215 222 176 215 222 176 215 222 176 215 222 176 215 222 176 205 215 171 205 215 171 215 222 176 215 222 176 215 222 176 215 222 176 215 222 176 215 222 176 150 155 123 150 155 123 215 222 176 205 215 171 205 215 171 205 215 171 205 215 171 143 150 119 205 215 171 143 150 119 205 215 171 143 150 119 205 215 171 205 215 171 205 215 171 205 215 171 215 222 176 205 215 171 150 155 123 215 222 176 215 222 176 215 222 176 215 222 176 224 228 180 224 228 180 224 228 180 224 228 180 224 228 180 224 228 180 224 228 180 224 228 180 224 228 180 156 159 126 156 159 126 150 155 123 143 150 119 143 150 119 136 144 112 129 139 105 129 139 105 129 139 102 129 139 102 129 139 102 129 139 102 185 199 146 129 139 102 122 136 98 122 136 98 122 136 98 175 195 141 175 195 141 175 195 141 122 136 98 175 195 141 175 195 141 166 192 134 116 134 93 166 192 134 175 195 141 175 195 141 116 134 93 166 192 134 166 192 134 166 192 134 116 134 93 107 133 88 107 133 88 100 130 83 108 140 88 108 140 88 123 150 100 123 150 100 123 150 100 151 156 114 176 215 143 151 156 114 151 156 114 170 163 145 170 163 145 170 163 145 154 168 161 154 168 161 154 168 161 145 168 178 130 163 178 121 158 178 186 234 255 174 227 255 116 156 172 111 154 168 111 154 168 105 149 167 105 149 167 100 142 166 96 138 171 96 138 171 96 138 171 91 135 168 130 194 240 130 194 240 85 133 166 130 194 240 85 133 166 122 190 238 85 133 166 80 128 164 80 128 164 115 184 235 76 126 161 76 126 161 109 180 231 109 180 231 71 122 158 71 122 158 71 122 158 66 119 156 95 171 224 66 119 156 95 171 224 66 119 156 95 171 224 95 171 224 66 119 156 66 119 156 63 118 154 63 118 154 66 119 156 63 118 154

215 222 176 205 215 171 143 150 119 136 144 112 205 215 171 129 139 105 129 139 105 129 139 102 129 139 102 185 199 146 129 139 102 185 199 146 185 199 150 129 139 102 129 139 102 185 199 146 129 139 102 129 139 102 129 139 102 185 199 146 185 199 146 129 139 102 185 199 146 129 139 102 185 199 150 129 139 105 185 199 150 129 139 105 129 139 105 129 139 105 195 206 160 185 199 150 195 206 160 129 139 105 185 199 150 129 139 102 129 139 102 129 139 102 122 136 98 122 136 98 122 136 98 116 134 93 116 134 93 116 134 93 116 134 93 107 133 88 107 133 88 107 133 88 100 130 83 107 133 88 107 133 88 100 130 83 100 130 83 100 130 83 143 187 119 100 130 83 100 130 83 100 130 83 100 130 83 100 130 83 100 130 83 108 140 88 108 140 88 108 140 88 108 140 88 143 187 119 143 187 119 100 130 83 100 130 83 100 130 83 100 130 83 100 130 83 100 130 83 100 130 83 100 130 83 107 133 88 154 190 126 154 190 126 166 192 134 166 192 134 175 195 141 175 195 141 175 195 141 175 195 141 185 199 146 129 139 102 129 139 102 129 139 105 185 199 150 185 199 150 195 206 160 205 215 171 205 215 171 215 222 176 224 228 180 224 228 180 234 231 186 234 231 186 234 231 186 156 159 126 156 159 126 150 155 123 150 155 123 150 155 123 215 222 176 215 222 176 215 222 176 215 222 176 215 222 176 224 228 180 224 228 180 224 228 180 234 231 186 224 228 180 224 228 180 224 228 180 224 228 180 224 228 180 224 228 180 215 222 176 215 222 176 150 155 123 215 222 176 215 222 176 224 228 180 224 228 180 215 222 176 224 228 180 224 228 180 150 155 123 224 228 180 215 222 176 215 222 176 215 222 176 215 222 176 143 150 119 205 215 171 205 215 171 215 222 176 205 215 171 205 215 171 205 215 171 205 215 171 205 215 171 205 215 171 205 215 171 215 222 176 215 222 176 215 222 176 215 222 176 224 228 180 224 228 180 224 228 180 224 228 180 224 228 180 224 228 180 234 231 186 234 231 186 234 231 186 234 231 186 234 231 186 156 159 126 224 228 180 150 155 123 143 150 119 143 150 119 136 144 112 136 144 112 129 139 105 129 139 105 185 199 146 129 139 102 129 139 102 185 199 146 129 139 102 122 136 98 122 136 98 175 195 141 175 195 141 175 195 141 175 195 141 122 136 98 175 195 141 175 195 141 175 195 141 175 195 141 175 195 141 166 192 134 175 195 141 175 195 141 175 195 141 175 195 141 175 195 141 166 192 134 166 192 134 107 133 88 107 133 88 108 140 88 108 140 88 123 150 100 123 150 100 176 215 143 151 156 114 151 156 114 151 156 114 151 156 114 170 163 145 170 163 145 170 163 145 154 168 161 221 240 230 145 168 178 145 168 178 130 163 178 186 234 255 186 234 255 121 158 178 116 156 172 116 156 172 159 221 240 111 154 168 105 149 167 100 142 166 96 138 171 96 138 171 91 135 168 138 198 245 130 194 240 91 135 168 85 133 166 122 190 238 130 194 240 130 194 240 85 133 166 122 190 238 115 184 235 80 128 164 76 126 161 109 180 231 76 126 161 109 180 231 71 122 158 109 180 231 71 122 158 102 175 227 102 175 227 95 171 224 95 171 224 95 171 224 95 171 224 95 171 224 66 119 156 95 171 224 95 171 224 91 169 221 63 118 154 63 118 154

215 222 176 215 222 176 143 150 119 143 150 119 136 144 112 129 139 105 129 139 105 129 139 102 129 139 102 129 139 102 129 139 102 185 199 146 129 139 102 129 139 102 129 139 102 129 139 102 185 199 146 185 199 146 185 199 146 122 136 98 122 136 98 122 136 98 129 139 102 185 199 146 185 199 150 129 139 102 129 139 102 129 139 105 129 139 102 129 139 102 185 199 150 129 139 105 195 206 160 136 144 112 185 199 150 129 139 105 185 199 146 129 139 102 122 136 98 116 134 93 116 134 93 116 134 93 107 133 88 107 133 88 107 133 88 107 133 88 107 133 88 100 130 83 100 130 83 100 130 83 100 130 83 100 130 83 100 130 83 100 130 83 100 130 83 100 130 83 100 130 83 100 130 83 108 140 88 108 140 88 108 140 88 108 140 88 108 140 88 108 140 88 155 200 126 155 200 126 143 187 119 100 130 83 143 187 119 100 130 83 100 130 83 100 130 83 108 140 88 108 140 88 100 130 83 143 187 119 154 190 126 107 133 88 166 192 134 166 192 134 175 195 141 175 195 141 175 195 141 185 199 146 175 195 141 129 139 102 129 139 102 185 199 146 185 199 150 185 199 150 185 199 150 136 144 112 205 215 171 215 222 176 224 228 180 224 228 180 224 228 180 234 231 186 156 159 126 156 159 126 156 159 126 150 155 123 215 222 176 215 222 176 215 222 176 224 228 180 224 228 180 215 222 176 224 228 180 224 228 180 224 228 180 234 231 186 234 231 186 234 231 186 234 231 186 156 159 126 224 228 180 224 228 180 224 228 180 156 159 126 150 155 123 215 222 176 215 222 176 215 222 176 224 228 180 224 228 180 156 159 126 224 228 180 224 228 180 156 159 126 215 222 176 150 155 123 150 155 123 150 155 123 143 150 119 143 150 119 143 150 119 205 215 171 143 150 119 143 150 119 143 150 119 205 215 171 205 215 171 205 215 171 205 215 171 205 215 171 215 222 176 215 222 176 215 222 176 215 222 176 224 228 180 224 228 180 234 231 186 234 231 186 234 231 186 234 231 186 234 231 186 234 231 186 234 231 186 234 231 186 234 231 186 156 159 126 156 159 126 150 155 123 143 150 119 143 150 119 136 144 112 129 139 105 129 139 105 185 199 150 129 139 102 129 139 102 185 199 146 129 139 102 185 199 146 122 136 98 175 195 141 175 195 141 122 136 98 175 195 141 185 199 146 122 136 98 175 195 141 122 136 98 122 136 98 122 136 98 122 136 98 116 134 93 175 195 141 175 195 141 175 195 141 175 195 141 175 195 141 122 136 98 116 134 93 107 133 88 100 130 83 108 140 88 108 140 88 123 150 100 151 156 114 151 156 114 151 156 114 151 156 114 151 156 114 151 156 114 170 163 145 170 163 145 154 168 161 154 168 161 145 168 178 145 168 178 145 168 178 130 163 178 130 163 178 130 163 178 121 158 178 116 156 172 116 156 172 116 156 172 111 154 168 105 149 167 100 142 166 100 142 166 96 138 171 96 138 171 138 198 245 91 135 168 91 135 168 91 135 168 122 190 238 130 194 240 130 194 240 85 133 166 122 190 238 122 190 238 115 184 235 115 184 235 109 180 231 76 126 161 109 180 231 109 180 231 109 180 231 71 122 158 102 175 227 102 175 227 66 119 156 66 119 156 95 171 224 66 119 156 66 119 156 66 119 156 63 118 154 63 118 154 63 118 154 63 118 154 91 169 221

224 228 180 215 222 176 143 150 119 143 150 119 205 215 171 129 139 105 129 139 102 129 139 102 129 139 102 129 139 102 185 199 146 185 199 146 185 199 150 129 139 102 185 199 146 185 199 146 185 199 146 122 136 98 122 136 98 122 136 98 122 136 98 122 136 98 185 199 146 185 199 146 129 139 102 129 139 102 129 139 102 129 139 102 129 139 102 129 139 102 129 139 102 185 199 150 195 206 160 129 139 105 129 139 105 129 139 102 129 139 102 122 136 98 122 136 98 116 134 93 107 133 88 107 133 88 107 133 88 154 190 126 107 133 88 107 133 88 100 130 83 108 140 88 108 140 88 143 187 119 108 140 88 108 140 88 108 140 88 108 140 88 108 140 88 143 187 119 143 187 119 108 140 88 108 140 88 108 140 88 108 140 88 108 140 88 108 140 88 123 150 100 155 200 126 155 200 126 143 187 119 108 140 88 143 187 119 108 140 88 100 130 83 108 140 88 108 140 88 108 140 88 155 200 126 143 187 119 154 190 126 154 190 126 154 190 126 166 192 134 175 195 141 175 195 141 175 195 141 175 195 141 122 136 98 185 199 146 185 199 146 185 199 146 129 139 102 185 199 150 185 199 150 195 206 160 195 206 160 205 215 171 215 222 176 224 228 180 234 231 186 234 231 186 156 159 126 156 159 126 150 155 123 224 228 180 224 228 180 215 222 176 215 222 176 224 228 180 224 228 180 224 228 180 224 228 180 224 228 180 234 231 186 234 231 186 240 235 191 234 231 186 234 231 186 163 161 130 234 231 186 224 228 180 156 159 126 150 155 123 224 228 180 215 222 176 215 222 176 224 228 180 224 228 180 224 228 180 224 228 180 224 228 180 224 228 180 224 228 180 150 155 123 150 155 123 150 155 123 215 222 176 143 150 119 205 215 171 143 150 119 205 215 171 215 222 176 215 222 176 215 222 176 215 222 176 215 222 176 215 222 176 215 222 176 205 215 171 215 222 176 150 155 123 215 222 176 224 228 180 224 228 180 224 228 180 234 231 186 234 231 186 234 231 186 234 231 186 240 235 191 234 231 186 240 235 191 240 235 191 240 235 191 163 161 130 156 159 126 150 155 123 143 150 119 143 150 119 136 144 112 136 144 112 129 139 105 185 199 150 185 199 150 129 139 102 129 139 102 185 199 146 185 199 146 185 199 146 175 195 141 175 195 141 175 195 141 175 195 141 185 199 146 122 136 98 175 195 141 122 136 98 116 134 93 116 134 93 175 195 141 116 134 93 175 195 141 175 195 141 175 195 141 185 199 146 185 199 150 122 136 98 116 134 93 107 133 88 100 130 83 108 140 88 123 150 100 123 150 100 151 156 114 151 156 114 151 156 114 216 224 164 176 215 143 170 163 145 170 163 145 154 168 161 243 234 208 154 168 161 154 168 161 145 168 178 145 168 178 130 163 178 130 163 178 130 163 178 121 158 178 116 156 172 116 156 172 116 156 172 111 154 168 105 149 167 105 149 167 100 142 166 100 142 166 138 198 245 138 198 245 138 198 245 130 194 240 91 135 168 130 194 240 130 194 240 130 194 240 91 135 168 122 190 238 85 133 166 80 128 164 115 184 235 115 184 235 115 184 235 115 184 235 115 184 235 109 180 231 109 180 231 109 180 231 102 175 227 71 122 158 102 175 227 95 171 224 66 119 156 66 119 156 95 171 224 95 171 224 95 171 224 91 169 221 95 171 224 91 169 221

215 222 176 150 155 123 143 150 119 136 144 112 136 144 112 129 139 105 129 139 102 129 139 102 129 139 102 122 136 98 185 199 146 185 199 146 185 199 146 129 139 102 185 199 146 122 136 98 122 136 98 122 136 98 122 136 98 122 136 98 122 136 98 175 195 141 122 136 98 122 136 98 185 199 146 129 139 102 129 139 102 129 139 102 122 136 98 185 199 146 129 139 102 185 199 146 129 139 105 129 139 105 129 139 102 129 139 102 122 136 98 122 136 98 116 134 93 116 134 93 116 134 93 107 133 88 107 133 88 107 133 88 107 133 88 100 130 83 100 130 83 100 130 83 108 140 88 108 140 88 108 140 88 123 150 100 108 140 88 108 140 88 155 200 126 155 200 126 108 140 88 108 140 88 108 140 88 108 140 88 123 150 100 155 200 126 108 140 88 123 150 100 176 215 143 108 140 88 108 140 88 108 140 88 108 140 88 108 140 88 108 140 88 108 140 88 108 140 88 108 140 88 143 187 119 143 187 119 154 190 126 107 133 88 154 190 126 154 190 126 166 192 134 116 134 93 116 134 93 122 136 98 175 195 141 175 195 141 129 139 102 129 139 102 129 139 102 185 199 146 129 139 105 185 199 150 195 206 160 205 215 171 205 215 171 224 228 180 224 228 180 156 159 126 156 159 126 156 159 126 150 155 123 224 228 180 150 155 123 224 228 180 224 228 180 224 228 180 224 228 180 224 228 180 224 228 180 156 159 126 224 228 180 234 231 186 234 231 186 163 161 130 234 231 186 234 231 186 234 231 186 156 159 126 156 159 126 224 228 180 224 228 180 156 159 126 224 228 180 224 228 180 224 228 180 156 159 126 224 228 180 224 228 180 156 159 126 156 159 126 156 159 126 224 228 180 150 155 123 150 155 123 215 222 176 215 222 176 215 222 176 215 222 176 215 222 176 215 222 176 215 222 176 143 150 119 143 150 119 150 155 123 215 222 176 215 222 176 215 222 176 215 222 176 215 222 176 224 228 180 224 228 180 224 228 180 224 228 180 163 161 130 234 231 186 234 231 186 240 235 191 168 164 133 240 235 191 168 164 133 163 161 130 163 161 130 156 159 126 150 155 123 143 150 119 143 150 119 136 144 112 136 144 112 129 139 105 185 199 150 185 199 150 129 139 105 129 139 102 185 199 146 129 139 102 185 199 146 122 136 98 175 195 141 175 195 141 175 195 141 175 195 141 122 136 98 122 136 98 122 136 98 116 134 93 116 134 93 116 134 93 116 134 93 116 134 93 116 134 93 116 134 93 122 136 98 122 136 98 116 134 93 107 133 88 107 133 88 100 130 83 108 140 88 123 150 100 123 150 100 151 156 114 151 156 114 151 156 114 151 156 114 151 156 114 170 163 145 170 163 145 170 163 145 243 234 208 154 168 161 154 168 161 145 168 178 145 168 178 130 163 178 130 163 178 121 158 178 116 156 172 116 156 172 116 156 172 111 154 168 111 154 168 105 149 167 105 149 167 100 142 166 100 142 166 144 204 238 138 198 245 138 198 245 138 198 245 138 198 245 130 194 240 130 194 240 91 135 168 91 135 168 130 194 240 130 194 240 122 190 238 122 190 238 122 190 238 122 190 238 115 184 235 115 184 235 76 126 161 115 184 235 109 180 231 76 126 161 71 122 158 71 122 158 66 119 156 95 171 224 95 171 224 95 171 224 66 119 156 95 171 224 95 171 224 95 171 224 95 171 224

215 222 176 143 150 119 136 144 112 136 144 112 136 144 112 129 139 105 129 139 102 122 136 98 122 136 98 122 136 98 185 199 146 185 199 146 185 199 146 129 139 102 129 139 102 122 136 98 122 136 98 175 195 141 122 136 98 122 136 98 175 195 141 122 136 98 122 136 98 175 195 141 122 136 98 122 136 98 122 136 98 122 136 98 122 136 98 175 195 141 129 139 102 185 199 146 129 139 102 129 139 102 122 136 98 122 136 98 116 134 93 116 134 93 116 134 93 116 134 93 107 133 88 107 133 88 107 133 88 100 130 83 100 130 83 100 130 83 100 130 83 143 187 119 108 140 88 108 140 88 123 150 100 123 150 100 123 150 100 155 200 126 155 200 126 108 140 88 108 140 88 108 140 88 108 140 88 108 140 88 123 150 100 176 215 143 123 150 100 123 150 100 155 200 126 123 150 100 155 200 126 123 150 100 123 150 100 108 140 88 123 150 100 108 140 88 108 140 88 155 200 126 155 200 126 143 187 119 143 187 119 154 190 126 107 133 88 107 133 88 107 133 88 166 192 134 166 192 134 175 195 141 175 195 141 122 136 98 175 195 141 122 136 98 122 136 98 185 199 146 185 199 150 185 199 150 195 206 160 195 206 160 205 215 171 215 222 176 224 228 180 156 159 126 156 159 126 150 155 123 150 155 123 224 228 180 224 228 180 224 228 180 224 228 180 224 228 180 234 231 186 224 228 180 156 159 126 224 228 180 224 228 180 234 231 186 234 231 186 163 161 130 234 231 186 163 161 130 163 161 130 156 159 126 156 159 126 156 159 126 156 159 126 224 228 180 150 155 123 150 155 123 224 228 180 224 228 180 224 228 180 224 228 180 156 159 126 224 228 180 224 228 180 224 228 180 224 228 180 224 228 180 215 222 176 215 222 176 215 222 176 215 222 176 215 222 176 215 222 176 143 150 119 215 222 176 215 222 176 215 222 176 150 155 123 143 150 119 215 222 176 215 222 176 224 228 180 224 228 180 224 228 180 224 228 180 224 228 180 234 231 186 234 231 186 163 161 130 234 231 186 163 161 130 240 235 191 163 161 130 163 161 130 163 161 130 156 159 126 150 155 123 143 150 119 205 215 171 205 215 171 136 144 112 129 139 105 185 199 150 129 139 105 129 139 105 129 139 105 185 199 146 185 199 146 129 139 102 185 199 146 175 195 141 185 199 146 185 199 146 175 195 141 122 136 98 122 136 98 122 136 98 116 134 93 116 134 93 116 134 93 116 134 93 107 133 88 116 134 93 116 134 93 116 134 93 116 134 93 107 133 88 107 133 88 100 130 83 108 140 88 123 150 100 123 150 100 123 150 100 151 156 114 216 224 164 216 224 164 151 156 114 216 224 164 170 163 145 243 234 208 170 163 145 243 234 208 154 168 161 154 168 161 145 168 178 208 240 255 130 163 178 130 163 178 121 158 178 116 156 172 116 156 172 116 156 172 111 154 168 111 154 168 105 149 167 105 149 167 151 214 239 100 142 166 144 204 238 144 204 238 144 204 238 138 198 245 138 198 245 138 198 245 138 198 245 91 135 168 130 194 240 91 135 168 130 194 240 130 194 240 122 190 238 122 190 238 122 190 238 122 190 238 115 184 235 115 184 235 115 184 235 115 184 235 76 126 161 71 122 158 71 122 158 102 175 227 102 175 227 66 119 156 95 171 224 95 171 224 95 171 224 95 171 224 95 171 224 95 171 224

205 215 171 136 144 112 136 144 112 129 139 105 129 139 105 129 139 105 129 139 102 122 136 98 122 136 98 122 136 98 175 195 141 122 136 98 122 136 98 129 139 102 129 139 102 122 136 98 116 134 93 116 134 93 116 134 93 122 136 98 175 195 141 116 134 93 116 134 93 175 195 141 122 136 98 122 136 98 116 134 93 122 136 98 122 136 98 122 136 98 122 136 98 122 136 98 122 136 98 122 136 98 122 136 98 116 134 93 107 133 88 107 133 88 107 133 88 107 133 88 107 133 88 107 133 88 100 130 83 100 130 83 108 140 88 100 130 83 108 140 88 100 130 83 108 140 88 123 150 100 123 150 100 123 150 100 123 150 100 176 215 143 155 200 126 108 140 88 123 150 100 123 150 100 123 150 100 123 150 100 123 150 100 176 215 143 155 200 126 155 200 126 155 200 126 123 150 100 176 215 143 123 150 100 155 200 126 155 200 126 123 150 100 176 215 143 155 200 126 155 200 126 155 200 126 155 200 126 143 187 119 100 130 83 107 133 88 107 133 88 154 190 126 154 190 126 166 192 134 166 192 134 175 195 141 122 136 98 122 136 98 122 136 98 175 195 141 185 199 146 185 199 150 185 199 150 195 206 160 205 215 171 205 215 171 215 222 176 150 155 123 150 155 123 150 155 123 150 155 123 150 155 123 215 222 176 150 155 123 224 228 180 224 228 180 224 228 180 224 228 180 156 159 126 224 228 180 224 228 180 224 228 180 234 231 186 234 231 186 234 231 186 163 161 130 163 161 130 156 159 126 156 159 126 150 155 123 150 155 123 150 155 123 150 155 123 150 155 123 150 155 123 215 222 176 224 228 180 224 228 180 224 228 180 224 228 180 224 228 180 224 228 180 156 159 126 224 228 180 224 228 180 150 155 123 215 222 176 224 228 180 215 222 176 215 222 176 150 155 123 143 150 119 205 215 171 215 222 176 215 222 176 215 222 176 215 222 176 215 222 176 215 222 176 215 222 176 150 155 123 224 228 180 224 228 180 224 228 180 234 231 186 234 231 186 163 161 130 234 231 186 234 231 186 163 161 130 163 161 130 156 159 126 156 159 126 156 159 126 150 155 123 143 150 119 143 150 119 136 144 112 136 144 112 136 144 112 195 206 160 129 139 105 129 139 105 129 139 105 129 139 102 129 139 102 129 139 102 185 199 146 122 136 98 122 136 98 122 136 98 122 136 98 122 136 98 175 195 141 122 136 98 116 134 93 116 134 93 107 133 88 107 133 88 107 133 88 154 190 126 107 133 88 107 133 88 107 133 88 107 133 88 100 130 83 108 140 88 108 140 88 123 150 100 123 150 100 151 156 114 151 156 114 216 224 164 151 156 114 151 156 114 170 163 145 170 163 145 170 163 145 170 163 145 154 168 161 154 168 161 154 168 161 145 168 178 145 168 178 130 163 178 121 158 178 121 158 178 116 156 172 166 224 247 166 224 247 111 154 168 159 221 240 105 149 167 105 149 167 151 214 239 105 149 167 100 142 166 144 204 238 144 204 238 144 204 238 138 198 245 138 198 245 96 138 171 138 198 245 130 194 240 91 135 168 130 194 240 130 194 240 85 133 166 85 133 166 122 190 238 85 133 166 80 128 164 80 128 164 115 184 235 80 128 164 80 128 164 109 180 231 109 180 231 102 175 227 102 175 227 102 175 227 102 175 227 102 175 227 102 175 227 95 171 224 95 171 224 95 171 224

195 206 160 136 144 112 129 139 105 129 139 105 129 139 105 129 139 102 129 139 102 122 136 98 122 136 98 116 134 93 175 195 141 122 136 98 175 195 141 122 136 98 122 136 98 122 136 98 116 134 93 116 134 93 166 192 134 116 134 93 116 134 93 116 134 93 116 134 93 166 192 134 175 195 141 116 134 93 116 134 93 116 134 93 116 134 93 175 195 141 175 195 141 116 134 93 122 136 98 116 134 93 116 134 93 116 134 93 107 133 88 107 133 88 107 133 88 107 133 88 107 133 88 100 130 83 100 130 83 108 140 88 108 140 88 108 140 88 108 140 88 108 140 88 108 140 88 123 150 100 123 150 100 123 150 100 176 215 143 176 215 143 123 150 100 123 150 100 123 150 100 123 150 100 123 150 100 123 150 100 123 150 100 176 215 143 155 200 126 123 150 100 155 200 126 123 150 100 123 150 100 123 150 100 176 215 143 155 200 126 155 200 126 155 200 126 155 200 126 155 200 126 143 187 119 155 200 126 143 187 119 100 130 83 143 187 119 154 190 126 154 190 126 154 190 126 154 190 126 166 192 134 175 195 141 175 195 141 122 136 98 175 195 141 175 195 141 185 199 146 185 199 150 185 199 150 185 199 150 195 206 160 205 215 171 205 215 171 215 222 176 150 155 123 150 155 123 150 155 123 215 222 176 215 222 176 215 222 176 224 228 180 234 231 186 234 231 186 234 231 186 156 159 126 224 228 180 234 231 186 224 228 180 234 231 186 234 231 186 163 161 130 156 159 126 156 159 126 156 159 126 156 159 126 150 155 123 215 222 176 150 155 123 150 155 123 215 222 176 150 155 123 215 222 176 224 228 180 224 228 180 156 159 126 224 228 180 156 159 126 156 159 126 156 159 126 224 228 180 224 228 180 156 159 126 150 155 123 224 228 180 150 155 123 150 155 123 215 222 176 215 222 176 215 222 176 215 222 176 215 222 176 224 228 180 215 222 176 215 222 176 215 222 176 215 222 176 215 222 176 224 228 180 224 228 180 234 231 186 224 228 180 234 231 186 234 231 186 234 231 186 163 161 130 163 161 130 163 161 130 156 159 126 150 155 123 150 155 123 150 155 123 150 155 123 143 150 119 136 144 112 136 144 112 195 206 160 195 206 160 136 144 112 185 199 150 185 199 150 129 139 102 129 139 102 129 139 102 122 136 98 122 136 98 122 136 98 175 195 141 185 199 146 175 195 141 122 136 98 116 134 93 116 134 93 107 133 88 166 192 134 154 190 126 107 133 88 107 133 88 107 133 88 107 133 88 107 133 88 100 130 83 108 140 88 108 140 88 108 140 88 123 150 100 123 150 100 151 156 114 151 156 114 216 224 164 151 156 114 170 163 145 170 163 145 243 234 208 243 234 208 170 163 145 154 168 161 221 240 230 221 240 230 221 240 230 221 240 230 145 168 178 130 163 178 174 227 255 121 158 178 116 156 172 116 156 172 111 154 168 111 154 168 111 154 168 159 221 240 151 214 239 151 214 239 151 214 239 144 204 238 144 204 238 151 214 239 144 204 238 144 204 238 138 198 245 138 198 245 91 135 168 130 194 240 130 194 240 138 198 245 130 194 240 130 194 240 122 190 238 85 133 166 80 128 164 115 184 235 115 184 235 115 184 235 115 184 235 115 184 235 76 126 161 71 122 158 109 180 231 109 180 231 102 175 227 102 175 227 102 175 227 102 175 227 102 175 227 102 175 227

185 199 150 129 139 105 129 139 102 129 139 102 129 139 102 129 139 102 122 136 98 122 136 98 116 134 93 116 134 93 116 134 93 116 134 93 116 134 93 116 134 93 116 134 93 116 134 93 116 134 93 116 134 93 166 192 134 116 134 93 166 192 134 116 134 93 116 134 93 166 192 134 116 134 93 116 134 93 116 134 93 116 134 93 166 192 134 116 134 93 116 134 93 116 134 93 116 134 93 116 134 93 116 134 93 107 133 88 107 133 88 107 133 88 107 133 88 154 190 126 100 130 83 100 130 83 108 140 88 108 140 88 108 140 88 108 140 88 108 140 88 108 140 88 108 140 88 123 150 100 123 150 100 176 215 143 176 215 143 176 215 143 123 150 100 123 150 100 123 150 100 123 150 100 151 156 114 123 150 100 123 150 100 123 150 100 176 215 143 123 150 100 123 150 100 123 150 100 123 150 100 176 215 143 176 215 143 176 215 143 155 200 126 108 140 88 155 200 126 155 200 126 155 200 126 143 187 119 143 187 119 143 187 119 143 187 119 143 187 119 154 190 126 154 190 126 154 190 126 166 192 134 166 192 134 122 136 98 122 136 98 175 195 141 175 195 141 185 199 146 185 199 150 185 199 150 185 199 150 195 206 160 136 144 112 143 150 119 143 150 119 143 150 119 150 155 123 215 222 176 150 155 123 215 222 176 215 222 176 224 228 180 224 228 180 234 231 186 156 159 126 156 159 126 234 231 186 234 231 186 234 231 186 234 231 186 234 231 186 163 161 130 156 159 126 156 159 126 156 159 126 150 155 123 150 155 123 215 222 176 150 155 123 215 222 176 215 222 176 150 155 123 215 222 176 215 222 176 150 155 123 224 228 180 224 228 180 156 159 126 156 159 126 156 159 126 224 228 180 150 155 123 224 228 180 224 228 180 215 222 176 150 155 123 150 155 123 215 222 176 215 222 176 215 222 176 215 222 176 215 222 176 215 222 176 224 228 180 150 155 123 224 228 180 224 228 180 224 228 180 224 228 180 234 231 186 234 231 186 234 231 186 234 231 186 156 159 126 163 161 130 156 159 126 156 159 126 156 159 126 156 159 126 150 155 123 150 155 123 150 155 123 215 222 176 143 150 119 205 215 171 195 206 160 195 206 160 195 206 160 136 144 112 129 139 105 185 199 150 129 139 105 129 139 102 122 136 98 122 136 98 175 195 141 175 195 141 175 195 141 175 195 141 122 136 98 116 134 93 116 134 93 116 134 93 116 134 93 154 190 126 107 133 88 107 133 88 107 133 88 107 133 88 100 130 83 100 130 83 108 140 88 108 140 88 108 140 88 108 140 88 123 150 100 123 150 100 176 215 143 216 224 164 151 156 114 170 163 145 170 163 145 170 163 145 170 163 145 170 163 145 170 163 145 154 168 161 154 168 161 154 168 161 154 168 161 145 168 178 130 163 178 130 163 178 121 158 178 121 158 178 116 156 172 116 156 172 166 224 247 111 154 168 111 154 168 159 221 240 159 221 240 105 149 167 105 149 167 151 214 239 144 204 238 144 204 238 100 142 166 96 138 171 100 142 166 138 198 245 138 198 245 138 198 245 130 194 240 138 198 245 91 135 168 91 135 168 130 194 240 122 190 238 122 190 238 122 190 238 122 190 238 122 190 238 115 184 235 80 128 164 80 128 164 109 180 231 109 180 231 109 180 231 109 180 231 71 122 158 102 175 227 102 175 227 102 175 227 102 175 227

185 199 150 129 139 102 129 139 102 129 139 102 129 139 102 122 136 98 122 136 98 116 134 93 116 134 93 116 134 93 116 134 93 116 134 93 107 133 88 116 134 93 116 134 93 116 134 93 116 134 93 116 134 93 116 134 93 116 134 93 116 134 93 107 133 88 107 133 88 107 133 88 107 133 88 116 134 93 166 192 134 166 192 134 166 192 134 116 134 93 107 133 88 107 133 88 107 133 88 107 133 88 107 133 88 107 133 88 107 133 88 107 133 88 107 133 88 100 130 83 107 133 88 100 130 83 108 140 88 108 140 88 108 140 88 108 140 88 108 140 88 123 150 100 123 150 100 123 150 100 123 150 100 176 215 143 123 150 100 123 150 100 176 215 143 176 215 143 151 156 114 123 150 100 123 150 100 216 224 164 176 215 143 176 215 143 155 200 126 123 150 100 123 150 100 123 150 100 123 150 100 176 215 143 176 215 143 123 150 100 176 215 143 155 200 126 155 200 126 143 187 119 155 200 126 155 200 126 143 187 119 143 187 119 143 187 119 143 187 119 154 190 126 154 190 126 154 190 126 154 190 126 166 192 134 166 192 134 175 195 141 175 195 141 185 199 146 185 199 146 185 199 146 185 199 150 185 199 150 195 206 160 136 144 112 195 206 160 136 144 112 143 150 119 205 215 171 215 222 176 215 222 176 215 222 176 215 222 176 224 228 180 224 228 180 224 228 180 156 159 126 224 228 180 234 231 186 234 231 186 234 231 186 163 161 130 163 161 130 163 161 130 156 159 126 224 228 180 156 159 126 224 228 180 215 222 176 215 222 176 224 228 180 215 222 176 150 155 123 150 155 123 215 222 176 215 222 176 224 228 180 215 222 176 150 155 123 224 228 180 156 159 126 224 228 180 150 155 123 150 155 123 215 222 176 150 155 123 150 155 123 215 222 176 224 228 180 215 222 176 215 222 176 215 222 176 215 222 176 215 222 176 215 222 176 215 222 176 224 228 180 224 228 180 224 228 180 224 228 180 224 228 180 234 231 186 234 231 186 234 231 186 234 231 186 156 159 126 156 159 126 156 159 126 224 228 180 224 228 180 156 159 126 150 155 123 150 155 123 150 155 123 215 222 176 143 150 119 205 215 171 205 215 171 205 215 171 195 206 160 136 144 112 136 144 112 185 199 150 129 139 102 129 139 102 129 139 102 175 195 141 175 195 141 175 195 141 175 195 141 175 195 141 122 136 98 116 134 93 116 134 93 116 134 93 107 133 88 107 133 88 107 133 88 107 133 88 100 130 83 100 130 83 100 130 83 100 130 83 108 140 88 108 140 88 155 200 126 155 200 126 123 150 100 176 215 143 176 215 143 123 150 100 151 156 114 151 156 114 170 163 145 243 234 208 243 234 208 170 163 145 243 234 208 154 168 161 154 168 161 154 168 161 145 168 178 145 168 178 145 168 178 130 163 178 121 158 178 121 158 178 116 156 172 166 224 247 166 224 247 166 224 247 159 221 240 159 221 240 159 221 240 159 221 240 151 214 239 151 214 239 100 142 166 144 204 238 100 142 166 100 142 166 144 204 238 96 138 171 96 138 171 138 198 245 138 198 245 130 194 240 91 135 168 91 135 168 130 194 240 130 194 240 130 194 240 130 194 240 122 190 238 122 190 238 122 190 238 122 190 238 115 184 235 115 184 235 115 184 235 109 180 231 109 180 231 109 180 231 109 180 231 109 180 231 109 180 231 109 180 231

185 199 146 129 139 102 122 136 98 122 136 98 122 136 98 116 134 93 116 134 93 116 134 93 116 134 93 107 133 88 107 133 88 107 133 88 107 133 88 107 133 88 107 133 88 107 133 88 107 133 88 116 134 93 107 133 88 166 192 134 107 133 88 107 133 88 107 133 88 107 133 88 107 133 88 154 190 126 166 192 134 107 133 88 107 133 88 107 133 88 107 133 88 107 133 88 154 190 126 107 133 88 100 130 83 100 130 83 100 130 83 100 130 83 100 130 83 100 130 83 100 130 83 100 130 83 108 140 88 108 140 88 123 150 100 123 150 100 123 150 100 155 200 126 176 215 143 123 150 100 176 215 143 176 215 143 123 150 100 176 215 143 176 215 143 123 150 100 176 215 143 216 224 164 176 215 143 176 215 143 176 215 143 176 215 143 176 215 143 123 150 100 151 156 114 176 215 143 123 150 100 176 215 143 123 150 100 123 150 100 176 215 143 155 200 126 143 187 119 143 187 119 143 187 119 143 187 119 143 187 119 143 187 119 100 130 83 143 187 119 100 130 83 154 190 126 154 190 126 154 190 126 166 192 134 116 134 93 166 192 134 122 136 98 175 195 141 185 199 146 185 199 146 185 199 150 185 199 150 195 206 160 195 206 160 195 206 160 195 206 160 205 215 171 205 215 171 215 222 176 215 222 176 150 155 123 224 228 180 224 228 180 224 228 180 234 231 186 224 228 180 234 231 186 234 231 186 234 231 186 163 161 130 163 161 130 234 231 186 234 231 186 156 159 126 156 159 126 156 159 126 150 155 123 150 155 123 215 222 176 224 228 180 224 228 180 215 222 176 215 222 176 215 222 176 215 222 176 150 155 123 150 155 123 215 222 176 215 222 176 150 155 123 150 155 123 150 155 123 150 155 123 150 155 123 215 222 176 215 222 176 215 222 176 215 222 176 150 155 123 224 228 180 215 222 176 150 155 123 215 222 176 215 222 176 150 155 123 150 155 123 224 228 180 224 228 180 224 228 180 234 231 186 224 228 180 234 231 186 163 161 130 156 159 126 156 159 126 156 159 126 150 155 123 150 155 123 156 159 126 156 159 126 150 155 123 150 155 123 150 155 123 150 155 123 143 150 119 143 150 119 143 150 119 205 215 171 136 144 112 136 144 112 136 144 112 129 139 105 129 139 105 129 139 102 122 136 98 185 199 146 175 195 141 175 195 141 122 136 98 122 136 98 122 136 98 116 134 93 116 134 93 116 134 93 107 133 88 107 133 88 107 133 88 107 133 88 100 130 83 100 130 83 108 140 88 108 140 88 108 140 88 108 140 88 108 140 88 123 150 100 123 150 100 176 215 143 123 150 100 176 215 143 151 156 114 151 156 114 216 224 164 216 224 164 170 163 145 170 163 145 170 163 145 154 168 161 154 168 161 221 240 230 145 168 178 145 168 178 145 168 178 130 163 178 121 158 178 121 158 178 121 158 178 174 227 255 166 224 247 166 224 247 116 156 172 111 154 168 159 221 240 111 154 168 105 149 167 105 149 167 105 149 167 100 142 166 100 142 166 144 204 238 144 204 238 144 204 238 144 204 238 144 204 238 138 198 245 138 198 245 130 194 240 138 198 245 130 194 240 130 194 240 130 194 240 130 194 240 130 194 240 85 133 166 122 190 238 85 133 166 122 190 238 122 190 238 80 128 164 115 184 235 115 184 235 109 180 231 115 184 235 109 180 231 115 184 235 109 180 231

185 199 146 122 136 98 122 136 98 122 136 98 116 134 93 116 134 93 116 134 93 116 134 93 116 134 93 107 133 88 107 133 88 107 133 88 107 133 88 107 133 88 107 133 88 107 133 88 166 192 134 166 192 134 107 133 88 166 192 134 116 134 93 107 133 88 107 133 88 107 133 88 107 133 88 107 133 88 107 133 88 107 133 88 107 133 88 107 133 88 107 133 88 107 133 88 107 133 88 100 130 83 100 130 83 100 130 83 100 130 83 100 130 83 108 140 88 108 140 88 100 130 83 108 140 88 108 140 88 123 150 100 155 200 126 123 150 100 176 215 143 155 200 126 155 200 126 123 150 100 176 215 143 123 150 100 123 150 100 151 156 114 151 156 114 176 215 143 151 156 114 151 156 114 176 215 143 176 215 143 176 215 143 123 150 100 151 156 114 151 156 114 123 150 100 151 156 114 176 215 143 176 215 143 176 215 143 176 215 143 176 215 143 155 200 126 143 187 119 143 187 119 143 187 119 100 130 83 143 187 119 100 130 83 143 187 119 143 187 119 143 187 119 143 187 119 154 190 126 107 133 88 154 190 126 116 134 93 166 192 134 175 195 141 175 195 141 122 136 98 122 136 98 185 199 146 185 199 150 185 199 150 195 206 160 195 206 160 195 206 160 205 215 171 205 215 171 215 222 176 215 222 176 150 155 123 215 222 176 224 228 180 234 231 186 224 228 180 156 159 126 234 231 186 234 231 186 234 231 186 163 161 130 163 161 130 234 231 186 234 231 186 234 231 186 224 228 180 156 159 126 224 228 180 150 155 123 215 222 176 224 228 180 156 159 126 224 228 180 224 228 180 224 228 180 150 155 123 150 155 123 150 155 123 150 155 123 150 155 123 150 155 123 150 155 123 215 222 176 215 222 176 150 155 123 215 222 176 224 228 180 224 228 180 224 228 180 224 228 180 224 228 180 150 155 123 150 155 123 150 155 123 150 155 123 215 222 176 224 228 180 224 228 180 224 228 180 234 231 186 234 231 186 156 159 126 234 231 186 163 161 130 156 159 126 156 159 126 150 155 123 150 155 123 150 155 123 215 222 176 224 228 180 150 155 123 150 155 123 150 155 123 215 222 176 143 150 119 205 215 171 143 150 119 205 215 171 143 150 119 195 206 160 195 206 160 129 139 105 129 139 102 129 139 102 129 139 102 185 199 146 122 136 98 122 136 98 116 134 93 116 134 93 116 134 93 116 134 93 116 134 93 166 192 134 116 134 93 154 190 126 107 133 88 107 133 88 100 130 83 108 140 88 108 140 88 108 140 88 108 140 88 123 150 100 123 150 100 155 200 126 176 215 143 123 150 100 151 156 114 176 215 143 151 156 114 151 156 114 170 163 145 216 224 164 170 163 145 170 163 145 170 163 145 243 234 208 154 168 161 154 168 161 145 168 178 208 240 255 208 240 255 130 163 178 130 163 178 121 158 178 174 227 255 174 227 255 121 158 178 174 227 255 166 224 247 166 224 247 159 221 240 111 154 168 105 149 167 105 149 167 151 214 239 151 214 239 151 214 239 151 214 239 151 214 239 144 204 238 100 142 166 144 204 238 96 138 171 144 204 238 96 138 171 138 198 245 138 198 245 138 198 245 138 198 245 138 198 245 130 194 240 130 194 240 122 190 238 122 190 238 122 190 238 122 190 238 122 190 238 122 190 238 80 128 164 115 184 235 115 184 235 115 184 235 115 184 235 115 184 235

175 195 141 122 136 98 116 134 93 116 134 93 116 134 93 116 134 93 166 192 134 107 133 88 107 133 88 107 133 88 107 133 88 154 190 126 154 190 126 154 190 126 154 190 126 154 190 126 154 190 126 107 133 88 107 133 88 107 133 88 107 133 88 107 133 88 100 130 83 100 130 83 100 130 83 154 190 126 154 190 126 107 133 88 100 130 83 100 130 83 154 190 126 100 130 83 100 130 83 100 130 83 108 140 88 108 140 88 100 130 83 100 130 83 108 140 88 143 187 119 143 187 119 108 140 88 123 150 100 123 150 100 123 150 100 123 150 100 176 215 143 123 150 100 123 150 100 123 150 100 123 150 100 151 156 114 151 156 114 151 156 114 151 156 114 151 156 114 151 156 114 151 156 114 176 215 143 123 150 100 123 150 100 151 156 114 151 156 114 151 156 114 151 156 114 151 156 114 151 156 114 123 150 100 151 156 114 176 215 143 176 215 143 155 200 126 155 200 126 108 140 88 108 140 88 108 140 88 143 187 119 100 130 83 100 130 83 100 130 83 143 187 119 143 187 119 143 187 119 154 190 126 154 190 126 107 133 88 107 133 88 166 192 134 175 195 141 122 136 98 175 195 141 185 199 146 185 199 146 129 139 105 185 199 150 129 139 105 195 206 160 205 215 171 205 215 171 215 222 176 215 222 176 215 222 176 224 228 180 224 228 180 224 228 180 156 159 126 156 159 126 224 228 180 234 231 186 163 161 130 156 159 126 234 231 186 234 231 186 163 161 130 163 161 130 156 159 126 156 159 126 224 228 180 156 159 126 224 228 180 224 228 180 224 228 180 224 228 180 224 228 180 150 155 123 150 155 123 150 155 123 215 222 176 215 222 176 215 222 176 215 222 176 215 222 176 215 222 176 215 222 176 215 222 176 215 222 176 224 228 180 150 155 123 150 155 123 224 228 180 150 155 123 150 155 123 150 155 123 150 155 123 215 222 176 215 222 176 215 222 176 224 228 180 224 228 180 224 228 180 156 159 126 156 159 126 156 159 126 156 159 126 156 159 126 150 155 123 150 155 123 150 155 123 215 222 176 150 155 123 150 155 123 150 155 123 150 155 123 143 150 119 143 150 119 143 150 119 143 150 119 136 144 112 136 144 112 136 144 112 136 144 112 136 144 112 129 139 105 129 139 105 129 139 102 122 136 98 122 136 98 122 136 98 116 134 93 116 134 93 116 134 93 116 134 93 107 133 88 116 134 93 107 133 88 107 133 88 107 133 88 107 133 88 100 130 83 100 130 83 108 140 88 108 140 88 108 140 88 108 140 88 123 150 100 123 150 100 176 215 143 123 150 100 151 156 114 151 156 114 151 156 114 151 156 114 151 156 114 216 224 164 170 163 145 170 163 145 243 234 208 243 234 208 243 234 208 154 168 161 221 240 230 221 240 230 208 240 255 208 240 255 145 168 178 186 234 255 121 158 178 174 227 255 174 227 255 121 158 178 116 156 172 116 156 172 166 224 247 116 156 172 111 154 168 159 221 240 151 214 239 151 214 239 151 214 239 151 214 239 151 214 239 151 214 239 151 214 239 144 204 238 144 204 238 144 204 238 96 138 171 96 138 171 138 198 245 96 138 171 138 198 245 138 198 245 138 198 245 91 135 168 91 135 168 130 194 240 130 194 240 130 194 240 130 194 240 85 133 166 122 190 238 122 190 238 115 184 235 115 184 235 115 184 235 115 184 235 115 184 235

175 195 141 116 134 93 116 134 93 116 134 93 116 134 93 107 133 88 107 133 88 107 133 88 107 133 88 107 133 88 154 190 126 154 190 126 154 190 126 107 133 88 107 133 88 154 190 126 154 190 126 107 133 88 107 133 88 107 133 88 107 133 88 107 133 88 107 133 88 143 187 119 100 130 83 100 130 83 107 133 88 107 133 88 100 130 83 100 130 83 143 187 119 100 130 83 100 130 83 100 130 83 108 140 88 155 200 126 143 187 119 108 140 88 108 140 88 108 140 88 108 140 88 108 140 88 123 150 100 123 150 100 123 150 100 151 156 114 123 150 100 151 156 114 151 156 114 123 150 100 176 215 143 123 150 100 151 156 114 151 156 114 151 156 114 151 156 114 151 156 114 151 156 114 151 156 114 151 156 114 151 156 114 151 156 114 151 156 114 170 163 145 151 156 114 151 156 114 170 163 145 216 224 164 176 215 143 176 215 143 176 215 143 176 215 143 108 140 88 123 150 100 108 140 88 108 140 88 108 140 88 108 140 88 108 140 88 108 140 88 108 140 88 143 187 119 100 130 83 143 187 119 154 190 126 154 190 126 166 192 134 166 192 134 175 195 141 175 195 141 175 195 141 185 199 146 185 199 146 185 199 146 129 139 105 185 199 150 195 206 160 195 206 160 205 215 171 205 215 171 215 222 176 215 222 176 215 222 176 224 228 180 156 159 126 156 159 126 224 228 180 224 228 180 234 231 186 234 231 186 156 159 126 234 231 186 234 231 186 234 231 186 234 231 186 234 231 186 234 231 186 224 228 180 224 228 180 224 228 180 156 159 126 156 159 126 224 228 180 224 228 180 150 155 123 215 222 176 215 222 176 215 222 176 215 222 176 215 222 176 215 222 176 150 155 123 215 222 176 215 222 176 150 155 123 150 155 123 215 222 176 150 155 123 150 155 123 150 155 123 150 155 123 150 155 123 150 155 123 143 150 119 215 222 176 215 222 176 215 222 176 150 155 123 224 228 180 224 228 180 156 159 126 224 228 180 156 159 126 150 155 123 156 159 126 150 155 123 150 155 123 150 155 123 150 155 123 143 150 119 215 222 176 143 150 119 143 150 119 143 150 119 205 215 171 143 150 119 143 150 119 136 144 112 136 144 112 136 144 112 136 144 112 129 139 105 129 139 105 129 139 105 129 139 102 122 136 98 122 136 98 122 136 98 116 134 93 116 134 93 116 134 93 107 133 88 107 133 88 107 133 88 107 133 88 107 133 88 107 133 88 100 130 83 100 130 83 108 140 88 108 140 88 108 140 88 155 200 126 123 150 100 123 150 100 123 150 100 123 150 100 151 156 114 151 156 114 151 156 114 151 156 114 170 163 145 170 163 145 170 163 145 170 163 145 243 234 208 243 234 208 243 234 208 243 234 208 243 234 208 221 240 230 221 240 230 154 168 161 208 240 255 145 168 178 130 163 178 130 163 178 186 234 255 186 234 255 174 227 255 174 227 255 174 227 255 116 156 172 116 156 172 166 224 247 159 221 240 159 221 240 159 221 240 151 214 239 151 214 239 151 214 239 151 214 239 105 149 167 100 142 166 100 142 166 144 204 238 144 204 238 138 198 245 138 198 245 138 198 245 138 198 245 138 198 245 96 138 171 91 135 168 130 194 240 130 194 240 130 194 240 91 135 168 130 194 240 130 194 240 122 190 238 85 133 166 85 133 166 115 184 235 122 190 238 115 184 235 122 190 238

166 192 134 116 134 93 116 134 93 107 133 88 107 133 88 107 133 88 107 133 88 107 133 88 107 133 88 107 133 88 154 190 126 107 133 88 107 133 88 100 130 83 100 130 83 100 130 83 100 130 83 100 130 83 100 130 83 100 130 83 100 130 83 100 130 83 100 130 83 100 130 83 100 130 83 143 187 119 143 187 119 100 130 83 100 130 83 100 130 83 100 130 83 100 130 83 108 140 88 143 187 119 108 140 88 108 140 88 108 140 88 108 140 88 108 140 88 108 140 88 108 140 88 108 140 88 123 150 100 123 150 100 123 150 100 176 215 143 176 215 143 176 215 143 176 215 143 216 224 164 151 156 114 123 150 100 151 156 114 151 156 114 170 163 145 170 163 145 170 163 145 170 163 145 170 163 145 151 156 114 170 163 145 170 163 145 170 163 145 170 163 145 170 163 145 170 163 145 170 163 145 216 224 164 216 224 164 151 156 114 151 156 114 123 150 100 123 150 100 123 150 100 123 150 100 108 140 88 108 140 88 108 140 88 108 140 88 108 140 88 108 140 88 108 140 88 143 187 119 143 187 119 143 187 119 154 190 126 154 190 126 107 133 88 166 192 134 175 195 141 175 195 141 185 199 146 129 139 102 129 139 102 185 199 146 185 199 150 129 139 105 129 139 105 136 144 112 205 215 171 143 150 119 215 222 176 150 155 123 150 155 123 224 228 180 224 228 180 224 228 180 224 228 180 224 228 180 163 161 130 234 231 186 234 231 186 234 231 186 234 231 186 234 231 186 234 231 186 163 161 130 156 159 126 224 228 180 156 159 126 224 228 180 224 228 180 224 228 180 156 159 126 156 159 126 215 222 176 150 155 123 215 222 176 215 222 176 215 222 176 215 222 176 150 155 123 224 228 180 150 155 123 215 222 176 215 222 176 215 222 176 150 155 123 215 222 176 215 222 176 215 222 176 150 155 123 143 150 119 143 150 119 215 222 176 150 155 123 215 222 176 215 222 176 215 222 176 156 159 126 156 159 126 150 155 123 150 155 123 224 228 180 215 222 176 150 155 123 150 155 123 150 155 123 150 155 123 143 150 119 143 150 119 143 150 119 205 215 171 143 150 119 143 150 119 143 150 119 136 144 112 136 144 112 129 139 105 136 144 112 129 139 105 129 139 105 129 139 105 129 139 105 129 139 102 122 136 98 116 134 93 116 134 93 116 134 93 107 133 88 107 133 88 107 133 88 107 133 88 107 133 88 107 133 88 100 130 83 100 130 83 100 130 83 100 130 83 108 140 88 155 200 126 108 140 88 123 150 100 123 150 100 123 150 100 123 150 100 151 156 114 151 156 114 151 156 114 170 163 145 170 163 145 170 163 145 243 234 208 170 163 145 243 234 208 243 234 208 243 234 208 243 234 208 243 234 208 243 234 208 243 234 208 154 168 161 154 168 161 221 240 230 208 240 255 208 240 255 208 240 255 208 240 255 186 234 255 186 234 255 174 227 255 174 227 255 116 156 172 166 224 247 166 224 247 116 156 172 159 221 240 159 221 240 159 221 240 159 221 240 159 221 240 151 214 239 151 214 239 151 214 239 100 142 166 100 142 166 100 142 166 96 138 171 96 138 171 96 138 171 138 198 245 96 138 171 91 135 168 96 138 171 130 194 240 130 194 240 130 194 240 130 194 240 130 194 240 130 194 240 130 194 240 122 190 238 122 190 238 122 190 238 122 190 238 80 128 164 115 184 235

166 192 134 116 134 93 107 133 88 107 133 88 107 133 88 100 130 83 107 133 88 154 190 126 154 190 126 100 130 83 154 190 126 100 130 83 100 130 83 100 130 83 100 130 83 100 130 83 143 187 119 100 130 83 100 130 83 108 140 88 108 140 88 108 140 88 100 130 83 143 187 119 143 187 119 143 187 119 100 130 83 100 130 83 100 130 83 100 130 83 100 130 83 108 140 88 100 130 83 108 140 88 108 140 88 123 150 100 123 150 100 123 150 100 155 200 126 108 140 88 108 140 88 155 200 126 123 150 100 123 150 100 176 215 143 151 156 114 123 150 100 151 156 114 176 215 143 176 215 143 176 215 143 151 156 114 151 156 114 151 156 114 216 224 164 243 234 208 170 163 145 170 163 145 170 163 145 170 163 145 170 163 145 170 163 145 154 168 161 170 163 145 154 168 161 154 168 161 154 168 161 243 234 208 216 224 164 216 224 164 151 156 114 216 224 164 176 215 143 176 215 143 123 150 100 176 215 143 155 200 126 123 150 100 123 150 100 123 150 100 123 150 100 155 200 126 143 187 119 143 187 119 143 187 119 154 190 126 107 133 88 107 133 88 166 192 134 166 192 134 175 195 141 175 195 141 185 199 146 185 199 146 129 139 102 185 199 150 185 199 150 185 199 150 195 206 160 195 206 160 205 215 171 205 215 171 143 150 119 215 222 176 224 228 180 156 159 126 156 159 126 224 228 180 156 159 126 234 231 186 234 231 186 234 231 186 234 231 186 234 231 186 234 231 186 163 161 130 163 161 130 234 231 186 156 159 126 156 159 126 224 228 180 224 228 180 224 228 180 224 228 180 224 228 180 224 228 180 224 228 180 215 222 176 150 155 123 215 222 176 215 222 176 215 222 176 224 228 180 224 228 180 224 228 180 150 155 123 215 222 176 150 155 123 215 222 176 150 155 123 150 155 123 150 155 123 143 150 119 143 150 119 215 222 176 215 222 176 215 222 176 215 222 176 215 222 176 215 222 176 150 155 123 150 155 123 150 155 123 150 155 123 150 155 123 150 155 123 143 150 119 143 150 119 215 222 176 143 150 119 143 150 119 143 150 119 143 150 119 136 144 112 136 144 112 136 144 112 129 139 105 129 139 105 129 139 105 129 139 105 129 139 105 129 139 105 129 139 105 129 139 102 122 136 98 122 136 98 116 134 93 116 134 93 107 133 88 107 133 88 107 133 88 107 133 88 107 133 88 100 130 83 100 130 83 100 130 83 100 130 83 108 140 88 108 140 88 108 140 88 108 140 88 108 140 88 123 150 100 123 150 100 123 150 100 151 156 114 151 156 114 151 156 114 170 163 145 170 163 145 170 163 145 170 163 145 170 163 145 170 163 145 216 224 164 216 224 164 216 224 164 216 224 164 216 224 164 243 234 208 243 234 208 154 168 161 243 234 208 221 240 230 221 240 230 221 240 230 221 240 230 208 240 255 208 240 255 186 234 255 130 163 178 174 227 255 121 158 178 166 224 247 166 224 247 116 156 172 166 224 247 166 224 247 159 221 240 159 221 240 159 221 240 159 221 240 159 221 240 151 214 239 100 142 166 144 204 238 100 142 166 96 138 171 96 138 171 91 135 168 91 135 168 91 135 168 138 198 245 138 198 245 138 198 245 130 194 240 91 135 168 130 194 240 138 198 245 91 135 168 85 133 166 85 133 166 122 190 238 122 190 238 85 133 166 85 133 166 115 184 235

154 190 126 107 133 88 107 133 88 100 130 83 100 130 83 100 130 83 100 130 83 154 190 126 100 130 83 100 130 83 143 187 119 100 130 83 108 140 88 108 140 88 108 140 88 108 140 88 100 130 83 108 140 88 108 140 88 108 140 88 155 200 126 108 140 88 155 200 126 100 130 83 108 140 88 100 130 83 100 130 83 100 130 83 108 140 88 108 140 88 108 140 88 108 140 88 108 140 88 108 140 88 123 150 100 123 150 100 123 150 100 176 215 143 176 215 143 108 140 88 123 150 100 123 150 100 123 150 100 123 150 100 123 150 100 151 156 114 176 215 143 151 156 114 216 224 164 123 150 100 151 156 114 151 156 114 151 156 114 170 163 145 170 163 145 170 163 145 170 163 145 243 234 208 243 234 208 243 234 208 170 163 145 170 163 145 170 163 145 154 168 161 154 168 161 154 168 161 221 240 230 243 234 208 243 234 208 216 224 164 216 224 164 176 215 143 176 215 143 123 150 100 123 150 100 176 215 143 123 150 100 123 150 100 123 150 100 123 150 100 155 200 126 155 200 126 155 200 126 143 187 119 143 187 119 154 190 126 154 190 126 154 190 126 154 190 126 166 192 134 175 195 141 175 195 141 175 195 141 122 136 98 185 199 146 185 199 146 185 199 150 185 199 150 195 206 160 195 206 160 195 206 160 143 150 119 205 215 171 143 150 119 150 155 123 150 155 123 150 155 123 224 228 180 156 159 126 224 228 180 234 231 186 234 231 186 234 231 186 234 231 186 234 231 186 163 161 130 163 161 130 163 161 130 156 159 126 224 228 180 224 228 180 224 228 180 156 159 126 224 228 180 224 228 180 156 159 126 224 228 180 224 228 180 224 228 180 215 222 176 224 228 180 224 228 180 224 228 180 156 159 126 150 155 123 150 155 123 215 222 176 150 155 123 215 222 176 215 222 176 215 222 176 215 222 176 215 222 176 205 215 171 215 222 176 215 222 176 215 222 176 150 155 123 215 222 176 150 155 123 215 222 176 215 222 176 150 155 123 150 155 123 150 155 123 150 155 123 215 222 176 205 215 171 143 150 119 143 150 119 143 150 119 205 215 171 143 150 119 143 150 119 195 206 160 136 144 112 136 144 112 129 139 105 129 139 105 129 139 102 129 139 102 129 139 102 129 139 102 122 136 98 122 136 98 116 134 93 116 134 93 116 134 93 107 133 88 107 133 88 107 133 88 107 133 88 100 130 83 100 130 83 108 140 88 108 140 88 108 140 88 108 140 88 123 150 100 123 150 100 123 150 100 123 150 100 123 150 100 151 156 114 151 156 114 151 156 114 170 163 145 170 163 145 170 163 145 170 163 145 170 163 145 243 234 208 243 234 208 243 234 208 243 234 208 170 163 145 170 163 145 151 156 114 216 224 164 170 163 145 243 234 208 170 163 145 243 234 208 154 168 161 243 234 208 221 240 230 221 240 230 221 240 230 145 168 178 145 168 178 130 163 178 121 158 178 121 158 178 174 227 255 174 227 255 116 156 172 166 224 247 166 224 247 166 224 247 159 221 240 111 154 168 159 221 240 159 221 240 105 149 167 100 142 166 100 142 166 100 142 166 96 138 171 96 138 171 138 198 245 138 198 245 138 198 245 138 198 245 138 198 245 96 138 171 138 198 245 138 198 245 130 194 240 138 198 245 91 135 168 85 133 166 122 190 238 122 190 238 122 190 238 85 133 166 85 133 166 80 128 164

154 190 126 100 130 83 100 130 83 100 130 83 100 130 83 100 130 83 143 187 119 143 187 119 100 130 83 100 130 83 100 130 83 108 140 88 108 140 88 108 140 88 108 140 88 123 150 100 108 140 88 108 140 88 108 140 88 108 140 88 155 200 126 108 140 88 108 140 88 108 140 88 108 140 88 143 187 119 143 187 119 143 187 119 100 130 83 108 140 88 108 140 88 108 140 88 123 150 100 123 150 100 123 150 100 123 150 100 176 215 143 176 215 143 155 200 126 123 150 100 123 150 100 123 150 100 176 215 143 176 215 143 151 156 114 151 156 114 216 224 164 151 156 114 216 224 164 151 156 114 151 156 114 170 163 145 170 163 145 170 163 145 170 163 145 170 163 145 243 234 208 170 163 145 243 234 208 243 234 208 243 234 208 154 168 161 154 168 161 154 168 161 221 240 230 154 168 161 221 240 230 221 240 230 243 234 208 243 234 208 216 224 164 176 215 143 176 215 143 151 156 114 176 215 143 176 215 143 176 215 143 176 215 143 123 150 100 176 215 143 176 215 143 155 200 126 155 200 126 143 187 119 143 187 119 143 187 119 154 190 126 154 190 126 154 190 126 166 192 134 175 195 141 175 195 141 122 136 98 175 195 141 185 199 146 185 199 146 185 199 146 129 139 105 185 199 150 195 206 160 195 206 160 136 144 112 205 215 171 143 150 119 205 215 171 143 150 119 150 155 123 215 222 176 224 228 180 224 228 180 234 231 186 234 231 186 234 231 186 240 235 191 240 235 191 163 161 130 163 161 130 234 231 186 234 231 186 224 228 180 156 159 126 224 228 180 224 228 180 224 228 180 224 228 180 156 159 126 224 228 180 156 159 126 224 228 180 224 228 180 224 228 180 224 228 180 224 228 180 156 159 126 224 228 180 150 155 123 150 155 123 215 222 176 215 222 176 150 155 123 215 222 176 150 155 123 150 155 123 215 222 176 215 222 176 215 222 176 215 222 176 150 155 123 215 222 176 215 222 176 224 228 180 150 155 123 150 155 123 215 222 176 215 222 176 143 150 119 143 150 119 143 150 119 143 150 119 143 150 119 143 150 119 136 144 112 136 144 112 136 144 112 136 144 112 136 144 112 129 139 105 129 139 105 129 139 102 129 139 102 129 139 102 122 136 98 122 136 98 122 136 98 122 136 98 116 134 93 116 134 93 116 134 93 107 133 88 107 133 88 100 130 83 154 190 126 154 190 126 100 130 83 108 140 88 108 140 88 108 140 88 123 150 100 123 150 100 123 150 100 123 150 100 151 156 114 151 156 114 151 156 114 151 156 114 170 163 145 170 163 145 170 163 145 243 234 208 243 234 208 154 168 161 154 168 161 170 163 145 243 234 208 243 234 208 243 234 208 170 163 145 243 234 208 170 163 145 170 163 145 216 224 164 170 163 145 243 234 208 243 234 208 243 234 208 243 234 208 221 240 230 154 168 161 145 168 178 208 240 255 130 163 178 130 163 178 186 234 255 174 227 255 174 227 255 116 156 172 174 227 255 116 156 172 166 224 247 166 224 247 166 224 247 159 221 240 111 154 168 105 149 167 151 214 239 151 214 239 100 142 166 96 138 171 144 204 238 144 204 238 138 198 245 138 198 245 138 198 245 138 198 245 138 198 245 138 198 245 138 198 245 138 198 245 138 198 245 91 135 168 91 135 168 130 194 240 85 133 166 122 190 238 122 190 238 122 190 238 122 190 238

143 187 119 100 130 83 100 130 83 100 130 83 108 140 88 100 130 83 100 130 83 100 130 83 108 140 88 108 140 88 108 140 88 108 140 88 108 140 88 108 140 88 108 140 88 123 150 100 123 150 100 123 150 100 123 150 100 123 150 100 155 200 126 108 140 88 123 150 100 155 200 126 155 200 126 108 140 88 108 140 88 108 140 88 108 140 88 108 140 88 123 150 100 123 150 100 123 150 100 151 156 114 151 156 114 176 215 143 176 215 143 123 150 100 123 150 100 123 150 100 176 215 143 123 150 100 123 150 100 123 150 100 151 156 114 176 215 143 216 224 164 151 156 114 151 156 114 170 163 145 170 163 145 170 163 145 170 163 145 170 163 145 170 163 145 243 234 208 243 234 208 170 163 145 154 168 161 154 168 161 170 163 145 154 168 161 154 168 161 154 168 161 145 168 178 154 168 161 221 240 230 243 234 208 243 234 208 243 234 208 216 224 164 216 224 164 176 215 143 176 215 143 216 224 164 176 215 143 123 150 100 151 156 114 123 150 100 151 156 114 176 215 143 176 215 143 155 200 126 143 187 119 143 187 119 154 190 126 154 190 126 154 190 126 154 190 126 166 192 134 166 192 134 116 134 93 175 195 141 175 195 141 185 199 146 129 139 102 185 199 146 185 199 146 185 199 150 185 199 150 129 139 105 129 139 105 195 206 160 136 144 112 136 144 112 143 150 119 205 215 171 215 222 176 224 228 180 224 228 180 224 228 180 234 231 186 240 235 191 234 231 186 163 161 130 163 161 130 234 231 186 234 231 186 156 159 126 156 159 126 156 159 126 224 228 180 234 231 186 224 228 180 224 228 180 156 159 126 156 159 126 224 228 180 224 228 180 234 231 186 234 231 186 234 231 186 234 231 186 156 159 126 224 228 180 150 155 123 215 222 176 215 222 176 215 222 176 215 222 176 224 228 180 224 228 180 224 228 180 215 222 176 215 222 176 215 222 176 215 222 176 215 222 176 224 228 180 224 228 180 215 222 176 150 155 123 150 155 123 215 222 176 215 222 176 150 155 123 205 215 171 205 215 171 143 150 119 143 150 119 136 144 112 143 150 119 136 144 112 195 206 160 136 144 112 136 144 112 129 139 105 129 139 105 129 139 102 129 139 102 129 139 102 122 136 98 122 136 98 116 134 93 116 134 93 116 134 93 107 133 88 107 133 88 107 133 88 107 133 88 154 190 126 100 130 83 100 130 83 100 130 83 108 140 88 108 140 88 123 150 100 123 150 100 176 215 143 123 150 100 123 150 100 151 156 114 151 156 114 151 156 114 151 156 114 170 163 145 170 163 145 243 234 208 170 163 145 154 168 161 154 168 161 243 234 208 243 234 208 243 234 208 243 234 208 243 234 208 216 224 164 243 234 208 216 224 164 216 224 164 216 224 164 170 163 145 243 234 208 243 234 208 243 234 208 170 163 145 243 234 208 154 168 161 154 168 161 145 168 178 145 168 178 208 240 255 186 234 255 186 234 255 186 234 255 174 227 255 174 227 255 116 156 172 116 156 172 116 156 172 111 154 168 111 154 168 105 149 167 105 149 167 105 149 167 105 149 167 100 142 166 100 142 166 138 198 245 144 204 238 96 138 171 96 138 171 138 198 245 96 138 171 96 138 171 96 138 171 138 198 245 96 138 171 96 138 171 91 135 168 91 135 168 85 133 166 85 133 166 122 190 238 85 133 166 122 190 238 122 190 238

143 187 119 100 130 83 100 130 83 108 140 88 108 140 88 108 140 88 108 140 88 108 140 88 108 140 88 108 140 88 108 140 88 108 140 88 123 150 100 123 150 100 123 150 100 123 150 100 151 156 114 176 215 143 123 150 100 123 150 100 155 200 126 108 140 88 123 150 100 155 200 126 155 200 126 108 140 88 108 140 88 108 140 88 108 140 88 123 150 100 123 150 100 151 156 114 151 156 114 151 156 114 151 156 114 216 224 164 176 215 143 176 215 143 176 215 143 176 215 143 123 150 100 151 156 114 151 156 114 151 156 114 176 215 143 151 156 114 151 156 114 170 163 145 170 163 145 170 163 145 170 163 145 170 163 145 170 163 145 154 168 161 243 234 208 243 234 208 216 224 164 170 163 145 154 168 161 154 168 161 154 168 161 154 168 161 154 168 161 145 168 178 145 168 178 208 240 255 221 240 230 221 240 230 154 168 161 243 234 208 243 234 208 216 224 164 176 215 143 151 156 114 151 156 114 176 215 143 151 156 114 151 156 114 216 224 164 151 156 114 176 215 143 176 215 143 155 200 126 143 187 119 143 187 119 143 187 119 100 130 83 107 133 88 154 190 126 166 192 134 166 192 134 166 192 134 175 195 141 175 195 141 175 195 141 185 199 146 185 199 146 185 199 146 185 199 146 185 199 150 129 139 102 129 139 105 185 199 150 136 144 112 136 144 112 205 215 171 205 215 171 215 222 176 224 228 180 156 159 126 224 228 180 234 231 186 240 235 191 163 161 130 163 161 130 163 161 130 234 231 186 163 161 130 234 231 186 234 231 186 224 228 180 224 228 180 234 231 186 156 159 126 234 231 186 224 228 180 156 159 126 224 228 180 224 228 180 156 159 126 234 231 186 234 231 186 234 231 186 156 159 126 224 228 180 156 159 126 224 228 180 215 222 176 215 222 176 224 228 180 224 228 180 224 228 180 224 228 180 150 155 123 224 228 180 224 228 180 224 228 180 224 228 180 224 228 180 224 228 180 156 159 126 150 155 123 150 155 123 215 222 176 215 222 176 150 155 123 215 222 176 215 222 176 215 222 176 205 215 171 205 215 171 205 215 171 136 144 112 195 206 160 136 144 112 136 144 112 129 139 105 129 139 105 129 139 102 129 139 102 185 199 146 122 136 98 122 136 98 116 134 93 116 134 93 166 192 134 116 134 93 107 133 88 107 133 88 107 133 88 154 190 126 100 130 83 108 140 88 108 140 88 108 140 88 123 150 100 123 150 100 151 156 114 123 150 100 151 156 114 151 156 114 151 156 114 151 156 114 170 163 145 170 163 145 170 163 145 170 163 145 243 234 208 154 168 161 154 168 161 154 168 161 221 240 230 243 234 208 243 234 208 216 224 164 216 224 164 216 224 164 170 163 145 216 224 164 216 224 164 216 224 164 216 224 164 216 224 164 216 224 164 170 163 145 170 163 145 243 234 208 243 234 208 221 240 230 221 240 230 208 240 255 208 240 255 208 240 255 186 234 255 186 234 255 121 158 178 121 158 178 116 156 172 116 156 172 116 156 172 111 154 168 159 221 240 111 154 168 151 214 239 151 214 239 105 149 167 100 142 166 144 204 238 144 204 238 144 204 238 96 138 171 138 198 245 138 198 245 138 198 245 138 198 245 138 198 245 138 198 245 138 198 245 138 198 245 138 198 245 91 135 168 91 135 168 130 194 240 130 194 240 130 194 240 130 194 240 130 194 240

143 187 119 108 140 88 108 140 88 108 140 88 123 150 100 123 150 100 108 140 88 108 140 88 108 140 88 108 140 88 108 140 88 123 150 100 123 150 100 123 150 100 123 150 100 123 150 100 176 215 143 176 215 143 176 215 143 123 150 100 176 215 143 123 150 100 123 150 100 155 200 126 108 140 88 108 140 88 155 200 126 108 140 88 123 150 100 123 150 100 123 150 100 151 156 114 151 156 114 216 224 164 216 224 164 216 224 164 216 224 164 123 150 100 151 156 114 123 150 100 151 156 114 151 156 114 151 156 114 151 156 114 151 156 114 151 156 114 170 163 145 170 163 145 170 163 145 170 163 145 170 163 145 170 163 145 154 168 161 154 168 161 243 234 208 170 163 145 154 168 161 154 168 161 154 168 161 154 168 161 145 168 178 154 168 161 145 168 178 145 168 178 208 240 255 208 240 255 221 240 230 154 168 161 154 168 161 154 168 161 243 234 208 170 163 145 216 224 164 151 156 114 151 156 114 151 156 114 151 156 114 151 156 114 151 156 114 176 215 143 176 215 143 155 200 126 155 200 126 143 187 119 143 187 119 143 187 119 100 130 83 154 190 126 154 190 126 107 133 88 107 133 88 166 192 134 166 192 134 122 136 98 122 136 98 175 195 141 185 199 146 129 139 102 129 139 102 129 139 102 129 139 102 185 199 146 129 139 102 129 139 105 136 144 112 195 206 160 205 215 171 215 222 176 224 228 180 224 228 180 234 231 186 234 231 186 234 231 186 163 161 130 163 161 130 163 161 130 163 161 130 163 161 130 156 159 126 156 159 126 156 159 126 224 228 180 234 231 186 234 231 186 234 231 186 156 159 126 156 159 126 224 228 180 224 228 180 156 159 126 224 228 180 234 231 186 156 159 126 156 159 126 156 159 126 224 228 180 224 228 180 224 228 180 224 228 180 224 228 180 224 228 180 156 159 126 156 159 126 224 228 180 224 228 180 224 228 180 224 228 180 224 228 180 224 228 180 156 159 126 150 155 123 150 155 123 150 155 123 150 155 123 215 222 176 150 155 123 150 155 123 143 150 119 143 150 119 143 150 119 143 150 119 205 215 171 136 144 112 195 206 160 136 144 112 136 144 112 136 144 112 129 139 105 129 139 105 129 139 102 129 139 102 129 139 102 122 136 98 116 134 93 116 134 93 166 192 134 166 192 134 107 133 88 107 133 88 107 133 88 100 130 83 100 130 83 108 140 88 108 140 88 108 140 88 108 140 88 123 150 100 151 156 114 151 156 114 151 156 114 151 156 114 151 156 114 170 163 145 170 163 145 170 163 145 243 234 208 170 163 145 243 234 208 154 168 161 243 234 208 243 234 208 243 234 208 243 234 208 243 234 208 243 234 208 216 224 164 216 224 164 170 163 145 170 163 145 170 163 145 170 163 145 170 163 145 216 224 164 170 163 145 170 163 145 243 234 208 243 234 208 154 168 161 154 168 161 154 168 161 145 168 178 145 168 178 130 163 178 130 163 178 186 234 255 130 163 178 121 158 178 174 227 255 174 227 255 166 224 247 166 224 247 166 224 247 159 221 240 159 221 240 105 149 167 105 149 167 151 214 239 100 142 166 144 204 238 144 204 238 144 204 238 144 204 238 138 198 245 138 198 245 138 198 245 144 204 238 138 198 245 138 198 245 96 138 171 96 138 171 91 135 168 130 194 240 130 194 240 130 194 240 130 194 240 130 194 240 130 194 240

143 187 119 108 140 88 108 140 88 123 150 100 123 150 100 123 150 100 176 215 143 155 200 126 155 200 126 108 140 88 123 150 100 123 150 100 123 150 100 123 150 100 176 215 143 176 215 143 176 215 143 176 215 143 176 215 143 123 150 100 123 150 100 123 150 100 123 150 100 176 215 143 123 150 100 123 150 100 123 150 100 123 150 100 123 150 100 123 150 100 151 156 114 151 156 114 151 156 114 151 156 114 151 156 114 216 224 164 151 156 114 151 156 114 151 156 114 151 156 114 151 156 114 170 163 145 151 156 114 170 163 145 170 163 145 170 163 145 170 163 145 154 168 161 154 168 161 170 163 145 243 234 208 170 163 145 243 234 208 221 240 230 154 168 161 154 168 161 154 168 161 154 168 161 154 168 161 145 168 178 145 168 178 145 168 178 145 168 178 145 168 178 145 168 178 145 168 178 221 240 230 154 168 161 221 240 230 221 240 230 243 234 208 243 234 208 216 224 164 151 156 114 151 156 114 151 156 114 151 156 114 216 224 164 216 224 164 176 215 143 155 200 126 155 200 126 155 200 126 155 200 126 143 187 119 100 130 83 143 187 119 143 187 119 107 133 88 107 133 88 154 190 126 166 192 134 166 192 134 166 192 134 175 195 141 175 195 141 122 136 98 185 199 146 185 199 146 129 139 102 129 139 102 129 139 102 129 139 102 185 199 150 185 199 150 195 206 160 205 215 171 205 215 171 224 228 180 224 228 180 234 231 186 234 231 186 234 231 186 163 161 130 163 161 130 234 231 186 234 231 186 156 159 126 156 159 126 224 228 180 156 159 126 156 159 126 234 231 186 156 159 126 163 161 130 156 159 126 156 159 126 224 228 180 224 228 180 156 159 126 224 228 180 156 159 126 156 159 126 156 159 126 224 228 180 224 228 180 224 228 180 224 228 180 224 228 180 224 228 180 234 231 186 224 228 180 224 228 180 224 228 180 224 228 180 224 228 180 224 228 180 224 228 180 224 228 180 156 159 126 150 155 123 215 222 176 143 150 119 150 155 123 215 222 176 150 155 123 215 222 176 143 150 119 143 150 119 143 150 119 205 215 171 205 215 171 205 215 171 205 215 171 205 215 171 136 144 112 195 206 160 129 139 105 129 139 105 129 139 102 185 199 146 122 136 98 122 136 98 122 136 98 116 134 93 166 192 134 166 192 134 107 133 88 107 133 88 107 133 88 100 130 83 108 140 88 108 140 88 108 140 88 108 140 88 123 150 100 123 150 100 151 156 114 151 156 114 151 156 114 151 156 114 170 163 145 170 163 145 170 163 145 243 234 208 170 163 145 243 234 208 243 234 208 243 234 208 243 234 208 243 234 208 243 234 208 243 234 208 170 163 145 170 163 145 170 163 145 170 163 145 170 163 145 170 163 145 243 234 208 243 234 208 216 224 164 216 224 164 170 163 145 170 163 145 170 163 145 170 163 145 154 168 161 154 168 161 154 168 161 221 240 230 145 168 178 145 168 178 208 240 255 130 163 178 130 163 178 121 158 178 174 227 255 174 227 255 174 227 255 174 227 255 166 224 247 166 224 247 111 154 168 111 154 168 151 214 239 151 214 239 105 149 167 151 214 239 100 142 166 144 204 238 144 204 238 100 142 166 144 204 238 144 204 238 144 204 238 96 138 171 138 198 245 96 138 171 96 138 171 91 135 168 91 135 168 130 194 240 130 194 240 130 194 240 130 194 240 130 194 240

155 200 126 108 140 88 108 140 88 123 150 100 123 150 100 155 200 126 176 215 143 155 200 126 155 200 126 108 140 88 123 150 100 176 215 143 123 150 100 176 215 143 176 215 143 176 215 143 155 200 126 123 150 100 176 215 143 176 215 143 176 215 143 176 215 143 123 150 100 123 150 100 123 150 100 176 215 143 123 150 100 123 150 100 123 150 100 151 156 114 151 156 114 151 156 114 151 156 114 170 163 145 170 163 145 216 224 164 151 156 114 151 156 114 151 156 114 151 156 114 151 156 114 170 163 145 243 234 208 170 163 145 170 163 145 170 163 145 170 163 145 154 168 161 243 234 208 243 234 208 243 234 208 170 163 145 243 234 208 154 168 161 154 168 161 154 168 161 154 168 161 154 168 161 145 168 178 145 168 178 145 168 178 145 168 178 145 168 178 145 168 178 130 163 178 208 240 255 208 240 255 221 240 230 221 240 230 221 240 230 221 240 230 154 168 161 243 234 208 170 163 145 170 163 145 170 163 145 216 224 164 216 224 164 176 215 143 176 215 143 176 215 143 155 200 126 155 200 126 155 200 126 155 200 126 100 130 83 143 187 119 100 130 83 154 190 126 154 190 126 154 190 126 166 192 134 107 133 88 166 192 134 116 134 93 175 195 141 175 195 141 175 195 141 129 139 102 122 136 98 122 136 98 185 199 146 185 199 146 185 199 150 185 199 150 195 206 160 205 215 171 205 215 171 215 222 176 224 228 180 224 228 180 156 159 126 234 231 186 163 161 130 156 159 126 234 231 186 156 159 126 156 159 126 156 159 126 156 159 126 156 159 126 224 228 180 224 228 180 156 159 126 156 159 126 156 159 126 224 228 180 156 159 126 224 228 180 224 228 180 156 159 126 156 159 126 224 228 180 156 159 126 156 159 126 224 228 180 224 228 180 234 231 186 224 228 180 234 231 186 234 231 186 234 231 186 224 228 180 234 231 186 224 228 180 224 228 180 224 228 180 224 228 180 156 159 126 156 159 126 150 155 123 150 155 123 143 150 119 205 215 171 143 150 119 150 155 123 143 150 119 143 150 119 143 150 119 205 215 171 205 215 171 143 150 119 136 144 112 205 215 171 136 144 112 136 144 112 195 206 160 136 144 112 129 139 105 185 199 150 185 199 146 129 139 102 122 136 98 122 136 98 116 134 93 116 134 93 107 133 88 107 133 88 107 133 88 100 130 83 100 130 83 108 140 88 123 150 100 123 150 100 123 150 100 123 150 100 151 156 114 151 156 114 151 156 114 151 156 114 170 163 145 170 163 145 243 234 208 243 234 208 243 234 208 170 163 145 243 234 208 170 163 145 170 163 145 243 234 208 243 234 208 243 234 208 170 163 145 170 163 145 170 163 145 170 163 145 170 163 145 170 163 145 243 234 208 243 234 208 170 163 145 170 163 145 170 163 145 170 163 145 243 234 208 170 163 145 170 163 145 154 168 161 221 240 230 154 168 161 154 168 161 145 168 178 208 240 255 208 240 255 130 163 178 186 234 255 186 234 255 186 234 255 174 227 255 121 158 178 174 227 255 116 156 172 166 224 247 166 224 247 159 221 240 111 154 168 151 214 239 151 214 239 151 214 239 105 149 167 144 204 238 100 142 166 100 142 166 144 204 238 144 204 238 100 142 166 96 138 171 96 138 171 96 138 171 96 138 171 91 135 168 130 194 240 130 194 240 91 135 168 130 194 240 91 135 168 130 194 240

155 200 126 108 140 88 123 150 100 123 150 100 176 215 143 176 215 143 155 200 126 155 200 126 155 200 126 155 200 126 155 200 126 155 200 126 123 150 100 176 215 143 155 200 126 176 215 143 155 200 126 123 150 100 176 215 143 176 215 143 123 150 100 123 150 100 123 150 100 176 215 143 123 150 100 176 215 143 176 215 143 176 215 143 176 215 143 151 156 114 151 156 114 151 156 114 170 163 145 170 163 145 243 234 208 243 234 208 216 224 164 151 156 114 170 163 145 170 163 145 170 163 145 170 163 145 170 163 145 170 163 145 243 234 208 170 163 145 154 168 161 154 168 161 221 240 230 154 168 161 154 168 161 154 168 161 170 163 145 154 168 161 154 168 161 221 240 230 221 240 230 145 168 178 145 168 178 130 163 178 145 168 178 208 240 255 208 240 255 130 163 178 130 163 178 186 234 255 208 240 255 221 240 230 221 240 230 221 240 230 154 168 161 154 168 161 154 168 161 243 234 208 243 234 208 216 224 164 216 224 164 216 224 164 176 215 143 176 215 143 155 200 126 155 200 126 155 200 126 155 200 126 143 187 119 108 140 88 143 187 119 143 187 119 154 190 126 154 190 126 154 190 126 154 190 126 107 133 88 154 190 126 166 192 134 175 195 141 175 195 141 175 195 141 122 136 98 122 136 98 175 195 141 175 195 141 185 199 146 185 199 150 185 199 150 195 206 160 205 215 171 205 215 171 205 215 171 215 222 176 224 228 180 156 159 126 234 231 186 156 159 126 156 159 126 156 159 126 156 159 126 156 159 126 224 228 180 224 228 180 224 228 180 156 159 126 156 159 126 156 159 126 224 228 180 156 159 126 156 159 126 156 159 126 224 228 180 156 159 126 224 228 180 224 228 180 234 231 186 224 228 180 224 228 180 234 231 186 224 228 180 234 231 186 234 231 186 234 231 186 234 231 186 234 231 186 234 231 186 234 231 186 234 231 186 156 159 126 224 228 180 156 159 126 156 159 126 224 228 180 150 155 123 150 155 123 150 155 123 205 215 171 215 222 176 143 150 119 143 150 119 143 150 119 143 150 119 205 215 171 205 215 171 205 215 171 205 215 171 136 144 112 136 144 112 136 144 112 195 206 160 136 144 112 129 139 105 129 139 105 129 139 105 129 139 102 129 139 102 122 136 98 116 134 93 116 134 93 107 133 88 107 133 88 100 130 83 100 130 83 108 140 88 108 140 88 123 150 100 123 150 100 123 150 100 151 156 114 151 156 114 151 156 114 151 156 114 170 163 145 170 163 145 170 163 145 243 234 208 170 163 145 170 163 145 243 234 208 243 234 208 170 163 145 243 234 208 243 234 208 170 163 145 243 234 208 170 163 145 154 168 161 154 168 161 154 168 161 154 168 161 243 234 208 243 234 208 170 163 145 170 163 145 243 234 208 243 234 208 170 163 145 243 234 208 170 163 145 170 163 145 243 234 208 154 168 161 154 168 161 154 168 161 221 240 230 221 240 230 208 240 255 208 240 255 208 240 255 186 234 255 130 163 178 186 234 255 121 158 178 174 227 255 174 227 255 174 227 255 166 224 247 116 156 172 111 154 168 159 221 240 159 221 240 151 214 239 105 149 167 100 142 166 151 214 239 151 214 239 151 214 239 151 214 239 144 204 238 96 138 171 96 138 171 96 138 171 138 198 245 138 198 245 138 198 245 130 194 240 130 194 240 138 198 245 138 198 245 138 198 245

155 200 126 123 150 100 123 150 100 176 215 143 123 150 100 123 150 100 155 200 126 155 200 126 123 150 100 108 140 88 108 140 88 108 140 88 123 150 100 176 215 143 176 215 143 155 200 126 123 150 100 123 150 100 123 150 100 123 150 100 123 150 100 123 150 100 176 215 143 176 215 143 123 150 100 176 215 143 176 215 143 123 150 100 123 150 100 151 156 114 170 163 145 170 163 145 170 163 145 170 163 145 170 163 145 170 163 145 170 163 145 170 163 145 170 163 145 170 163 145 154 168 161 170 163 145 170 163 145 170 163 145 243 234 208 154 168 161 154 168 161 154 168 161 154 168 161 154 168 161 154 168 161 154 168 161 221 240 230 154 168 161 154 168 161 154 168 161 145 168 178 145 168 178 145 168 178 145 168 178 186 234 255 130 163 178 130 163 178 130 163 178 130 163 178 208 240 255 208 240 255 208 240 255 145 168 178 145 168 178 154 168 161 154 168 161 154 168 161 221 240 230 243 234 208 216 224 164 216 224 164 176 215 143 176 215 143 176 215 143 176 215 143 155 200 126 108 140 88 155 200 126 155 200 126 108 140 88 155 200 126 143 187 119 154 190 126 154 190 126 154 190 126 154 190 126 154 190 126 154 190 126 166 192 134 166 192 134 116 134 93 116 134 93 116 134 93 122 136 98 175 195 141 175 195 141 185 199 146 185 199 146 185 199 150 195 206 160 195 206 160 143 150 119 205 215 171 205 215 171 150 155 123 156 159 126 224 228 180 156 159 126 156 159 126 224 228 180 224 228 180 156 159 126 156 159 126 224 228 180 150 155 123 150 155 123 156 159 126 224 228 180 224 228 180 156 159 126 224 228 180 224 228 180 224 228 180 224 228 180 224 228 180 234 231 186 234 231 186 234 231 186 234 231 186 234 231 186 234 231 186 234 231 186 234 231 186 234 231 186 163 161 130 234 231 186 234 231 186 163 161 130 163 161 130 163 161 130 224 228 180 224 228 180 224 228 180 150 155 123 150 155 123 150 155 123 215 222 176 143 150 119 205 215 171 143 150 119 205 215 171 143 150 119 205 215 171 205 215 171 205 215 171 143 150 119 143 150 119 136 144 112 136 144 112 136 144 112 195 206 160 136 144 112 129 139 105 129 139 105 129 139 102 122 136 98 122 136 98 122 136 98 116 134 93 116 134 93 107 133 88 107 133 88 100 130 83 100 130 83 108 140 88 108 140 88 123 150 100 123 150 100 151 156 114 151 156 114 151 156 114 170 163 145 170 163 145 170 163 145 170 163 145 170 163 145 154 168 161 170 163 145 154 168 161 170 163 145 243 234 208 170 163 145 243 234 208 170 163 145 243 234 208 170 163 145 154 168 161 154 168 161 221 240 230 154 168 161 154 168 161 221 240 230 154 168 161 170 163 145 243 234 208 170 163 145 170 163 145 170 163 145 170 163 145 170 163 145 170 163 145 154 168 161 154 168 161 221 240 230 221 240 230 221 240 230 145 168 178 154 168 161 145 168 178 208 240 255 208 240 255 208 240 255 186 234 255 130 163 178 174 227 255 121 158 178 121 158 178 116 156 172 116 156 172 116 156 172 159 221 240 111 154 168 105 149 167 105 149 167 151 214 239 151 214 239 151 214 239 151 214 239 100 142 166 100 142 166 144 204 238 96 138 171 96 138 171 138 198 245 96 138 171 91 135 168 138 198 245 138 198 245 138 198 245 96 138 171 96 138 171

176 215 143 123 150 100 123 150 100 151 156 114 123 150 100 176 215 143 176 215 143 123 150 100 123 150 100 123 150 100 123 150 100 123 150 100 123 150 100 176 215 143 176 215 143 176 215 143 123 150 100 176 215 143 176 215 143 123 150 100 123 150 100 176 215 143 176 215 143 176 215 143 176 215 143 176 215 143 176 215 143 151 156 114 151 156 114 151 156 114 170 163 145 170 163 145 154 168 161 170 163 145 243 234 208 243 234 208 243 234 208 170 163 145 154 168 161 154 168 161 154 168 161 154 168 161 170 163 145 154 168 161 154 168 161 154 168 161 221 240 230 154 168 161 221 240 230 154 168 161 154 168 161 221 240 230 221 240 230 154 168 161 145 168 178 145 168 178 145 168 178 145 168 178 130 163 178 130 163 178 130 163 178 130 163 178 130 163 178 130 163 178 130 163 178 186 234 255 208 240 255 208 240 255 145 168 178 145 168 178 221 240 230 145 168 178 221 240 230 221 240 230 243 234 208 216 224 164 216 224 164 176 215 143 176 215 143 176 215 143 176 215 143 155 200 126 155 200 126 155 200 126 155 200 126 155 200 126 143 187 119 143 187 119 143 187 119 154 190 126 107 133 88 154 190 126 154 190 126 107 133 88 154 190 126 166 192 134 166 192 134 116 134 93 166 192 134 175 195 141 175 195 141 175 195 141 185 199 146 185 199 146 185 199 150 195 206 160 195 206 160 205 215 171 205 215 171 205 215 171 215 222 176 215 222 176 150 155 123 150 155 123 156 159 126 156 159 126 224 228 180 224 228 180 224 228 180 224 228 180 150 155 123 224 228 180 224 228 180 224 228 180 224 228 180 234 231 186 234 231 186 234 231 186 234 231 186 224 228 180 234 231 186 234 231 186 234 231 186 234 231 186 240 235 191 234 231 186 234 231 186 234 231 186 240 235 191 234 231 186 163 161 130 234 231 186 234 231 186 163 161 130 163 161 130 156 159 126 234 231 186 234 231 186 224 228 180 156 159 126 150 155 123 150 155 123 143 150 119 143 150 119 143 150 119 143 150 119 205 215 171 143 150 119 205 215 171 143 150 119 205 215 171 136 144 112 143 150 119 136 144 112 136 144 112 136 144 112 136 144 112 136 144 112 129 139 105 129 139 105 129 139 102 122 136 98 122 136 98 116 134 93 116 134 93 107 133 88 107 133 88 100 130 83 100 130 83 108 140 88 108 140 88 123 150 100 123 150 100 123 150 100 123 150 100 151 156 114 170 163 145 170 163 145 170 163 145 243 234 208 243 234 208 243 234 208 154 168 161 243 234 208 170 163 145 221 240 230 154 168 161 170 163 145 243 234 208 170 163 145 170 163 145 170 163 145 243 234 208 154 168 161 154 168 161 154 168 161 221 240 230 221 240 230 154 168 161 221 240 230 243 234 208 243 234 208 243 234 208 170 163 145 243 234 208 243 234 208 170 163 145 243 234 208 243 234 208 243 234 208 221 240 230 154 168 161 221 240 230 208 240 255 145 168 178 208 240 255 221 240 230 208 240 255 208 240 255 130 163 178 121 158 178 121 158 178 121 158 178 174 227 255 174 227 255 166 224 247 166 224 247 166 224 247 111 154 168 159 221 240 151 214 239 151 214 239 151 214 239 105 149 167 151 214 239 151 214 239 100 142 166 144 204 238 144 204 238 138 198 245 96 138 171 138 198 245 138 198 245 138 198 245 138 198 245 138 198 245 138 198 245

176 215 143 123 150 100 123 150 100 151 156 114 216 224 164 176 215 143 176 215 143 123 150 100 176 215 143 176 215 143 176 215 143 123 150 100 155 200 126 123 150 100 176 215 143 176 215 143 155 200 126 176 215 143 123 150 100 123 150 100 176 215 143 176 215 143 176 215 143 123 150 100 123 150 100 123 150 100 151 156 114 151 156 114 151 156 114 170 163 145 170 163 145 154 168 161 154 168 161 154 168 161 154 168 161 243 234 208 243 234 208 170 163 145 154 168 161 154 168 161 154 168 161 221 240 230 154 168 161 154 168 161 145 168 178 145 168 178 154 168 161 154 168 161 221 240 230 154 168 161 145 168 178 145 168 178 145 168 178 145 168 178 145 168 178 130 163 178 130 163 178 130 163 178 130 163 178 130 163 178 130 163 178 130 163 178 186 234 255 121 158 178 121 158 178 186 234 255 208 240 255 208 240 255 145 168 178 208 240 255 145 168 178 145 168 178 221 240 230 221 240 230 243 234 208 216 224 164 216 224 164 176 215 143 176 215 143 123 150 100 123 150 100 176 215 143 155 200 126 155 200 126 108 140 88 143 187 119 143 187 119 100 130 83 100 130 83 100 130 83 154 190 126 154 190 126 154 190 126 107 133 88 107 133 88 166 192 134 166 192 134 166 192 134 175 195 141 175 195 141 175 195 141 175 195 141 185 199 146 185 199 146 185 199 150 185 199 150 195 206 160 205 215 171 205 215 171 205 215 171 215 222 176 215 222 176 215 222 176 150 155 123 215 222 176 224 228 180 224 228 180 156 159 126 156 159 126 156 159 126 150 155 123 150 155 123 150 155 123 224 228 180 224 228 180 234 231 186 234 231 186 234 231 186 234 231 186 234 231 186 234 231 186 234 231 186 234 231 186 240 235 191 240 235 191 240 235 191 240 235 191 240 235 191 240 235 191 163 161 130 163 161 130 234 231 186 234 231 186 163 161 130 234 231 186 234 231 186 224 228 180 156 159 126 156 159 126 156 159 126 150 155 123 150 155 123 215 222 176 205 215 171 143 150 119 143 150 119 136 144 112 143 150 119 205 215 171 205 215 171 143 150 119 136 144 112 205 215 171 136 144 112 195 206 160 195 206 160 195 206 160 195 206 160 129 139 105 129 139 105 129 139 102 122 136 98 122 136 98 116 134 93 116 134 93 107 133 88 107 133 88 100 130 83 100 130 83 108 140 88 155 200 126 123 150 100 123 150 100 123 150 100 151 156 114 151 156 114 151 156 114 170 163 145 243 234 208 243 234 208 170 163 145 243 234 208 170 163 145 221 240 230 154 168 161 154 168 161 221 240 230 243 234 208 243 234 208 243 234 208 170 163 145 243 234 208 154 168 161 154 168 161 221 240 230 154 168 161 221 240 230 154 168 161 154 168 161 221 240 230 221 240 230 243 234 208 170 163 145 170 163 145 243 234 208 243 234 208 243 234 208 243 234 208 243 234 208 243 234 208 243 234 208 221 240 230 221 240 230 221 240 230 221 240 230 221 240 230 208 240 255 145 168 178 145 168 178 130 163 178 121 158 178 121 158 178 116 156 172 116 156 172 174 227 255 174 227 255 166 224 247 116 156 172 111 154 168 159 221 240 159 221 240 105 149 167 151 214 239 105 149 167 151 214 239 100 142 166 100 142 166 96 138 171 96 138 171 96 138 171 138 198 245 138 198 245 138 198 245 138 198 245 138 198 245 144 204 238 138 198 245

216 224 164 151 156 114 151 156 114 151 156 114 151 156 114 151 156 114 176 215 143 151 156 114 176 215 143 176 215 143 155 200 126 176 215 143 155 200 126 155 200 126 155 200 126 155 200 126 155 200 126 108 140 88 123 150 100 123 150 100 176 215 143 176 215 143 176 215 143 176 215 143 176 215 143 123 150 100 151 156 114 151 156 114 216 224 164 170 163 145 170 163 145 170 163 145 154 168 161 154 168 161 221 240 230 221 240 230 170 163 145 154 168 161 154 168 161 145 168 178 221 240 230 154 168 161 154 168 161 145 168 178 145 168 178 145 168 178 145 168 178 145 168 178 221 240 230 154 168 161 145 168 178 145 168 178 145 168 178 130 163 178 145 168 178 130 163 178 130 163 178 121 158 178 130 163 178 121 158 178 186 234 255 121 158 178 121 158 178 121 158 178 121 158 178 186 234 255 186 234 255 208 240 255 208 240 255 145 168 178 145 168 178 208 240 255 145 168 178 221 240 230 243 234 208 243 234 208 216 224 164 176 215 143 176 215 143 176 215 143 155 200 126 155 200 126 155 200 126 155 200 126 155 200 126 108 140 88 108 140 88 108 140 88 100 130 83 143 187 119 143 187 119 154 190 126 154 190 126 154 190 126 154 190 126 154 190 126 166 192 134 116 134 93 175 195 141 175 195 141 175 195 141 175 195 141 185 199 146 185 199 146 185 199 146 185 199 150 195 206 160 195 206 160 205 215 171 143 150 119 205 215 171 150 155 123 224 228 180 215 222 176 150 155 123 215 222 176 224 228 180 224 228 180 224 228 180 156 159 126 156 159 126 215 222 176 215 222 176 224 228 180 224 228 180 234 231 186 234 231 186 234 231 186 240 235 191 234 231 186 234 231 186 234 231 186 240 235 191 240 235 191 237 230 186 237 230 186 237 230 186 240 235 191 168 164 133 240 235 191 240 235 191 234 231 186 234 231 186 163 161 130 234 231 186 163 161 130 156 159 126 224 228 180 156 159 126 156 159 126 150 155 123 150 155 123 215 222 176 143 150 119 143 150 119 143 150 119 136 144 112 205 215 171 136 144 112 136 144 112 136 144 112 136 144 112 205 215 171 205 215 171 205 215 171 195 206 160 195 206 160 195 206 160 195 206 160 129 139 105 129 139 105 129 139 102 122 136 98 116 134 93 116 134 93 107 133 88 107 133 88 100 130 83 100 130 83 108 140 88 155 200 126 123 150 100 123 150 100 151 156 114 151 156 114 151 156 114 216 224 164 170 163 145 243 234 208 170 163 145 170 163 145 154 168 161 170 163 145 154 168 161 154 168 161 221 240 230 154 168 161 243 234 208 243 234 208 243 234 208 216 224 164 243 234 208 170 163 145 154 168 161 221 240 230 154 168 161 221 240 230 221 240 230 221 240 230 221 240 230 243 234 208 221 240 230 170 163 145 243 234 208 243 234 208 243 234 208 216 224 164 170 163 145 243 234 208 243 234 208 243 234 208 243 234 208 243 234 208 243 234 208 243 234 208 221 240 230 221 240 230 208 240 255 145 168 178 130 163 178 121 158 178 174 227 255 116 156 172 174 227 255 174 227 255 116 156 172 174 227 255 116 156 172 111 154 168 159 221 240 111 154 168 105 149 167 105 149 167 100 142 166 105 149 167 100 142 166 100 142 166 100 142 166 138 198 245 144 204 238 144 204 238 144 204 238 144 204 238 138 198 245 144 204 238 144 204 238 144 204 238

216 224 164 151 156 114 151 156 114 170 163 145 170 163 145 151 156 114 151 156 114 151 156 114 176 215 143 176 215 143 123 150 100 123 150 100 176 215 143 155 200 126 155 200 126 155 200 126 155 200 126 108 140 88 123 150 100 123 150 100 151 156 114 151 156 114 151 156 114 176 215 143 123 150 100 151 156 114 151 156 114 151 156 114 170 163 145 170 163 145 170 163 145 154 168 161 154 168 161 154 168 161 221 240 230 154 168 161 145 168 178 145 168 178 145 168 178 145 168 178 145 168 178 145 168 178 145 168 178 145 168 178 145 168 178 145 168 178 145 168 178 208 240 255 208 240 255 145 168 178 145 168 178 145 168 178 145 168 178 130 163 178 130 163 178 121 158 178 121 158 178 121 158 178 121 158 178 121 158 178 174 227 255 121 158 178 121 158 178 121 158 178 174 227 255 174 227 255 186 234 255 130 163 178 130 163 178 130 163 178 208 240 255 208 240 255 208 240 255 221 240 230 221 240 230 243 234 208 216 224 164 216 224 164 176 215 143 123 150 100 123 150 100 123 150 100 155 200 126 108 140 88 155 200 126 108 140 88 155 200 126 155 200 126 143 187 119 143 187 119 100 130 83 143 187 119 107 133 88 107 133 88 107 133 88 154 190 126 166 192 134 166 192 134 175 195 141 175 195 141 175 195 141 175 195 141 185 199 146 185 199 146 185 199 146 185 199 150 195 206 160 195 206 160 205 215 171 143 150 119 205 215 171 215 222 176 215 222 176 150 155 123 150 155 123 215 222 176 215 222 176 156 159 126 150 155 123 150 155 123 156 159 126 224 228 180 215 222 176 224 228 180 224 228 180 234 231 186 234 231 186 234 231 186 234 231 186 163 161 130 163 161 130 240 235 191 240 235 191 240 235 191 237 230 186 237 230 186 237 230 186 168 164 133 168 164 133 240 235 191 240 235 191 163 161 130 234 231 186 163 161 130 163 161 130 163 161 130 234 231 186 234 231 186 156 159 126 156 159 126 150 155 123 215 222 176 215 222 176 150 155 123 205 215 171 205 215 171 205 215 171 205 215 171 136 144 112 205 215 171 195 206 160 205 215 171 205 215 171 205 215 171 143 150 119 136 144 112 136 144 112 136 144 112 129 139 105 129 139 102 129 139 102 122 136 98 122 136 98 122 136 98 116 134 93 107 133 88 107 133 88 100 130 83 100 130 83 108 140 88 108 140 88 123 150 100 151 156 114 151 156 114 151 156 114 170 163 145 151 156 114 170 163 145 170 163 145 170 163 145 243 234 208 243 234 208 154 168 161 154 168 161 154 168 161 154 168 161 154 168 161 221 240 230 243 234 208 243 234 208 170 163 145 170 163 145 154 168 161 154 168 161 154 168 161 221 240 230 221 240 230 221 240 230 221 240 230 154 168 161 221 240 230 154 168 161 154 168 161 243 234 208 243 234 208 243 234 208 170 163 145 170 163 145 243 234 208 243 234 208 243 234 208 170 163 145 243 234 208 170 163 145 170 163 145 154 168 161 145 168 178 145 168 178 145 168 178 130 163 178 130 163 178 121 158 178 121 158 178 174 227 255 116 156 172 116 156 172 174 227 255 116 156 172 116 156 172 159 221 240 111 154 168 111 154 168 105 149 167 105 149 167 100 142 166 100 142 166 100 142 166 144 204 238 96 138 171 144 204 238 144 204 238 144 204 238 144 204 238 144 204 238 144 204 238 144 204 238 144 204 238

216 224 164 170 163 145 170 163 145 170 163 145 170 163 145 243 234 208 216 224 164 216 224 164 216 224 164 151 156 114 123 150 100 123 150 100 176 215 143 123 150 100 108 140 88 108 140 88 108 140 88 123 150 100 123 150 100 151 156 114 176 215 143 151 156 114 216 224 164 176 215 143 151 156 114 151 156 114 151 156 114 170 163 145 170 163 145 170 163 145 170 163 145 154 168 161 154 168 161 154 168 161 154 168 161 154 168 161 145 168 178 145 168 178 145 168 178 145 168 178 145 168 178 130 163 178 145 168 178 145 168 178 145 168 178 130 163 178 130 163 178 208 240 255 145 168 178 130 163 178 130 163 178 130 163 178 130 163 178 130 163 178 130 163 178 121 158 178 121 158 178 121 158 178 174 227 255 121 158 178 121 158 178 121 158 178 174 227 255 121 158 178 121 158 178 174 227 255 174 227 255 186 234 255 130 163 178 130 163 178 208 240 255 208 240 255 208 240 255 221 240 230 243 234 208 243 234 208 243 234 208 216 224 164 216 224 164 176 215 143 176 215 143 123 150 100 176 215 143 123 150 100 108 140 88 108 140 88 155 200 126 108 140 88 143 187 119 100 130 83 143 187 119 143 187 119 143 187 119 154 190 126 154 190 126 154 190 126 166 192 134 166 192 134 175 195 141 175 195 141 175 195 141 175 195 141 175 195 141 185 199 146 185 199 146 185 199 150 185 199 150 195 206 160 205 215 171 205 215 171 205 215 171 215 222 176 215 222 176 150 155 123 150 155 123 215 222 176 150 155 123 150 155 123 150 155 123 224 228 180 224 228 180 224 228 180 224 228 180 224 228 180 224 228 180 234 231 186 234 231 186 240 235 191 240 235 191 240 235 191 240 235 191 240 235 191 240 235 191 240 235 191 237 230 186 237 230 186 237 230 186 168 164 133 168 164 133 240 235 191 240 235 191 240 235 191 240 235 191 234 231 186 240 235 191 234 231 186 234 231 186 163 161 130 156 159 126 156 159 126 224 228 180 215 222 176 224 228 180 215 222 176 215 222 176 143 150 119 205 215 171 205 215 171 205 215 171 205 215 171 205 215 171 205 215 171 205 215 171 136 144 112 143 150 119 136 144 112 136 144 112 129 139 105 129 139 105 129 139 102 129 139 102 122 136 98 175 195 141 122 136 98 116 134 93 107 133 88 107 133 88 100 130 83 100 130 83 108 140 88 155 200 126 123 150 100 123 150 100 216 224 164 151 156 114 151 156 114 216 224 164 170 163 145 170 163 145 170 163 145 170 163 145 154 168 161 154 168 161 221 240 230 154 168 161 154 168 161 221 240 230 221 240 230 243 234 208 170 163 145 170 163 145 170 163 145 154 168 161 221 240 230 154 168 161 221 240 230 221 240 230 154 168 161 154 168 161 154 168 161 154 168 161 154 168 161 154 168 161 221 240 230 154 168 161 154 168 161 170 163 145 243 234 208 243 234 208 170 163 145 170 163 145 243 234 208 243 234 208 170 163 145 154 168 161 154 168 161 154 168 161 145 168 178 145 168 178 130 163 178 186 234 255 121 158 178 121 158 178 121 158 178 174 227 255 174 227 255 174 227 255 116 156 172 116 156 172 111 154 168 111 154 168 105 149 167 105 149 167 105 149 167 100 142 166 144 204 238 144 204 238 144 204 238 144 204 238 144 204 238 144 204 238 144 204 238 100 142 166 144 204 238 151 214 239 144 204 238 144 204 238

243 234 208 170 163 145 154 168 161 170 163 145 243 234 208 243 234 208 243 234 208 170 163 145 170 163 145 151 156 114 216 224 164 176 215 143 176 215 143 123 150 100 123 150 100 123 150 100 123 150 100 123 150 100 123 150 100 123 150 100 151 156 114 151 156 114 216 224 164 151 156 114 151 156 114 151 156 114 170 163 145 170 163 145 170 163 145 154 168 161 154 168 161 154 168 161 221 240 230 154 168 161 154 168 161 145 168 178 145 168 178 145 168 178 145 168 178 130 163 178 130 163 178 130 163 178 130 163 178 130 163 178 130 163 178 130 163 178 130 163 178 130 163 178 130 163 178 130 163 178 121 158 178 130 163 178 130 163 178 121 158 178 121 158 178 121 158 178 116 156 172 116 156 172 116 156 172 121 158 178 116 156 172 116 156 172 116 156 172 116 156 172 116 156 172 174 227 255 174 227 255 174 227 255 186 234 255 186 234 255 208 240 255 208 240 255 208 240 255 221 240 230 221 240 230 154 168 161 243 234 208 216 224 164 216 224 164 216 224 164 176 215 143 176 215 143 176 215 143 176 215 143 176 215 143 123 150 100 155 200 126 108 140 88 155 200 126 108 140 88 143 187 119 100 130 83 143 187 119 143 187 119 154 190 126 166 192 134 166 192 134 166 192 134 166 192 134 175 195 141 175 195 141 175 195 141 185 199 146 185 199 146 185 199 150 185 199 150 185 199 150 195 206 160 195 206 160 136 144 112 205 215 171 205 215 171 215 222 176 143 150 119 143 150 119 143 150 119 143 150 119 150 155 123 150 155 123 224 228 180 224 228 180 224 228 180 224 228 180 224 228 180 234 231 186 234 231 186 240 235 191 240 235 191 240 235 191 240 235 191 240 235 191 240 235 191 240 235 191 168 164 133 240 235 191 168 164 133 168 164 133 168 164 133 240 235 191 240 235 191 240 235 191 168 164 133 163 161 130 163 161 130 240 235 191 163 161 130 163 161 130 163 161 130 234 231 186 224 228 180 224 228 180 224 228 180 224 228 180 224 228 180 150 155 123 150 155 123 215 222 176 143 150 119 205 215 171 143 150 119 205 215 171 205 215 171 136 144 112 136 144 112 195 206 160 136 144 112 136 144 112 129 139 105 129 139 102 129 139 102 122 136 98 122 136 98 122 136 98 122 136 98 116 134 93 107 133 88 107 133 88 100 130 83 100 130 83 100 130 83 108 140 88 123 150 100 123 150 100 151 156 114 151 156 114 216 224 164 170 163 145 170 163 145 170 163 145 170 163 145 243 234 208 154 168 161 154 168 161 154 168 161 154 168 161 221 240 230 221 240 230 243 234 208 243 234 208 243 234 208 243 234 208 154 168 161 154 168 161 154 168 161 154 168 161 221 240 230 154 168 161 154 168 161 154 168 161 145 168 178 145 168 178 221 240 230 221 240 230 154 168 161 154 168 161 221 240 230 154 168 161 154 168 161 154 168 161 170 163 145 154 168 161 170 163 145 170 163 145 154 168 161 154 168 161 154 168 161 154 168 161 145 168 178 145 168 178 208 240 255 130 163 178 130 163 178 174 227 255 174 227 255 174 227 255 174 227 255 174 227 255 116 156 172 116 156 172 116 156 172 111 154 168 105 149 167 151 214 239 105 149 167 151 214 239 151 214 239 144 204 238 151 214 239 151 214 239 144 204 238 144 204 238 144 204 238 144 204 238 144 204 238 144 204 238 151 214 239 151 214 239

243 234 208 154 168 161 154 168 161 154 168 161 170 163 145 154 168 161 170 163 145 170 163 145 170 163 145 243 234 208 216 224 164 151 156 114 151 156 114 176 215 143 176 215 143 151 156 114 176 215 143 123 150 100 123 150 100 123 150 100 151 156 114 151 156 114 151 156 114 151 156 114 216 224 164 170 163 145 170 163 145 170 163 145 154 168 161 154 168 161 154 168 161 154 168 161 154 168 161 145 168 178 221 240 230 145 168 178 208 240 255 208 240 255 208 240 255 130 163 178 130 163 178 130 163 178 121 158 178 130 163 178 130 163 178 121 158 178 121 158 178 186 234 255 130 163 178 130 163 178 121 158 178 174 227 255 121 158 178 121 158 178 121 158 178 116 156 172 116 156 172 116 156 172 166 224 247 116 156 172 116 156 172 116 156 172 116 156 172 116 156 172 174 227 255 166 224 247 174 227 255 174 227 255 174 227 255 186 234 255 208 240 255 208 240 255 221 240 230 221 240 230 221 240 230 221 240 230 243 234 208 216 224 164 216 224 164 176 215 143 176 215 143 151 156 114 176 215 143 123 150 100 123 150 100 123 150 100 176 215 143 155 200 126 155 200 126 155 200 126 155 200 126 143 187 119 143 187 119 154 190 126 154 190 126 166 192 134 175 195 141 166 192 134 175 195 141 175 195 141 175 195 141 175 195 141 185 199 146 185 199 150 185 199 150 185 199 150 195 206 160 195 206 160 195 206 160 136 144 112 136 144 112 205 215 171 205 215 171 143 150 119 143 150 119 143 150 119 205 215 171 215 222 176 215 222 176 215 222 176 224 228 180 224 228 180 224 228 180 234 231 186 234 231 186 234 231 186 240 235 191 240 235 191 237 230 186 237 230 186 237 230 186 240 235 191 237 230 186 240 235 191 168 164 133 240 235 191 168 164 133 240 235 191 168 164 133 168 164 133 168 164 133 168 164 133 168 164 133 163 161 130 234 231 186 163 161 130 163 161 130 163 161 130 234 231 186 156 159 126 234 231 186 224 228 180 234 231 186 156 159 126 224 228 180 150 155 123 215 222 176 143 150 119 205 215 171 143 150 119 205 215 171 205 215 171 136 144 112 136 144 112 195 206 160 136 144 112 136 144 112 129 139 105 129 139 102 129 139 102 129 139 102 185 199 146 185 199 146 116 134 93 116 134 93 107 133 88 107 133 88 100 130 83 100 130 83 108 140 88 108 140 88 108 140 88 123 150 100 123 150 100 216 224 164 151 156 114 216 224 164 170 163 145 170 163 145 170 163 145 243 234 208 154 168 161 154 168 161 154 168 161 221 240 230 221 240 230 221 240 230 243 234 208 243 234 208 243 234 208 170 163 145 154 168 161 221 240 230 154 168 161 154 168 161 145 168 178 154 168 161 145 168 178 145 168 178 145 168 178 221 240 230 208 240 255 154 168 161 154 168 161 221 240 230 221 240 230 154 168 161 221 240 230 154 168 161 221 240 230 154 168 161 243 234 208 154 168 161 170 163 145 221 240 230 154 168 161 145 168 178 145 168 178 208 240 255 208 240 255 208 240 255 186 234 255 186 234 255 174 227 255 174 227 255 174 227 255 174 227 255 174 227 255 166 224 247 116 156 172 111 154 168 105 149 167 151 214 239 151 214 239 151 214 239 151 214 239 151 214 239 151 214 239 151 214 239 151 214 239 151 214 239 151 214 239 151 214 239 151 214 239 151 214 239 151 214 239 151 214 239

221 240 230 154 168 161 154 168 161 221 240 230 154 168 161 154 168 161 154 168 161 243 234 208 243 234 208 170 163 145 243 234 208 151 156 114 151 156 114 216 224 164 151 156 114 151 156 114 216 224 164 123 150 100 151 156 114 151 156 114 151 156 114 170 163 145 170 163 145 151 156 114 170 163 145 170 163 145 170 163 145 154 168 161 243 234 208 221 240 230 154 168 161 221 240 230 221 240 230 221 240 230 221 240 230 145 168 178 208 240 255 145 168 178 145 168 178 130 163 178 130 163 178 130 163 178 121 158 178 121 158 178 121 158 178 121 158 178 121 158 178 121 158 178 121 158 178 121 158 178 121 158 178 174 227 255 121 158 178 116 156 172 116 156 172 116 156 172 116 156 172 116 156 172 116 156 172 116 156 172 166 224 247 116 156 172 166 224 247 166 224 247 166 224 247 174 227 255 174 227 255 174 227 255 186 234 255 186 234 255 208 240 255 208 240 255 221 240 230 221 240 230 243 234 208 243 234 208 243 234 208 216 224 164 216 224 164 216 224 164 151 156 114 176 215 143 176 215 143 123 150 100 176 215 143 176 215 143 155 200 126 155 200 126 155 200 126 155 200 126 143 187 119 143 187 119 143 187 119 154 190 126 166 192 134 166 192 134 166 192 134 116 134 93 175 195 141 175 195 141 175 195 141 185 199 146 185 199 146 185 199 146 185 199 150 185 199 150 185 199 150 195 206 160 195 206 160 136 144 112 136 144 112 195 206 160 136 144 112 143 150 119 136 144 112 143 150 119 205 215 171 205 215 171 215 222 176 224 228 180 224 228 180 156 159 126 156 159 126 156 159 126 234 231 186 234 231 186 240 235 191 240 235 191 237 230 186 237 230 186 168 164 133 237 230 186 237 230 186 165 161 130 240 235 191 168 164 133 168 164 133 168 164 133 168 164 133 163 161 130 163 161 130 163 161 130 168 164 133 168 164 133 234 231 186 163 161 130 234 231 186 234 231 186 163 161 130 156 159 126 234 231 186 234 231 186 224 228 180 156 159 126 224 228 180 150 155 123 215 222 176 150 155 123 205 215 171 205 215 171 205 215 171 143 150 119 143 150 119 136 144 112 136 144 112 136 144 112 136 144 112 129 139 105 129 139 102 129 139 102 122 136 98 129 139 102 122 136 98 116 134 93 116 134 93 107 133 88 107 133 88 100 130 83 100 130 83 108 140 88 108 140 88 108 140 88 123 150 100 123 150 100 176 215 143 151 156 114 216 224 164 216 224 164 170 163 145 243 234 208 154 168 161 154 168 161 154 168 161 221 240 230 221 240 230 154 168 161 221 240 230 221 240 230 154 168 161 154 168 161 170 163 145 154 168 161 221 240 230 154 168 161 221 240 230 145 168 178 145 168 178 145 168 178 208 240 255 145 168 178 208 240 255 145 168 178 145 168 178 145 168 178 145 168 178 154 168 161 154 168 161 154 168 161 221 240 230 221 240 230 221 240 230 243 234 208 243 234 208 221 240 230 154 168 161 154 168 161 145 168 178 145 168 178 145 168 178 145 168 178 130 163 178 130 163 178 130 163 178 186 234 255 174 227 255 121 158 178 121 158 178 121 158 178 116 156 172 116 156 172 111 154 168 159 221 240 159 221 240 159 221 240 151 214 239 159 221 240 159 221 240 151 214 239 151 214 239 151 214 239 151 214 239 151 214 239 151 214 239 151 214 239 151 214 239 151 214 239 151 214 239

208 240 255 145 168 178 154 168 161 154 168 161 154 168 161 154 168 161 154 168 161 221 240 230 170 163 145 170 163 145 243 234 208 243 234 208 216 224 164 216 224 164 151 156 114 151 156 114 151 156 114 151 156 114 151 156 114 151 156 114 170 163 145 170 163 145 170 163 145 170 163 145 170 163 145 170 163 145 170 163 145 170 163 145 243 234 208 243 234 208 221 240 230 221 240 230 221 240 230 221 240 230 221 240 230 145 168 178 145 168 178 145 168 178 145 168 178 130 163 178 130 163 178 130 163 178 121 158 178 121 158 178 121 158 178 121 158 178 174 227 255 121 158 178 121 158 178 121 158 178 174 227 255 116 156 172 116 156 172 116 156 172 116 156 172 111 154 168 111 154 168 116 156 172 166 224 247 166 224 247 166 224 247 166 224 247 166 224 247 174 227 255 174 227 255 166 224 247 174 227 255 121 158 178 174 227 255 186 234 255 208 240 255 208 240 255 221 240 230 221 240 230 243 234 208 243 234 208 243 234 208 216 224 164 216 224 164 216 224 164 176 215 143 176 215 143 176 215 143 176 215 143 176 215 143 155 200 126 155 200 126 155 200 126 155 200 126 108 140 88 155 200 126 143 187 119 143 187 119 154 190 126 154 190 126 107 133 88 166 192 134 166 192 134 175 195 141 122 136 98 175 195 141 185 199 146 185 199 146 185 199 146 185 199 150 185 199 150 195 206 160 195 206 160 195 206 160 136 144 112 136 144 112 129 139 105 136 144 112 136 144 112 136 144 112 136 144 112 205 215 171 205 215 171 215 222 176 215 222 176 224 228 180 150 155 123 156 159 126 224 228 180 234 231 186 234 231 186 240 235 191 240 235 191 237 230 186 237 230 186 237 230 186 237 230 186 237 230 186 237 230 186 237 230 186 168 164 133 168 164 133 240 235 191 240 235 191 168 164 133 163 161 130 234 231 186 240 235 191 163 161 130 240 235 191 234 231 186 234 231 186 163 161 130 156 159 126 156 159 126 224 228 180 234 231 186 156 159 126 156 159 126 234 231 186 150 155 123 150 155 123 150 155 123 215 222 176 215 222 176 215 222 176 205 215 171 143 150 119 136 144 112 136 144 112 195 206 160 136 144 112 129 139 105 129 139 105 129 139 102 185 199 146 122 136 98 122 136 98 116 134 93 107 133 88 107 133 88 107 133 88 100 130 83 143 187 119 108 140 88 108 140 88 155 200 126 155 200 126 123 150 100 123 150 100 151 156 114 216 224 164 151 156 114 170 163 145 243 234 208 243 234 208 221 240 230 154 168 161 221 240 230 154 168 161 154 168 161 221 240 230 221 240 230 221 240 230 154 168 161 154 168 161 154 168 161 154 168 161 145 168 178 145 168 178 145 168 178 145 168 178 145 168 178 145 168 178 145 168 178 145 168 178 145 168 178 145 168 178 145 168 178 145 168 178 145 168 178 145 168 178 145 168 178 221 240 230 154 168 161 243 234 208 243 234 208 243 234 208 243 234 208 243 234 208 154 168 161 221 240 230 145 168 178 145 168 178 145 168 178 145 168 178 208 240 255 186 234 255 186 234 255 121 158 178 121 158 178 174 227 255 174 227 255 174 227 255 166 224 247 166 224 247 159 221 240 111 154 168 111 154 168 159 221 240 159 221 240 159 221 240 111 154 168 159 221 240 151 214 239 159 221 240 151 214 239 159 221 240 159 221 240 159 221 240 159 221 240 159 221 240

186 234 255 145 168 178 145 168 178 145 168 178 145 168 178 145 168 178 145 168 178 221 240 230 154 168 161 154 168 161 243 234 208 170 163 145 170 163 145 170 163 145 170 163 145 170 163 145 170 163 145 151 156 114 170 163 145 170 163 145 154 168 161 154 168 161 170 163 145 154 168 161 154 168 161 170 163 145 170 163 145 154 168 161 154 168 161 154 168 161 154 168 161 154 168 161 221 240 230 221 240 230 154 168 161 154 168 161 145 168 178 145 168 178 130 163 178 130 163 178 130 163 178 186 234 255 121 158 178 121 158 178 121 158 178 174 227 255 116 156 172 121 158 178 116 156 172 116 156 172 116 156 172 116 156 172 116 156 172 116 156 172 116 156 172 111 154 168 111 154 168 159 221 240 111 154 168 166 224 247 166 224 247 166 224 247 166 224 247 166 224 247 116 156 172 116 156 172 174 227 255 174 227 255 186 234 255 186 234 255 208 240 255 208 240 255 221 240 230 221 240 230 221 240 230 243 234 208 243 234 208 216 224 164 216 224 164 216 224 164 176 215 143 176 215 143 176 215 143 176 215 143 155 200 126 155 200 126 155 200 126 123 150 100 123 150 100 155 200 126 155 200 126 143 187 119 143 187 119 154 190 126 154 190 126 166 192 134 166 192 134 166 192 134 166 192 134 122 136 98 175 195 141 175 195 141 185 199 146 185 199 146 185 199 150 185 199 150 195 206 160 195 206 160 136 144 112 136 144 112 129 139 105 129 139 105 129 139 105 136 144 112 195 206 160 136 144 112 205 215 171 215 222 176 215 222 176 150 155 123 150 155 123 150 155 123 224 228 180 224 228 180 234 231 186 240 235 191 240 235 191 237 230 186 237 230 186 237 230 186 165 161 130 165 161 130 237 230 186 237 230 186 237 230 186 168 164 133 240 235 191 240 235 191 163 161 130 163 161 130 163 161 130 234 231 186 234 231 186 163 161 130 240 235 191 163 161 130 163 161 130 163 161 130 163 161 130 234 231 186 224 228 180 234 231 186 234 231 186 224 228 180 224 228 180 156 159 126 150 155 123 215 222 176 215 222 176 215 222 176 215 222 176 143 150 119 143 150 119 136 144 112 136 144 112 136 144 112 129 139 105 129 139 105 129 139 102 129 139 102 129 139 102 122 136 98 122 136 98 116 134 93 107 133 88 107 133 88 100 130 83 100 130 83 100 130 83 108 140 88 108 140 88 155 200 126 108 140 88 123 150 100 176 215 143 151 156 114 216 224 164 151 156 114 216 224 164 243 234 208 170 163 145 170 163 145 154 168 161 221 240 230 221 240 230 221 240 230 221 240 230 154 168 161 154 168 161 145 168 178 145 168 178 145 168 178 145 168 178 145 168 178 145 168 178 208 240 255 145 168 178 145 168 178 208 240 255 145 168 178 208 240 255 145 168 178 145 168 178 208 240 255 208 240 255 208 240 255 208 240 255 208 240 255 208 240 255 221 240 230 221 240 230 154 168 161 243 234 208 170 163 145 243 234 208 154 168 161 221 240 230 145 168 178 145 168 178 208 240 255 208 240 255 208 240 255 208 240 255 130 163 178 121 158 178 174 227 255 174 227 255 174 227 255 174 227 255 116 156 172 166 224 247 166 224 247 166 224 247 166 224 247 166 224 247 159 221 240 159 221 240 159 221 240 159 221 240 159 221 240 159 221 240 159 221 240 159 221 240 159 221 240 159 221 240 166 224 247 166 224 247

186 234 255 130 163 178 130 163 178 130 163 178 145 168 178 130 163 178 145 168 178 145 168 178 221 240 230 154 168 161 221 240 230 154 168 161 243 234 208 170 163 145 170 163 145 243 234 208 216 224 164 170 163 145 170 163 145 154 168 161 154 168 161 154 168 161 154 168 161 154 168 161 243 234 208 154 168 161 154 168 161 154 168 161 154 168 161 154 168 161 154 168 161 221 240 230 243 234 208 221 240 230 154 168 161 145 168 178 145 168 178 130 163 178 130 163 178 130 163 178 186 234 255 130 163 178 130 163 178 121 158 178 121 158 178 174 227 255 116 156 172 116 156 172 116 156 172 116 156 172 166 224 247 166 224 247 116 156 172 116 156 172 166 224 247 111 154 168 111 154 168 159 221 240 111 154 168 166 224 247 166 224 247 166 224 247 166 224 247 116 156 172 116 156 172 166 224 247 174 227 255 174 227 255 186 234 255 186 234 255 208 240 255 208 240 255 221 240 230 154 168 161 221 240 230 243 234 208 216 224 164 216 224 164 216 224 164 176 215 143 176 215 143 176 215 143 176 215 143 176 215 143 155 200 126 155 200 126 155 200 126 123 150 100 123 150 100 155 200 126 155 200 126 143 187 119 154 190 126 154 190 126 166 192 134 166 192 134 175 195 141 166 192 134 166 192 134 175 195 141 175 195 141 175 195 141 185 199 146 185 199 150 195 206 160 185 199 150 195 206 160 129 139 105 195 206 160 129 139 105 129 139 105 129 139 105 129 139 102 185 199 150 195 206 160 195 206 160 205 215 171 205 215 171 215 222 176 215 222 176 215 222 176 215 222 176 224 228 180 224 228 180 234 231 186 234 231 186 240 235 191 237 230 186 232 225 178 165 161 130 165 161 130 237 230 186 237 230 186 165 161 130 165 161 130 168 164 133 168 164 133 168 164 133 240 235 191 240 235 191 234 231 186 234 231 186 163 161 130 163 161 130 234 231 186 163 161 130 163 161 130 163 161 130 234 231 186 156 159 126 156 159 126 234 231 186 234 231 186 156 159 126 156 159 126 156 159 126 224 228 180 215 222 176 150 155 123 150 155 123 215 222 176 143 150 119 143 150 119 136 144 112 136 144 112 129 139 105 129 139 105 185 199 150 185 199 150 129 139 102 129 139 102 122 136 98 122 136 98 116 134 93 116 134 93 107 133 88 100 130 83 100 130 83 108 140 88 100 130 83 143 187 119 155 200 126 108 140 88 108 140 88 155 200 126 151 156 114 151 156 114 151 156 114 216 224 164 170 163 145 243 234 208 170 163 145 154 168 161 221 240 230 221 240 230 221 240 230 221 240 230 145 168 178 145 168 178 145 168 178 145 168 178 145 168 178 145 168 178 145 168 178 208 240 255 208 240 255 145 168 178 130 163 178 208 240 255 208 240 255 208 240 255 208 240 255 208 240 255 208 240 255 208 240 255 208 240 255 221 240 230 145 168 178 221 240 230 221 240 230 221 240 230 243 234 208 243 234 208 243 234 208 216 224 164 170 163 145 154 168 161 221 240 230 221 240 230 208 240 255 208 240 255 208 240 255 208 240 255 130 163 178 130 163 178 186 234 255 186 234 255 186 234 255 121 158 178 116 156 172 166 224 247 166 224 247 166 224 247 166 224 247 174 227 255 166 224 247 166 224 247 166 224 247 166 224 247 159 221 240 111 154 168 159 221 240 159 221 240 159 221 240 159 221 240 166 224 247 174 227 255

174 227 255 121 158 178 121 158 178 130 163 178 130 163 178 130 163 178 130 163 178 130 163 178 145 168 178 145 168 178 145 168 178 154 168 161 221 240 230 154 168 161 154 168 161 243 234 208 154 168 161 154 168 161 154 168 161 154 168 161 154 168 161 154 168 161 154 168 161 154 168 161 154 168 161 154 168 161 154 168 161 154 168 161 154 168 161 221 240 230 221 240 230 221 240 230 154 168 161 154 168 161 154 168 161 145 168 178 145 168 178 130 163 178 186 234 255 130 163 178 130 163 178 121 158 178 121 158 178 121 158 178 174 227 255 121 158 178 116 156 172 116 156 172 116 156 172 166 224 247 116 156 172 116 156 172 116 156 172 166 224 247 166 224 247 111 154 168 159 221 240 159 221 240 159 221 240 166 224 247 166 224 247 166 224 247 166 224 247 166 224 247 166 224 247 174 227 255 174 227 255 174 227 255 186 234 255 186 234 255 208 240 255 208 240 255 221 240 230 154 168 161 221 240 230 243 234 208 243 234 208 170 163 145 216 224 164 216 224 164 176 215 143 123 150 100 123 150 100 176 215 143 176 215 143 108 140 88 123 150 100 123 150 100 176 215 143 155 200 126 143 187 119 143 187 119 154 190 126 154 190 126 154 190 126 166 192 134 166 192 134 116 134 93 166 192 134 116 134 93 175 195 141 175 195 141 185 199 146 185 199 150 185 199 150 129 139 105 195 206 160 195 206 160 129 139 105 129 139 105 129 139 102 129 139 102 185 199 150 185 199 150 195 206 160 195 206 160 195 206 160 143 150 119 215 222 176 150 155 123 215 222 176 215 222 176 224 228 180 224 228 180 234 231 186 234 231 186 240 235 191 237 230 186 237 230 186 165 161 130 237 230 186 237 230 186 165 161 130 165 161 130 237 230 186 168 164 133 168 164 133 168 164 133 163 161 130 163 161 130 163 161 130 234 231 186 234 231 186 234 231 186 240 235 191 163 161 130 163 161 130 234 231 186 234 231 186 163 161 130 156 159 126 234 231 186 163 161 130 156 159 126 156 159 126 224 228 180 224 228 180 156 159 126 150 155 123 215 222 176 215 222 176 143 150 119 136 144 112 136 144 112 136 144 112 129 139 105 129 139 105 129 139 105 129 139 102 129 139 102 129 139 102 122 136 98 122 136 98 116 134 93 116 134 93 107 133 88 100 130 83 100 130 83 108 140 88 155 200 126 108 140 88 108 140 88 108 140 88 123 150 100 123 150 100 123 150 100 216 224 164 151 156 114 216 224 164 170 163 145 243 234 208 170 163 145 154 168 161 154 168 161 154 168 161 154 168 161 154 168 161 145 168 178 145 168 178 145 168 178 145 168 178 145 168 178 208 240 255 208 240 255 208 240 255 145 168 178 145 168 178 208 240 255 208 240 255 145 168 178 208 240 255 208 240 255 145 168 178 208 240 255 208 240 255 145 168 178 145 168 178 221 240 230 221 240 230 221 240 230 221 240 230 221 240 230 243 234 208 243 234 208 170 163 145 154 168 161 154 168 161 154 168 161 154 168 161 145 168 178 145 168 178 208 240 255 208 240 255 208 240 255 186 234 255 186 234 255 130 163 178 130 163 178 121 158 178 174 227 255 174 227 255 174 227 255 174 227 255 174 227 255 166 224 247 174 227 255 166 224 247 116 156 172 166 224 247 111 154 168 159 221 240 159 221 240 159 221 240 166 224 247 166 224 247 166 224 247 174 227 255

166 224 247 121 158 178 174 227 255 121 158 178 121 158 178 186 234 255 130 163 178 130 163 178 130 163 178 208 240 255 145 168 178 145 168 178 154 168 161 154 168 161 221 240 230 154 168 161 154 168 161 145 168 178 145 168 178 154 168 161 154 168 161 145 168 178 145 168 178 145 168 178 221 240 230 154 168 161 145 168 178 221 240 230 221 240 230 221 240 230 221 240 230 154 168 161 154 168 161 154 168 161 154 168 161 145 168 178 130 163 178 130 163 178 130 163 178 121 158 178 121 158 178 121 158 178 186 234 255 174 227 255 121 158 178 121 158 178 174 227 255 166 224 247 166 224 247 116 156 172 116 156 172 166 224 247 166 224 247 116 156 172 166 224 247 116 156 172 111 154 168 159 221 240 159 221 240 166 224 247 166 224 247 166 224 247 166 224 247 174 227 255 174 227 255 174 227 255 174 227 255 174 227 255 186 234 255 186 234 255 208 240 255 208 240 255 221 240 230 221 240 230 221 240 230 243 234 208 243 234 208 243 234 208 243 234 208 216 224 164 151 156 114 151 156 114 176 215 143 176 215 143 176 215 143 176 215 143 123 150 100 176 215 143 176 215 143 155 200 126 143 187 119 143 187 119 143 187 119 154 190 126 154 190 126 166 192 134 166 192 134 166 192 134 116 134 93 116 134 93 175 195 141 175 195 141 185 199 146 185 199 146 129 139 102 185 199 150 185 199 150 129 139 105 129 139 105 129 139 105 129 139 102 129 139 102 185 199 150 129 139 102 185 199 150 129 139 105 195 206 160 205 215 171 205 215 171 143 150 119 215 222 176 150 155 123 215 222 176 224 228 180 234 231 186 234 231 186 240 235 191 237 230 186 165 161 130 237 230 186 237 230 186 237 230 186 165 161 130 237 230 186 237 230 186 168 164 133 168 164 133 168 164 133 163 161 130 234 231 186 234 231 186 234 231 186 234 231 186 234 231 186 240 235 191 163 161 130 163 161 130 234 231 186 234 231 186 163 161 130 156 159 126 234 231 186 234 231 186 156 159 126 156 159 126 156 159 126 224 228 180 150 155 123 150 155 123 215 222 176 215 222 176 143 150 119 143 150 119 136 144 112 136 144 112 129 139 105 129 139 105 129 139 102 129 139 102 122 136 98 122 136 98 122 136 98 116 134 93 116 134 93 107 133 88 107 133 88 100 130 83 100 130 83 100 130 83 108 140 88 108 140 88 108 140 88 108 140 88 123 150 100 123 150 100 151 156 114 151 156 114 151 156 114 216 224 164 216 224 164 243 234 208 170 163 145 154 168 161 154 168 161 221 240 230 221 240 230 145 168 178 145 168 178 145 168 178 130 163 178 208 240 255 130 163 178 130 163 178 208 240 255 145 168 178 208 240 255 208 240 255 208 240 255 208 240 255 145 168 178 208 240 255 145 168 178 130 163 178 208 240 255 208 240 255 145 168 178 221 240 230 208 240 255 221 240 230 221 240 230 221 240 230 243 234 208 243 234 208 243 234 208 243 234 208 154 168 161 154 168 161 154 168 161 154 168 161 145 168 178 208 240 255 221 240 230 208 240 255 145 168 178 145 168 178 130 163 178 186 234 255 186 234 255 186 234 255 186 234 255 186 234 255 174 227 255 174 227 255 174 227 255 174 227 255 174 227 255 174 227 255 166 224 247 166 224 247 116 156 172 166 224 247 166 224 247 166 224 247 166 224 247 166 224 247 166 224 247 166 224 247

166 224 247 116 156 172 116 156 172 121 158 178 121 158 178 121 158 178 121 158 178 121 158 178 121 158 178 121 158 178 130 163 178 145 168 178 145 168 178 145 168 178 145 168 178 145 168 178 145 168 178 145 168 178 145 168 178 145 168 178 145 168 178 145 168 178 145 168 178 208 240 255 208 240 255 145 168 178 145 168 178 221 240 230 145 168 178 145 168 178 145 168 178 154 168 161 145 168 178 221 240 230 145 168 178 145 168 178 145 168 178 130 163 178 130 163 178 130 163 178 174 227 255 121 158 178 174 227 255 121 158 178 121 158 178 121 158 178 174 227 255 121 158 178 116 156 172 116 156 172 166 224 247 166 224 247 166 224 247 116 156 172 166 224 247 116 156 172 111 154 168 166 224 247 166 224 247 166 224 247 166 224 247 166 224 247 166 224 247 174 227 255 116 156 172 121 158 178 121 158 178 174 227 255 174 227 255 186 234 255 130 163 178 208 240 255 208 240 255 154 168 161 221 240 230 221 240 230 243 234 208 243 234 208 243 234 208 243 234 208 216 224 164 151 156 114 216 224 164 176 215 143 176 215 143 123 150 100 176 215 143 155 200 126 155 200 126 155 200 126 143 187 119 143 187 119 154 190 126 154 190 126 154 190 126 166 192 134 166 192 134 166 192 134 166 192 134 175 195 141 175 195 141 175 195 141 175 195 141 185 199 146 185 199 146 185 199 146 129 139 105 129 139 105 129 139 105 129 139 102 129 139 102 129 139 102 185 199 146 129 139 102 185 199 150 195 206 160 195 206 160 205 215 171 205 215 171 215 222 176 215 222 176 215 222 176 224 228 180 224 228 180 234 231 186 240 235 191 240 235 191 168 164 133 168 164 133 237 230 186 237 230 186 165 161 130 165 161 130 165 161 130 168 164 133 168 164 133 168 164 133 163 161 130 240 235 191 240 235 191 240 235 191 234 231 186 163 161 130 234 231 186 234 231 186 163 161 130 234 231 186 234 231 186 234 231 186 234 231 186 156 159 126 224 228 180 156 159 126 156 159 126 156 159 126 156 159 126 150 155 123 150 155 123 150 155 123 215 222 176 150 155 123 150 155 123 143 150 119 136 144 112 136 144 112 129 139 105 129 139 105 129 139 102 122 136 98 122 136 98 122 136 98 122 136 98 116 134 93 116 134 93 107 133 88 107 133 88 100 130 83 100 130 83 143 187 119 108 140 88 108 140 88 108 140 88 108 140 88 123 150 100 151 156 114 151 156 114 216 224 164 151 156 114 216 224 164 151 156 114 170 163 145 170 163 145 243 234 208 221 240 230 221 240 230 221 240 230 145 168 178 145 168 178 145 168 178 130 163 178 130 163 178 130 163 178 186 234 255 208 240 255 208 240 255 208 240 255 208 240 255 145 168 178 145 168 178 145 168 178 208 240 255 145 168 178 130 163 178 186 234 255 145 168 178 208 240 255 145 168 178 145 168 178 208 240 255 221 240 230 221 240 230 154 168 161 154 168 161 154 168 161 154 168 161 154 168 161 221 240 230 154 168 161 221 240 230 145 168 178 221 240 230 221 240 230 221 240 230 221 240 230 208 240 255 208 240 255 186 234 255 208 240 255 208 240 255 208 240 255 186 234 255 186 234 255 186 234 255 186 234 255 174 227 255 174 227 255 174 227 255 116 156 172 166 224 247 166 224 247 166 224 247 166 224 247 166 224 247 166 224 247 166 224 247 166 224 247 174 227 255

159 221 240 116 156 172 166 224 247 166 224 247 174 227 255 174 227 255 121 158 178 121 158 178 121 158 178 121 158 178 174 227 255 130 163 178 130 163 178 145 168 178 145 168 178 130 163 178 145 168 178 130 163 178 130 163 178 145 168 178 145 168 178 130 163 178 145 168 178 208 240 255 221 240 230 221 240 230 208 240 255 145 168 178 145 168 178 145 168 178 145 168 178 208 240 255 221 240 230 221 240 230 221 240 230 145 168 178 208 240 255 130 163 178 130 163 178 121 158 178 121 158 178 174 227 255 174 227 255 174 227 255 186 234 255 121 158 178 174 227 255 121 158 178 116 156 172 166 224 247 174 227 255 174 227 255 174 227 255 166 224 247 116 156 172 166 224 247 116 156 172 166 224 247 166 224 247 166 224 247 166 224 247 166 224 247 174 227 255 174 227 255 174 227 255 174 227 255 174 227 255 186 234 255 186 234 255 186 234 255 186 234 255 208 240 255 208 240 255 208 240 255 145 168 178 154 168 161 221 240 230 243 234 208 243 234 208 243 234 208 216 224 164 216 224 164 176 215 143 176 215 143 176 215 143 155 200 126 155 200 126 155 200 126 143 187 119 143 187 119 143 187 119 154 190 126 154 190 126 154 190 126 154 190 126 154 190 126 166 192 134 116 134 93 166 192 134 175 195 141 175 195 141 175 195 141 185 199 146 185 199 146 185 199 150 185 199 146 185 199 150 185 199 150 129 139 105 129 139 102 185 199 146 185 199 146 185 199 146 185 199 146 185 199 150 185 199 150 195 206 160 205 215 171 205 215 171 215 222 176 215 222 176 224 228 180 224 228 180 234 231 186 234 231 186 240 235 191 240 235 191 240 235 191 240 235 191 240 235 191 237 230 186 165 161 130 237 230 186 165 161 130 237 230 186 168 164 133 168 164 133 240 235 191 240 235 191 240 235 191 240 235 191 240 235 191 240 235 191 240 235 191 240 235 191 240 235 191 234 231 186 163 161 130 234 231 186 163 161 130 156 159 126 156 159 126 156 159 126 156 159 126 224 228 180 156 159 126 224 228 180 150 155 123 150 155 123 215 222 176 215 222 176 150 155 123 143 150 119 136 144 112 195 206 160 129 139 105 129 139 105 129 139 102 122 136 98 122 136 98 122 136 98 175 195 141 175 195 141 116 134 93 107 133 88 107 133 88 100 130 83 100 130 83 108 140 88 108 140 88 108 140 88 123 150 100 123 150 100 123 150 100 151 156 114 151 156 114 151 156 114 151 156 114 216 224 164 151 156 114 216 224 164 243 234 208 243 234 208 170 163 145 154 168 161 154 168 161 145 168 178 145 168 178 145 168 178 130 163 178 130 163 178 186 234 255 208 240 255 208 240 255 208 240 255 208 240 255 145 168 178 145 168 178 208 240 255 208 240 255 145 168 178 208 240 255 208 240 255 208 240 255 186 234 255 130 163 178 145 168 178 208 240 255 221 240 230 221 240 230 221 240 230 154 168 161 221 240 230 154 168 161 154 168 161 154 168 161 154 168 161 221 240 230 221 240 230 221 240 230 221 240 230 221 240 230 243 234 208 221 240 230 221 240 230 208 240 255 208 240 255 208 240 255 208 240 255 208 240 255 208 240 255 208 240 255 208 240 255 186 234 255 121 158 178 174 227 255 174 227 255 174 227 255 174 227 255 174 227 255 174 227 255 174 227 255 174 227 255 174 227 255 174 227 255 174 227 255 174 227 255

159 221 240 159 221 240 116 156 172 116 156 172 116 156 172 116 156 172 116 156 172 116 156 172 116 156 172 116 156 172 121 158 178 121 158 178 121 158 178 121 158 178 121 158 178 130 163 178 130 163 178 130 163 178 130 163 178 130 163 178 130 163 178 130 163 178 208 240 255 208 240 255 208 240 255 145 168 178 145 168 178 145 168 178 130 163 178 130 163 178 208 240 255 208 240 255 145 168 178 221 240 230 221 240 230 145 168 178 208 240 255 130 163 178 130 163 178 121 158 178 121 158 178 174 227 255 121 158 178 186 234 255 121 158 178 121 158 178 174 227 255 121 158 178 174 227 255 174 227 255 174 227 255 174 227 255 174 227 255 174 227 255 116 156 172 166 224 247 166 224 247 166 224 247 174 227 255 174 227 255 174 227 255 174 227 255 166 224 247 174 227 255 116 156 172 174 227 255 174 227 255 186 234 255 186 234 255 130 163 178 186 234 255 186 234 255 130 163 178 208 240 255 208 240 255 221 240 230 221 240 230 243 234 208 243 234 208 243 234 208 216 224 164 216 224 164 216 224 164 151 156 114 176 215 143 176 215 143 123 150 100 155 200 126 155 200 126 143 187 119 143 187 119 143 187 119 100 130 83 107 133 88 107 133 88 154 190 126 107 133 88 116 134 93 166 192 134 166 192 134 116 134 93 175 195 141 175 195 141 185 199 146 185 199 146 129 139 102 185 199 146 129 139 102 129 139 102 129 139 102 129 139 102 129 139 102 185 199 146 185 199 150 185 199 150 195 206 160 195 206 160 205 215 171 205 215 171 215 222 176 215 222 176 224 228 180 224 228 180 234 231 186 240 235 191 240 235 191 240 235 191 240 235 191 237 230 186 237 230 186 237 230 186 237 230 186 237 230 186 165 161 130 237 230 186 237 230 186 240 235 191 240 235 191 240 235 191 168 164 133 168 164 133 240 235 191 240 235 191 240 235 191 240 235 191 240 235 191 168 164 133 240 235 191 163 161 130 163 161 130 156 159 126 150 155 123 150 155 123 224 228 180 156 159 126 150 155 123 150 155 123 150 155 123 215 222 176 215 222 176 150 155 123 143 150 119 143 150 119 136 144 112 129 139 105 129 139 105 129 139 102 129 139 102 122 136 98 122 136 98 116 134 93 116 134 93 116 134 93 116 134 93 107 133 88 107 133 88 100 130 83 100 130 83 108 140 88 155 200 126 155 200 126 123 150 100 123 150 100 123 150 100 151 156 114 216 224 164 216 224 164 216 224 164 216 224 164 151 156 114 170 163 145 170 163 145 170 163 145 154 168 161 154 168 161 154 168 161 145 168 178 145 168 178 130 163 178 130 163 178 186 234 255 186 234 255 186 234 255 208 240 255 208 240 255 145 168 178 130 163 178 130 163 178 208 240 255 145 168 178 145 168 178 208 240 255 145 168 178 145 168 178 208 240 255 186 234 255 208 240 255 208 240 255 221 240 230 154 168 161 145 168 178 154 168 161 221 240 230 154 168 161 154 168 161 154 168 161 221 240 230 221 240 230 221 240 230 221 240 230 221 240 230 221 240 230 221 240 230 154 168 161 154 168 161 221 240 230 221 240 230 221 240 230 208 240 255 221 240 230 221 240 230 208 240 255 208 240 255 130 163 178 186 234 255 186 234 255 186 234 255 174 227 255 174 227 255 174 227 255 174 227 255 174 227 255 174 227 255 174 227 255 174 227 255 174 227 255 174 227 255

151 214 239 105 149 167 111 154 168 111 154 168 111 154 168 111 154 168 111 154 168 111 154 168 166 224 247 116 156 172 116 156 172 116 156 172 174 227 255 121 158 178 121 158 178 121 158 178 121 158 178 121 158 178 121 158 178 121 158 178 121 158 178 186 234 255 186 234 255 208 240 255 208 240 255 145 168 178 145 168 178 130 163 178 130 163 178 130 163 178 208 240 255 145 168 178 221 240 230 221 240 230 145 168 178 145 168 178 145 168 178 130 163 178 130 163 178 121 158 178 174 227 255 174 227 255 174 227 255 174 227 255 121 158 178 174 227 255 186 234 255 174 227 255 186 234 255 186 234 255 174 227 255 174 227 255 174 227 255 174 227 255 174 227 255 174 227 255 174 227 255 174 227 255 174 227 255 174 227 255 174 227 255 174 227 255 174 227 255 166 224 247 121 158 178 174 227 255 174 227 255 174 227 255 186 234 255 121 158 178 121 158 178 130 163 178 130 163 178 208 240 255 208 240 255 221 240 230 221 240 230 221 240 230 243 234 208 243 234 208 243 234 208 216 224 164 216 224 164 216 224 164 176 215 143 176 215 143 155 200 126 155 200 126 155 200 126 155 200 126 143 187 119 100 130 83 143 187 119 154 190 126 154 190 126 154 190 126 154 190 126 154 190 126 166 192 134 116 134 93 166 192 134 175 195 141 175 195 141 175 195 141 185 199 146 129 139 102 129 139 102 185 199 146 185 199 146 129 139 102 185 199 146 185 199 146 129 139 102 185 199 146 185 199 150 195 206 160 195 206 160 205 215 171 215 222 176 215 222 176 215 222 176 224 228 180 234 231 186 234 231 186 240 235 191 240 235 191 237 230 186 237 230 186 237 230 186 165 161 130 237 230 186 237 230 186 165 161 130 237 230 186 237 230 186 237 230 186 237 230 186 240 235 191 240 235 191 240 235 191 240 235 191 240 235 191 240 235 191 240 235 191 237 230 186 240 235 191 240 235 191 163 161 130 163 161 130 163 161 130 156 159 126 156 159 126 150 155 123 150 155 123 150 155 123 150 155 123 150 155 123 150 155 123 215 222 176 215 222 176 143 150 119 143 150 119 143 150 119 136 144 112 129 139 105 129 139 105 129 139 102 129 139 102 122 136 98 122 136 98 175 195 141 116 134 93 116 134 93 116 134 93 107 133 88 107 133 88 154 190 126 100 130 83 108 140 88 155 200 126 108 140 88 123 150 100 123 150 100 123 150 100 123 150 100 151 156 114 176 215 143 151 156 114 151 156 114 151 156 114 151 156 114 243 234 208 170 163 145 170 163 145 154 168 161 145 168 178 145 168 178 145 168 178 130 163 178 130 163 178 130 163 178 130 163 178 208 240 255 208 240 255 208 240 255 145 168 178 130 163 178 186 234 255 208 240 255 208 240 255 208 240 255 208 240 255 208 240 255 208 240 255 208 240 255 208 240 255 208 240 255 208 240 255 221 240 230 145 168 178 145 168 178 208 240 255 145 168 178 145 168 178 145 168 178 145 168 178 221 240 230 154 168 161 221 240 230 243 234 208 243 234 208 221 240 230 221 240 230 221 240 230 221 240 230 221 240 230 221 240 230 221 240 230 221 240 230 221 240 230 221 240 230 221 240 230 221 240 230 208 240 255 208 240 255 186 234 255 186 234 255 186 234 255 186 234 255 186 234 255 186 234 255 186 234 255 174 227 255 186 234 255 186 234 255 186 234 255 186 234 255

151 214 239 105 149 167 105 149 167 105 149 167 159 221 240 105 149 167 111 154 168 111 154 168 111 154 168 111 154 168 111 154 168 111 154 168 116 156 172 116 156 172 116 156 172 116 156 172 116 156 172 116 156 172 116 156 172 121 158 178 121 158 178 121 158 178 130 163 178 186 234 255 145 168 178 145 168 178 130 163 178 130 163 178 130 163 178 130 163 178 208 240 255 208 240 255 208 240 255 145 168 178 145 168 178 145 168 178 130 163 178 130 163 178 121 158 178 121 158 178 174 227 255 174 227 255 174 227 255 174 227 255 186 234 255 121 158 178 186 234 255 186 234 255 186 234 255 186 234 255 186 234 255 186 234 255 186 234 255 174 227 255 174 227 255 174 227 255 174 227 255 174 227 255 174 227 255 121 158 178 174 227 255 174 227 255 121 158 178 121 158 178 116 156 172 116 156 172 174 227 255 174 227 255 121 158 178 121 158 178 121 158 178 186 234 255 186 234 255 186 234 255 208 240 255 221 240 230 243 234 208 243 234 208 243 234 208 243 234 208 243 234 208 216 224 164 151 156 114 151 156 114 216 224 164 176 215 143 176 215 143 123 150 100 108 140 88 155 200 126 143 187 119 143 187 119 143 187 119 154 190 126 154 190 126 154 190 126 154 190 126 154 190 126 166 192 134 166 192 134 166 192 134 116 134 93 175 195 141 185 199 146 175 195 141 185 199 146 129 139 102 185 199 146 129 139 102 129 139 102 129 139 102 129 139 102 185 199 146 185 199 146 185 199 150 185 199 150 195 206 160 205 215 171 205 215 171 215 222 176 224 228 180 224 228 180 224 228 180 234 231 186 240 235 191 237 230 186 237 230 186 237 230 186 237 230 186 237 230 186 237 230 186 237 230 186 237 230 186 237 230 186 237 230 186 237 230 186 165 161 130 165 161 130 240 235 191 240 235 191 240 235 191 240 235 191 240 235 191 240 235 191 237 230 186 168 164 133 168 164 133 163 161 130 163 161 130 163 161 130 156 159 126 156 159 126 224 228 180 150 155 123 150 155 123 150 155 123 143 150 119 143 150 119 143 150 119 143 150 119 143 150 119 143 150 119 136 144 112 136 144 112 129 139 105 129 139 105 129 139 102 122 136 98 122 136 98 116 134 93 116 134 93 116 134 93 107 133 88 107 133 88 107 133 88 107 133 88 107 133 88 100 130 83 100 130 83 108 140 88 108 140 88 108 140 88 176 215 143 123 150 100 151 156 114 176 215 143 216 224 164 151 156 114 151 156 114 170 163 145 170 163 145 170 163 145 154 168 161 154 168 161 154 168 161 145 168 178 145 168 178 130 163 178 130 163 178 130 163 178 186 234 255 186 234 255 186 234 255 145 168 178 130 163 178 130 163 178 130 163 178 208 240 255 208 240 255 145 168 178 208 240 255 208 240 255 145 168 178 208 240 255 208 240 255 208 240 255 208 240 255 145 168 178 208 240 255 145 168 178 145 168 178 208 240 255 145 168 178 208 240 255 221 240 230 221 240 230 221 240 230 154 168 161 221 240 230 221 240 230 154 168 161 170 163 145 243 234 208 243 234 208 154 168 161 221 240 230 243 234 208 243 234 208 243 234 208 243 234 208 243 234 208 243 234 208 221 240 230 221 240 230 208 240 255 208 240 255 208 240 255 186 234 255 186 234 255 186 234 255 186 234 255 186 234 255 186 234 255 186 234 255 186 234 255 186 234 255 186 234 255

144 204 238 100 142 166 105 149 167 105 149 167 105 149 167 105 149 167 159 221 240 159 221 240 111 154 168 111 154 168 111 154 168 111 154 168 111 154 168 111 154 168 116 156 172 111 154 168 116 156 172 116 156 172 116 156 172 116 156 172 116 156 172 121 158 178 174 227 255 121 158 178 186 234 255 130 163 178 130 163 178 130 163 178 130 163 178 130 163 178 186 234 255 208 240 255 208 240 255 145 168 178 145 168 178 130 163 178 130 163 178 130 163 178 121 158 178 174 227 255 174 227 255 121 158 178 121 158 178 174 227 255 186 234 255 121 158 178 186 234 255 186 234 255 208 240 255 186 234 255 186 234 255 130 163 178 186 234 255 186 234 255 174 227 255 121 158 178 186 234 255 186 234 255 174 227 255 174 227 255 174 227 255 121 158 178 121 158 178 174 227 255 116 156 172 166 224 247 174 227 255 174 227 255 121 158 178 121 158 178 121 158 178 186 234 255 186 234 255 186 234 255 208 240 255 221 240 230 243 234 208 243 234 208 243 234 208 243 234 208 216 224 164 216 224 164 151 156 114 216 224 164 216 224 164 216 224 164 151 156 114 176 215 143 155 200 126 155 200 126 143 187 119 143 187 119 154 190 126 154 190 126 154 190 126 154 190 126 154 190 126 154 190 126 166 192 134 166 192 134 116 134 93 166 192 134 175 195 141 185 199 146 185 199 146 185 199 146 185 199 146 185 199 146 129 139 102 122 136 98 122 136 98 185 199 146 129 139 102 185 199 146 185 199 150 185 199 150 195 206 160 205 215 171 215 222 176 215 222 176 224 228 180 224 228 180 234 231 186 234 231 186 237 230 186 240 235 191 237 230 186 237 230 186 232 225 178 232 225 178 232 225 178 232 225 178 237 230 186 165 161 130 165 161 130 165 161 130 237 230 186 237 230 186 237 230 186 168 164 133 168 164 133 168 164 133 237 230 186 240 235 191 237 230 186 168 164 133 168 164 133 163 161 130 234 231 186 234 231 186 234 231 186 156 159 126 224 228 180 150 155 123 150 155 123 143 150 119 143 150 119 205 215 171 143 150 119 205 215 171 143 150 119 136 144 112 136 144 112 129 139 105 129 139 105 129 139 102 122 136 98 122 136 98 122 136 98 116 134 93 116 134 93 107 133 88 107 133 88 107 133 88 107 133 88 107 133 88 154 190 126 100 130 83 100 130 83 108 140 88 155 200 126 123 150 100 123 150 100 123 150 100 176 215 143 216 224 164 151 156 114 151 156 114 216 224 164 216 224 164 170 163 145 243 234 208 243 234 208 221 240 230 154 168 161 145 168 178 130 163 178 130 163 178 208 240 255 186 234 255 186 234 255 186 234 255 130 163 178 186 234 255 130 163 178 130 163 178 130 163 178 208 240 255 208 240 255 208 240 255 208 240 255 208 240 255 208 240 255 208 240 255 208 240 255 145 168 178 130 163 178 145 168 178 208 240 255 208 240 255 221 240 230 208 240 255 221 240 230 221 240 230 221 240 230 221 240 230 221 240 230 154 168 161 221 240 230 221 240 230 243 234 208 243 234 208 243 234 208 243 234 208 243 234 208 243 234 208 216 224 164 216 224 164 216 224 164 216 224 164 216 224 164 243 234 208 243 234 208 154 168 161 145 168 178 208 240 255 208 240 255 130 163 178 130 163 178 208 240 255 208 240 255 208 240 255 208 240 255 208 240 255 208 240 255 208 240 255 221 240 230

138 198 245 144 204 238 100 142 166 100 142 166 151 214 239 105 149 167 105 149 167 105 149 167 105 149 167 105 149 167 159 221 240 159 221 240 111 154 168 111 154 168 159 221 240 111 154 168 111 154 168 166 224 247 116 156 172 116 156 172 166 224 247 166 224 247 174 227 255 174 227 255 186 234 255 130 163 178 121 158 178 121 158 178 130 163 178 130 163 178 130 163 178 130 163 178 130 163 178 145 168 178 130 163 178 130 163 178 130 163 178 130 163 178 121 158 178 174 227 255 121 158 178 121 158 178 121 158 178 174 227 255 174 227 255 121 158 178 186 234 255 186 234 255 186 234 255 130 163 178 186 234 255 130 163 178 121 158 178 130 163 178 186 234 255 186 234 255 186 234 255 186 234 255 130 163 178 186 234 255 174 227 255 174 227 255 174 227 255 174 227 255 174 227 255 174 227 255 174 227 255 174 227 255 121 158 178 174 227 255 174 227 255 174 227 255 186 234 255 186 234 255 208 240 255 221 240 230 154 168 161 154 168 161 170 163 145 243 234 208 216 224 164 216 224 164 151 156 114 216 224 164 151 156 114 151 156 114 151 156 114 176 215 143 123 150 100 155 200 126 155 200 126 143 187 119 143 187 119 107 133 88 154 190 126 154 190 126 154 190 126 154 190 126 154 190 126 107 133 88 166 192 134 166 192 134 175 195 141 175 195 141 185 199 146 129 139 102 122 136 98 122 136 98 122 136 98 122 136 98 122 136 98 185 199 146 129 139 102 185 199 146 185 199 150 195 206 160 195 206 160 195 206 160 205 215 171 215 222 176 215 222 176 224 228 180 224 228 180 234 231 186 240 235 191 168 164 133 237 230 186 165 161 130 165 161 130 165 161 130 232 225 178 232 225 178 165 161 130 237 230 186 237 230 186 237 230 186 237 230 186 165 161 130 237 230 186 168 164 133 240 235 191 168 164 133 240 235 191 168 164 133 237 230 186 168 164 133 240 235 191 240 235 191 240 235 191 163 161 130 156 159 126 156 159 126 150 155 123 150 155 123 150 155 123 150 155 123 143 150 119 143 150 119 136 144 112 136 144 112 143 150 119 136 144 112 136 144 112 129 139 105 129 139 102 129 139 102 122 136 98 122 136 98 116 134 93 116 134 93 107 133 88 107 133 88 107 133 88 107 133 88 100 130 83 107 133 88 100 130 83 100 130 83 108 140 88 108 140 88 123 150 100 123 150 100 123 150 100 151 156 114 151 156 114 151 156 114 170 163 145 170 163 145 170 163 145 170 163 145 170 163 145 170 163 145 170 163 145 154 168 161 145 168 178 145 168 178 208 240 255 208 240 255 186 234 255 208 240 255 186 234 255 186 234 255 130 163 178 186 234 255 186 234 255 186 234 255 208 240 255 208 240 255 208 240 255 208 240 255 208 240 255 145 168 178 145 168 178 145 168 178 145 168 178 130 163 178 130 163 178 208 240 255 208 240 255 145 168 178 208 240 255 154 168 161 221 240 230 145 168 178 145 168 178 145 168 178 221 240 230 154 168 161 221 240 230 243 234 208 243 234 208 243 234 208 243 234 208 216 224 164 216 224 164 216 224 164 216 224 164 216 224 164 216 224 164 216 224 164 216 224 164 151 156 114 243 234 208 170 163 145 154 168 161 221 240 230 208 240 255 145 168 178 208 240 255 208 240 255 208 240 255 208 240 255 208 240 255 208 240 255 208 240 255 208 240 255 208 240 255

138 198 245 138 198 245 96 138 171 144 204 238 100 142 166 100 142 166 105 149 167 105 149 167 105 149 167 105 149 167 159 221 240 159 221 240 105 149 167 159 221 240 159 221 240 111 154 168 159 221 240 166 224 247 166 224 247 166 224 247 166 224 247 166 224 247 174 227 255 121 158 178 186 234 255 121 158 178 121 158 178 174 227 255 121 158 178 121 158 178 121 158 178 186 234 255 186 234 255 130 163 178 130 163 178 130 163 178 130 163 178 121 158 178 121 158 178 174 227 255 174 227 255 121 158 178 121 158 178 174 227 255 174 227 255 186 234 255 186 234 255 186 234 255 208 240 255 208 240 255 130 163 178 130 163 178 121 158 178 174 227 255 186 234 255 186 234 255 186 234 255 130 163 178 186 234 255 186 234 255 186 234 255 186 234 255 186 234 255 186 234 255 186 234 255 174 227 255 174 227 255 174 227 255 121 158 178 174 227 255 174 227 255 174 227 255 186 234 255 186 234 255 208 240 255 221 240 230 154 168 161 221 240 230 221 240 230 243 234 208 216 224 164 151 156 114 151 156 114 216 224 164 170 163 145 170 163 145 216 224 164 216 224 164 176 215 143 176 215 143 155 200 126 155 200 126 143 187 119 143 187 119 154 190 126 107 133 88 107 133 88 107 133 88 166 192 134 107 133 88 166 192 134 166 192 134 175 195 141 175 195 141 185 199 146 185 199 146 129 139 102 122 136 98 122 136 98 122 136 98 175 195 141 185 199 146 185 199 146 185 199 146 185 199 150 195 206 160 195 206 160 205 215 171 205 215 171 215 222 176 215 222 176 224 228 180 234 231 186 234 231 186 240 235 191 237 230 186 237 230 186 237 230 186 237 230 186 232 225 178 232 225 178 165 161 130 232 225 178 237 230 186 237 230 186 165 161 130 237 230 186 165 161 130 237 230 186 168 164 133 168 164 133 168 164 133 240 235 191 240 235 191 237 230 186 168 164 133 240 235 191 168 164 133 240 235 191 163 161 130 234 231 186 156 159 126 156 159 126 150 155 123 150 155 123 143 150 119 143 150 119 136 144 112 143 150 119 195 206 160 136 144 112 136 144 112 129 139 105 129 139 102 129 139 102 122 136 98 122 136 98 116 134 93 116 134 93 107 133 88 107 133 88 100 130 83 100 130 83 100 130 83 100 130 83 100 130 83 100 130 83 108 140 88 108 140 88 123 150 100 123 150 100 151 156 114 151 156 114 151 156 114 151 156 114 170 163 145 170 163 145 170 163 145 170 163 145 170 163 145 170 163 145 243 234 208 154 168 161 154 168 161 154 168 161 145 168 178 208 240 255 208 240 255 208 240 255 208 240 255 208 240 255 186 234 255 208 240 255 186 234 255 186 234 255 186 234 255 208 240 255 208 240 255 208 240 255 145 168 178 145 168 178 145 168 178 208 240 255 208 240 255 145 168 178 208 240 255 186 234 255 208 240 255 208 240 255 145 168 178 208 240 255 145 168 178 145 168 178 145 168 178 208 240 255 221 240 230 208 240 255 221 240 230 221 240 230 243 234 208 243 234 208 243 234 208 216 224 164 216 224 164 176 215 143 216 224 164 176 215 143 216 224 164 216 224 164 176 215 143 176 215 143 151 156 114 216 224 164 243 234 208 170 163 145 221 240 230 221 240 230 208 240 255 221 240 230 221 240 230 221 240 230 208 240 255 145 168 178 208 240 255 208 240 255 221 240 230 221 240 230

130 194 240 96 138 171 96 138 171 96 138 171 144 204 238 144 204 238 151 214 239 105 149 167 151 214 239 105 149 167 105 149 167 105 149 167 105 149 167 159 221 240 159 221 240 111 154 168 166 224 247 166 224 247 111 154 168 111 154 168 166 224 247 166 224 247 166 224 247 174 227 255 174 227 255 121 158 178 174 227 255 121 158 178 121 158 178 121 158 178 121 158 178 121 158 178 121 158 178 121 158 178 130 163 178 130 163 178 121 158 178 121 158 178 121 158 178 121 158 178 121 158 178 121 158 178 174 227 255 174 227 255 174 227 255 174 227 255 130 163 178 130 163 178 186 234 255 130 163 178 130 163 178 186 234 255 186 234 255 186 234 255 174 227 255 130 163 178 186 234 255 130 163 178 186 234 255 130 163 178 186 234 255 186 234 255 186 234 255 186 234 255 186 234 255 186 234 255 121 158 178 174 227 255 174 227 255 174 227 255 174 227 255 186 234 255 186 234 255 208 240 255 208 240 255 208 240 255 221 240 230 221 240 230 154 168 161 221 240 230 243 234 208 170 163 145 170 163 145 170 163 145 170 163 145 243 234 208 216 224 164 216 224 164 216 224 164 176 215 143 176 215 143 155 200 126 155 200 126 100 130 83 143 187 119 100 130 83 154 190 126 154 190 126 154 190 126 107 133 88 166 192 134 166 192 134 166 192 134 175 195 141 175 195 141 129 139 102 122 136 98 122 136 98 175 195 141 185 199 146 185 199 146 185 199 146 129 139 102 185 199 146 185 199 150 195 206 160 195 206 160 205 215 171 205 215 171 215 222 176 215 222 176 224 228 180 234 231 186 240 235 191 240 235 191 240 235 191 168 164 133 237 230 186 237 230 186 232 225 178 232 225 178 232 225 178 232 225 178 162 157 124 237 230 186 165 161 130 237 230 186 165 161 130 237 230 186 168 164 133 168 164 133 240 235 191 240 235 191 240 235 191 168 164 133 168 164 133 240 235 191 168 164 133 240 235 191 163 161 130 163 161 130 156 159 126 150 155 123 150 155 123 143 150 119 143 150 119 143 150 119 136 144 112 136 144 112 136 144 112 129 139 105 129 139 105 129 139 102 129 139 102 122 136 98 122 136 98 116 134 93 116 134 93 107 133 88 107 133 88 107 133 88 100 130 83 100 130 83 100 130 83 100 130 83 108 140 88 108 140 88 108 140 88 123 150 100 123 150 100 151 156 114 151 156 114 151 156 114 151 156 114 170 163 145 170 163 145 170 163 145 170 163 145 170 163 145 170 163 145 154 168 161 154 168 161 154 168 161 145 168 178 145 168 178 145 168 178 145 168 178 145 168 178 130 163 178 145 168 178 130 163 178 130 163 178 130 163 178 130 163 178 186 234 255 186 234 255 208 240 255 208 240 255 145 168 178 145 168 178 208 240 255 208 240 255 208 240 255 145 168 178 208 240 255 208 240 255 208 240 255 208 240 255 208 240 255 208 240 255 145 168 178 208 240 255 208 240 255 208 240 255 208 240 255 221 240 230 221 240 230 221 240 230 243 234 208 243 234 208 243 234 208 216 224 164 216 224 164 176 215 143 176 215 143 176 215 143 176 215 143 176 215 143 176 215 143 176 215 143 176 215 143 123 150 100 216 224 164 216 224 164 243 234 208 243 234 208 243 234 208 221 240 230 221 240 230 221 240 230 221 240 230 154 168 161 145 168 178 208 240 255 221 240 230 221 240 230 221 240 230

130 194 240 91 135 168 138 198 245 138 198 245 138 198 245 144 204 238 144 204 238 100 142 166 151 214 239 151 214 239 105 149 167 151 214 239 151 214 239 159 221 240 159 221 240 111 154 168 166 224 247 111 154 168 111 154 168 111 154 168 111 154 168 111 154 168 116 156 172 166 224 247 174 227 255 174 227 255 174 227 255 121 158 178 121 158 178 121 158 178 121 158 178 121 158 178 121 158 178 121 158 178 121 158 178 121 158 178 121 158 178 121 158 178 121 158 178 174 227 255 174 227 255 174 227 255 121 158 178 174 227 255 174 227 255 174 227 255 186 234 255 186 234 255 186 234 255 130 163 178 186 234 255 130 163 178 130 163 178 186 234 255 121 158 178 174 227 255 186 234 255 130 163 178 186 234 255 186 234 255 208 240 255 186 234 255 208 240 255 186 234 255 186 234 255 186 234 255 186 234 255 174 227 255 174 227 255 174 227 255 186 234 255 186 234 255 186 234 255 208 240 255 208 240 255 221 240 230 221 240 230 221 240 230 221 240 230 221 240 230 243 234 208 243 234 208 170 163 145 170 163 145 170 163 145 243 234 208 216 224 164 216 224 164 176 215 143 176 215 143 155 200 126 155 200 126 155 200 126 143 187 119 154 190 126 100 130 83 154 190 126 154 190 126 166 192 134 107 133 88 166 192 134 166 192 134 166 192 134 175 195 141 175 195 141 175 195 141 129 139 102 185 199 146 185 199 146 185 199 146 122 136 98 185 199 146 129 139 102 185 199 146 185 199 150 185 199 150 195 206 160 205 215 171 205 215 171 205 215 171 215 222 176 224 228 180 234 231 186 234 231 186 240 235 191 240 235 191 237 230 186 237 230 186 232 225 178 232 225 178 232 225 178 232 225 178 232 225 178 162 157 124 165 161 130 165 161 130 237 230 186 237 230 186 165 161 130 168 164 133 240 235 191 240 235 191 240 235 191 240 235 191 240 235 191 168 164 133 168 164 133 163 161 130 240 235 191 163 161 130 163 161 130 156 159 126 150 155 123 143 150 119 143 150 119 136 144 112 136 144 112 129 139 105 129 139 105 129 139 105 129 139 105 129 139 102 129 139 102 122 136 98 129 139 102 122 136 98 116 134 93 107 133 88 107 133 88 107 133 88 100 130 83 100 130 83 100 130 83 100 130 83 108 140 88 108 140 88 108 140 88 123 150 100 123 150 100 151 156 114 151 156 114 151 156 114 170 163 145 170 163 145 170 163 145 170 163 145 154 168 161 243 234 208 170 163 145 154 168 161 243 234 208 221 240 230 154 168 161 145 168 178 145 168 178 145 168 178 145 168 178 130 163 178 130 163 178 130 163 178 208 240 255 130 163 178 130 163 178 130 163 178 186 234 255 208 240 255 208 240 255 208 240 255 208 240 255 208 240 255 208 240 255 208 240 255 208 240 255 208 240 255 208 240 255 208 240 255 208 240 255 208 240 255 208 240 255 130 163 178 130 163 178 208 240 255 208 240 255 145 168 178 145 168 178 221 240 230 221 240 230 221 240 230 243 234 208 243 234 208 216 224 164 216 224 164 176 215 143 176 215 143 176 215 143 176 215 143 155 200 126 155 200 126 155 200 126 155 200 126 155 200 126 123 150 100 176 215 143 176 215 143 176 215 143 216 224 164 216 224 164 243 234 208 243 234 208 243 234 208 243 234 208 221 240 230 221 240 230 221 240 230 221 240 230 221 240 230 243 234 208

130 194 240 130 194 240 138 198 245 138 198 245 144 204 238 144 204 238 144 204 238 151 214 239 151 214 239 105 149 167 105 149 167 151 214 239 105 149 167 151 214 239 105 149 167 111 154 168 159 221 240 111 154 168 111 154 168 111 154 168 111 154 168 159 221 240 166 224 247 166 224 247 174 227 255 121 158 178 121 158 178 121 158 178 116 156 172 174 227 255 174 227 255 174 227 255 174 227 255 174 227 255 174 227 255 174 227 255 121 158 178 121 158 178 116 156 172 174 227 255 121 158 178 121 158 178 116 156 172 121 158 178 116 156 172 121 158 178 121 158 178 186 234 255 186 234 255 186 234 255 186 234 255 130 163 178 130 163 178 130 163 178 121 158 178 186 234 255 186 234 255 130 163 178 186 234 255 186 234 255 186 234 255 208 240 255 186 234 255 130 163 178 130 163 178 130 163 178 186 234 255 130 163 178 186 234 255 186 234 255 174 227 255 186 234 255 186 234 255 208 240 255 208 240 255 221 240 230 221 240 230 221 240 230 221 240 230 221 240 230 221 240 230 154 168 161 170 163 145 243 234 208 243 234 208 243 234 208 216 224 164 216 224 164 151 156 114 151 156 114 176 215 143 123 150 100 155 200 126 155 200 126 143 187 119 100 130 83 154 190 126 154 190 126 154 190 126 107 133 88 154 190 126 107 133 88 116 134 93 166 192 134 175 195 141 122 136 98 122 136 98 122 136 98 185 199 146 185 199 146 185 199 146 185 199 146 122 136 98 185 199 146 185 199 150 185 199 150 195 206 160 136 144 112 205 215 171 205 215 171 215 222 176 215 222 176 224 228 180 234 231 186 240 235 191 240 235 191 237 230 186 237 230 186 237 230 186 162 157 124 165 161 130 162 157 124 165 161 130 165 161 130 165 161 130 165 161 130 237 230 186 165 161 130 165 161 130 165 161 130 240 235 191 240 235 191 240 235 191 168 164 133 168 164 133 240 235 191 168 164 133 163 161 130 163 161 130 163 161 130 156 159 126 156 159 126 150 155 123 143 150 119 143 150 119 136 144 112 136 144 112 129 139 105 129 139 105 129 139 105 129 139 102 129 139 102 122 136 98 122 136 98 122 136 98 116 134 93 107 133 88 107 133 88 107 133 88 100 130 83 100 130 83 100 130 83 100 130 83 108 140 88 108 140 88 108 140 88 123 150 100 123 150 100 123 150 100 151 156 114 151 156 114 170 163 145 170 163 145 170 163 145 170 163 145 154 168 161 154 168 161 243 234 208 154 168 161 154 168 161 154 168 161 154 168 161 154 168 161 145 168 178 145 168 178 145 168 178 130 163 178 130 163 178 130 163 178 186 234 255 208 240 255 130 163 178 186 234 255 186 234 255 186 234 255 186 234 255 208 240 255 208 240 255 208 240 255 208 240 255 208 240 255 145 168 178 145 168 178 208 240 255 145 168 178 145 168 178 208 240 255 145 168 178 130 163 178 130 163 178 130 163 178 186 234 255 208 240 255 145 168 178 208 240 255 221 240 230 221 240 230 243 234 208 243 234 208 216 224 164 216 224 164 176 215 143 176 215 143 176 215 143 176 215 143 176 215 143 176 215 143 155 200 126 155 200 126 155 200 126 155 200 126 108 140 88 176 215 143 176 215 143 151 156 114 151 156 114 216 224 164 216 224 164 243 234 208 243 234 208 243 234 208 243 234 208 221 240 230 221 240 230 243 234 208 221 240 230 221 240 230

130 194 240 91 135 168 138 198 245 138 198 245 144 204 238 144 204 238 144 204 238 144 204 238 151 214 239 151 214 239 151 214 239 151 214 239 151 214 239 151 214 239 151 214 239 151 214 239 159 221 240 111 154 168 111 154 168 159 221 240 159 221 240 159 221 240 159 221 240 166 224 247 166 224 247 116 156 172 116 156 172 116 156 172 116 156 172 166 224 247 174 227 255 174 227 255 174 227 255 174 227 255 174 227 255 174 227 255 121 158 178 174 227 255 174 227 255 174 227 255 116 156 172 116 156 172 174 227 255 116 156 172 174 227 255 174 227 255 174 227 255 186 234 255 186 234 255 130 163 178 186 234 255 130 163 178 130 163 178 186 234 255 186 234 255 186 234 255 186 234 255 130 163 178 186 234 255 130 163 178 186 234 255 186 234 255 208 240 255 208 240 255 186 234 255 186 234 255 186 234 255 186 234 255 186 234 255 186 234 255 186 234 255 186 234 255 186 234 255 208 240 255 208 240 255 221 240 230 221 240 230 221 240 230 221 240 230 221 240 230 243 234 208 243 234 208 243 234 208 243 234 208 243 234 208 243 234 208 243 234 208 216 224 164 151 156 114 216 224 164 176 215 143 176 215 143 155 200 126 155 200 126 143 187 119 143 187 119 154 190 126 154 190 126 107 133 88 154 190 126 154 190 126 154 190 126 154 190 126 107 133 88 166 192 134 116 134 93 116 134 93 175 195 141 175 195 141 185 199 146 185 199 146 185 199 146 129 139 102 185 199 146 185 199 150 185 199 150 185 199 150 195 206 160 195 206 160 205 215 171 205 215 171 215 222 176 224 228 180 224 228 180 234 231 186 240 235 191 237 230 186 237 230 186 232 225 178 237 230 186 162 157 124 232 225 178 165 161 130 232 225 178 237 230 186 237 230 186 237 230 186 165 161 130 165 161 130 168 164 133 237 230 186 237 230 186 237 230 186 240 235 191 168 164 133 168 164 133 240 235 191 163 161 130 163 161 130 156 159 126 156 159 126 156 159 126 150 155 123 143 150 119 143 150 119 143 150 119 136 144 112 129 139 105 129 139 105 129 139 102 122 136 98 122 136 98 122 136 98 122 136 98 122 136 98 116 134 93 107 133 88 107 133 88 100 130 83 100 130 83 143 187 119 143 187 119 100 130 83 108 140 88 108 140 88 123 150 100 123 150 100 151 156 114 151 156 114 151 156 114 170 163 145 170 163 145 170 163 145 170 163 145 154 168 161 154 168 161 243 234 208 221 240 230 154 168 161 154 168 161 154 168 161 154 168 161 145 168 178 145 168 178 145 168 178 208 240 255 130 163 178 186 234 255 186 234 255 208 240 255 208 240 255 208 240 255 186 234 255 186 234 255 186 234 255 186 234 255 208 240 255 208 240 255 208 240 255 145 168 178 145 168 178 145 168 178 145 168 178 208 240 255 145 168 178 130 163 178 208 240 255 145 168 178 130 163 178 186 234 255 130 163 178 208 240 255 208 240 255 221 240 230 221 240 230 221 240 230 243 234 208 243 234 208 243 234 208 216 224 164 216 224 164 176 215 143 176 215 143 176 215 143 176 215 143 176 215 143 176 215 143 155 200 126 143 187 119 155 200 126 155 200 126 108 140 88 123 150 100 123 150 100 123 150 100 151 156 114 216 224 164 216 224 164 216 224 164 243 234 208 170 163 145 243 234 208 243 234 208 221 240 230 243 234 208 154 168 161 154 168 161

122 190 238 91 135 168 130 194 240 138 198 245 138 198 245 144 204 238 144 204 238 144 204 238 151 214 239 151 214 239 151 214 239 105 149 167 151 214 239 151 214 239 105 149 167 159 221 240 159 221 240 105 149 167 105 149 167 111 154 168 159 221 240 111 154 168 159 221 240 159 221 240 166 224 247 116 156 172 116 156 172 116 156 172 116 156 172 166 224 247 116 156 172 174 227 255 174 227 255 174 227 255 174 227 255 121 158 178 121 158 178 121 158 178 121 158 178 174 227 255 116 156 172 166 224 247 166 224 247 116 156 172 116 156 172 174 227 255 121 158 178 174 227 255 186 234 255 130 163 178 186 234 255 130 163 178 186 234 255 186 234 255 186 234 255 186 234 255 186 234 255 186 234 255 186 234 255 130 163 178 130 163 178 186 234 255 130 163 178 130 163 178 130 163 178 186 234 255 130 163 178 186 234 255 130 163 178 186 234 255 186 234 255 186 234 255 186 234 255 186 234 255 208 240 255 208 240 255 221 240 230 154 168 161 221 240 230 243 234 208 243 234 208 243 234 208 170 163 145 243 234 208 170 163 145 170 163 145 170 163 145 216 224 164 216 224 164 216 224 164 176 215 143 155 200 126 155 200 126 143 187 119 143 187 119 154 190 126 154 190 126 107 133 88 107 133 88 154 190 126 107 133 88 154 190 126 154 190 126 107 133 88 107 133 88 116 134 93 116 134 93 166 192 134 175 195 141 175 195 141 185 199 146 185 199 146 185 199 146 185 199 146 185 199 146 129 139 105 185 199 150 195 206 160 195 206 160 205 215 171 205 215 171 215 222 176 224 228 180 234 231 186 234 231 186 240 235 191 240 235 191 237 230 186 237 230 186 162 157 124 165 161 130 165 161 130 165 161 130 232 225 178 165 161 130 165 161 130 237 230 186 165 161 130 237 230 186 237 230 186 237 230 186 168 164 133 168 164 133 168 164 133 168 164 133 240 235 191 168 164 133 163 161 130 163 161 130 156 159 126 156 159 126 156 159 126 150 155 123 150 155 123 143 150 119 136 144 112 136 144 112 129 139 105 129 139 102 122 136 98 122 136 98 122 136 98 116 134 93 116 134 93 116 134 93 116 134 93 107 133 88 107 133 88 154 190 126 154 190 126 143 187 119 100 130 83 100 130 83 108 140 88 108 140 88 123 150 100 123 150 100 151 156 114 151 156 114 170 163 145 170 163 145 170 163 145 154 168 161 170 163 145 154 168 161 221 240 230 221 240 230 154 168 161 154 168 161 145 168 178 145 168 178 145 168 178 145 168 178 145 168 178 145 168 178 130 163 178 208 240 255 186 234 255 208 240 255 208 240 255 208 240 255 208 240 255 130 163 178 186 234 255 208 240 255 208 240 255 208 240 255 208 240 255 130 163 178 145 168 178 208 240 255 145 168 178 130 163 178 130 163 178 145 168 178 130 163 178 130 163 178 130 163 178 130 163 178 186 234 255 130 163 178 208 240 255 208 240 255 221 240 230 221 240 230 221 240 230 243 234 208 243 234 208 243 234 208 216 224 164 216 224 164 176 215 143 155 200 126 155 200 126 155 200 126 176 215 143 155 200 126 155 200 126 155 200 126 143 187 119 143 187 119 155 200 126 123 150 100 176 215 143 176 215 143 176 215 143 176 215 143 176 215 143 151 156 114 151 156 114 243 234 208 243 234 208 243 234 208 170 163 145 243 234 208 154 168 161 154 168 161

115 184 235 130 194 240 130 194 240 138 198 245 138 198 245 138 198 245 100 142 166 100 142 166 151 214 239 100 142 166 100 142 166 151 214 239 151 214 239 151 214 239 105 149 167 151 214 239 159 221 240 105 149 167 105 149 167 159 221 240 159 221 240 105 149 167 159 221 240 159 221 240 166 224 247 116 156 172 111 154 168 111 154 168 166 224 247 116 156 172 116 156 172 174 227 255 174 227 255 121 158 178 121 158 178 121 158 178 121 158 178 121 158 178 174 227 255 174 227 255 121 158 178 166 224 247 166 224 247 116 156 172 166 224 247 166 224 247 174 227 255 174 227 255 186 234 255 186 234 255 186 234 255 186 234 255 186 234 255 186 234 255 186 234 255 186 234 255 208 240 255 186 234 255 130 163 178 186 234 255 186 234 255 186 234 255 130 163 178 186 234 255 208 240 255 186 234 255 130 163 178 130 163 178 130 163 178 130 163 178 186 234 255 186 234 255 208 240 255 208 240 255 208 240 255 208 240 255 221 240 230 221 240 230 221 240 230 221 240 230 243 234 208 154 168 161 243 234 208 154 168 161 154 168 161 154 168 161 243 234 208 243 234 208 216 224 164 176 215 143 155 200 126 155 200 126 143 187 119 143 187 119 143 187 119 154 190 126 154 190 126 107 133 88 154 190 126 154 190 126 154 190 126 154 190 126 154 190 126 107 133 88 107 133 88 107 133 88 107 133 88 166 192 134 175 195 141 175 195 141 185 199 146 185 199 146 185 199 146 185 199 146 185 199 150 185 199 150 185 199 150 195 206 160 205 215 171 205 215 171 205 215 171 215 222 176 215 222 176 224 228 180 240 235 191 240 235 191 240 235 191 237 230 186 232 225 178 237 230 186 165 161 130 237 230 186 237 230 186 237 230 186 232 225 178 165 161 130 237 230 186 165 161 130 168 164 133 237 230 186 237 230 186 237 230 186 240 235 191 168 164 133 168 164 133 163 161 130 163 161 130 163 161 130 163 161 130 156 159 126 150 155 123 156 159 126 150 155 123 150 155 123 143 150 119 143 150 119 136 144 112 129 139 105 129 139 102 122 136 98 116 134 93 116 134 93 116 134 93 116 134 93 116 134 93 107 133 88 107 133 88 100 130 83 154 190 126 100 130 83 100 130 83 108 140 88 100 130 83 108 140 88 123 150 100 123 150 100 151 156 114 151 156 114 216 224 164 170 163 145 170 163 145 243 234 208 170 163 145 221 240 230 154 168 161 221 240 230 221 240 230 154 168 161 145 168 178 145 168 178 145 168 178 208 240 255 145 168 178 145 168 178 130 163 178 208 240 255 186 234 255 130 163 178 208 240 255 208 240 255 208 240 255 145 168 178 145 168 178 208 240 255 208 240 255 208 240 255 208 240 255 208 240 255 208 240 255 186 234 255 208 240 255 145 168 178 145 168 178 130 163 178 130 163 178 130 163 178 186 234 255 186 234 255 186 234 255 208 240 255 208 240 255 208 240 255 221 240 230 221 240 230 221 240 230 243 234 208 243 234 208 243 234 208 216 224 164 216 224 164 176 215 143 176 215 143 155 200 126 155 200 126 155 200 126 155 200 126 155 200 126 155 200 126 143 187 119 143 187 119 154 190 126 143 187 119 108 140 88 155 200 126 176 215 143 123 150 100 176 215 143 176 215 143 176 215 143 176 215 143 216 224 164 216 224 164 243 234 208 170 163 145 243 234 208 154 168 161 221 240 230

122 190 238 122 190 238 130 194 240 138 198 245 138 198 245 96 138 171 138 198 245 144 204 238 100 142 166 100 142 166 100 142 166 144 204 238 100 142 166 100 142 166 105 149 167 105 149 167 105 149 167 105 149 167 105 149 167 105 149 167 105 149 167 105 149 167 159 221 240 159 221 240 159 221 240 111 154 168 111 154 168 159 221 240 111 154 168 116 156 172 166 224 247 166 224 247 174 227 255 121 158 178 116 156 172 121 158 178 121 158 178 116 156 172 116 156 172 116 156 172 116 156 172 116 156 172 116 156 172 116 156 172 166 224 247 116 156 172 116 156 172 174 227 255 121 158 178 121 158 178 186 234 255 130 163 178 130 163 178 130 163 178 186 234 255 186 234 255 186 234 255 130 163 178 121 158 178 121 158 178 186 234 255 186 234 255 186 234 255 186 234 255 130 163 178 130 163 178 121 158 178 186 234 255 130 163 178 186 234 255 186 234 255 186 234 255 208 240 255 208 240 255 208 240 255 208 240 255 221 240 230 221 240 230 221 240 230 154 168 161 221 240 230 154 168 161 154 168 161 154 168 161 154 168 161 221 240 230 243 234 208 243 234 208 216 224 164 216 224 164 176 215 143 155 200 126 155 200 126 108 140 88 143 187 119 143 187 119 100 130 83 107 133 88 154 190 126 154 190 126 154 190 126 107 133 88 154 190 126 107 133 88 154 190 126 154 190 126 166 192 134 166 192 134 175 195 141 175 195 141 185 199 146 185 199 146 185 199 146 185 199 146 185 199 150 185 199 150 185 199 150 195 206 160 195 206 160 205 215 171 205 215 171 215 222 176 224 228 180 234 231 186 240 235 191 168 164 133 240 235 191 240 235 191 237 230 186 165 161 130 237 230 186 237 230 186 165 161 130 165 161 130 165 161 130 165 161 130 168 164 133 168 164 133 168 164 133 240 235 191 168 164 133 168 164 133 168 164 133 168 164 133 163 161 130 163 161 130 156 159 126 156 159 126 156 159 126 150 155 123 150 155 123 150 155 123 150 155 123 143 150 119 143 150 119 143 150 119 136 144 112 129 139 105 129 139 102 122 136 98 122 136 98 116 134 93 107 133 88 107 133 88 107 133 88 107 133 88 107 133 88 107 133 88 100 130 83 100 130 83 100 130 83 108 140 88 108 140 88 108 140 88 123 150 100 123 150 100 151 156 114 151 156 114 151 156 114 170 163 145 170 163 145 170 163 145 243 234 208 243 234 208 154 168 161 221 240 230 221 240 230 154 168 161 145 168 178 208 240 255 208 240 255 208 240 255 145 168 178 208 240 255 145 168 178 208 240 255 208 240 255 208 240 255 208 240 255 208 240 255 208 240 255 145 168 178 208 240 255 208 240 255 208 240 255 145 168 178 145 168 178 145 168 178 208 240 255 208 240 255 208 240 255 208 240 255 208 240 255 208 240 255 208 240 255 186 234 255 208 240 255 208 240 255 208 240 255 208 240 255 208 240 255 221 240 230 221 240 230 243 234 208 243 234 208 243 234 208 243 234 208 216 224 164 216 224 164 216 224 164 176 215 143 155 200 126 155 200 126 108 140 88 155 200 126 155 200 126 155 200 126 155 200 126 143 187 119 143 187 119 143 187 119 100 130 83 108 140 88 155 200 126 155 200 126 155 200 126 176 215 143 176 215 143 176 215 143 123 150 100 176 215 143 216 224 164 216 224 164 243 234 208 243 234 208 243 234 208 243 234 208

115 184 235 122 190 238 130 194 240 130 194 240 138 198 245 96 138 171 144 204 238 96 138 171 96 138 171 96 138 171 144 204 238 144 204 238 100 142 166 100 142 166 100 142 166 100 142 166 100 142 166 100 142 166 105 149 167 105 149 167 151 214 239 105 149 167 159 221 240 105 149 167 111 154 168 111 154 168 111 154 168 159 221 240 111 154 168 111 154 168 111 154 168 116 156 172 116 156 172 116 156 172 116 156 172 116 156 172 116 156 172 116 156 172 116 156 172 116 156 172 166 224 247 166 224 247 116 156 172 111 154 168 116 156 172 116 156 172 166 224 247 166 224 247 116 156 172 121 158 178 121 158 178 121 158 178 121 158 178 121 158 178 130 163 178 186 234 255 130 163 178 121 158 178 121 158 178 174 227 255 186 234 255 130 163 178 186 234 255 130 163 178 130 163 178 130 163 178 186 234 255 186 234 255 186 234 255 186 234 255 208 240 255 208 240 255 208 240 255 145 168 178 208 240 255 221 240 230 221 240 230 221 240 230 221 240 230 221 240 230 243 234 208 154 168 161 154 168 161 154 168 161 154 168 161 221 240 230 221 240 230 243 234 208 216 224 164 176 215 143 176 215 143 155 200 126 108 140 88 155 200 126 143 187 119 143 187 119 143 187 119 143 187 119 154 190 126 154 190 126 154 190 126 107 133 88 107 133 88 107 133 88 154 190 126 154 190 126 166 192 134 166 192 134 175 195 141 175 195 141 175 195 141 122 136 98 185 199 146 185 199 146 185 199 150 185 199 150 195 206 160 195 206 160 195 206 160 205 215 171 215 222 176 215 222 176 224 228 180 234 231 186 240 235 191 240 235 191 240 235 191 240 235 191 237 230 186 165 161 130 237 230 186 165 161 130 237 230 186 165 161 130 237 230 186 165 161 130 168 164 133 240 235 191 237 230 186 240 235 191 240 235 191 168 164 133 168 164 133 163 161 130 163 161 130 156 159 126 156 159 126 156 159 126 156 159 126 150 155 123 150 155 123 150 155 123 143 150 119 143 150 119 143 150 119 136 144 112 136 144 112 129 139 102 122 136 98 122 136 98 122 136 98 116 134 93 107 133 88 107 133 88 107 133 88 100 130 83 107 133 88 100 130 83 100 130 83 100 130 83 108 140 88 108 140 88 108 140 88 123 150 100 123 150 100 123 150 100 151 156 114 151 156 114 216 224 164 170 163 145 170 163 145 243 234 208 243 234 208 243 234 208 243 234 208 221 240 230 154 168 161 154 168 161 145 168 178 208 240 255 221 240 230 208 240 255 221 240 230 145 168 178 145 168 178 208 240 255 208 240 255 208 240 255 208 240 255 208 240 255 208 240 255 208 240 255 208 240 255 208 240 255 130 163 178 145 168 178 145 168 178 208 240 255 208 240 255 208 240 255 208 240 255 145 168 178 145 168 178 145 168 178 208 240 255 208 240 255 208 240 255 208 240 255 208 240 255 208 240 255 221 240 230 221 240 230 243 234 208 243 234 208 243 234 208 243 234 208 216 224 164 216 224 164 216 224 164 216 224 164 176 215 143 155 200 126 155 200 126 155 200 126 155 200 126 155 200 126 143 187 119 143 187 119 143 187 119 143 187 119 100 130 83 100 130 83 100 130 83 155 200 126 155 200 126 108 140 88 123 150 100 123 150 100 176 215 143 176 215 143 176 215 143 151 156 114 176 215 143 216 224 164 216 224 164 216 224 164 243 234 208

115 184 235 122 190 238 122 190 238 130 194 240 130 194 240 91 135 168 138 198 245 96 138 171 138 198 245 96 138 171 96 138 171 96 138 171 100 142 166 100 142 166 100 142 166 100 142 166 100 142 166 100 142 166 100 142 166 100 142 166 100 142 166 105 149 167 105 149 167 105 149 167 105 149 167 105 149 167 105 149 167 159 221 240 159 221 240 159 221 240 159 221 240 111 154 168 111 154 168 111 154 168 111 154 168 111 154 168 111 154 168 111 154 168 111 154 168 111 154 168 116 156 172 116 156 172 111 154 168 116 156 172 159 221 240 111 154 168 111 154 168 166 224 247 166 224 247 166 224 247 116 156 172 121 158 178 121 158 178 121 158 178 121 158 178 121 158 178 130 163 178 121 158 178 121 158 178 174 227 255 174 227 255 121 158 178 186 234 255 121 158 178 121 158 178 186 234 255 186 234 255 186 234 255 186 234 255 186 234 255 208 240 255 208 240 255 208 240 255 208 240 255 208 240 255 208 240 255 221 240 230 221 240 230 221 240 230 221 240 230 221 240 230 154 168 161 154 168 161 221 240 230 221 240 230 221 240 230 221 240 230 243 234 208 216 224 164 176 215 143 176 215 143 155 200 126 155 200 126 143 187 119 143 187 119 143 187 119 143 187 119 154 190 126 154 190 126 154 190 126 154 190 126 107 133 88 154 190 126 154 190 126 154 190 126 154 190 126 166 192 134 166 192 134 175 195 141 175 195 141 175 195 141 175 195 141 185 199 146 129 139 102 185 199 146 185 199 150 195 206 160 195 206 160 195 206 160 205 215 171 215 222 176 215 222 176 224 228 180 224 228 180 234 231 186 163 161 130 240 235 191 240 235 191 237 230 186 168 164 133 165 161 130 165 161 130 237 230 186 165 161 130 168 164 133 168 164 133 168 164 133 168 164 133 168 164 133 168 164 133 168 164 133 163 161 130 163 161 130 163 161 130 156 159 126 156 159 126 156 159 126 156 159 126 150 155 123 150 155 123 143 150 119 143 150 119 143 150 119 143 150 119 143 150 119 136 144 112 129 139 105 129 139 102 122 136 98 122 136 98 116 134 93 116 134 93 107 133 88 107 133 88 107 133 88 107 133 88 143 187 119 100 130 83 108 140 88 108 140 88 108 140 88 108 140 88 123 150 100 123 150 100 123 150 100 151 156 114 151 156 114 151 156 114 170 163 145 170 163 145 170 163 145 243 234 208 243 234 208 170 163 145 154 168 161 154 168 161 221 240 230 145 168 178 145 168 178 221 240 230 221 240 230 221 240 230 221 240 230 145 168 178 208 240 255 208 240 255 208 240 255 208 240 255 208 240 255 208 240 255 208 240 255 208 240 255 208 240 255 145 168 178 130 163 178 208 240 255 208 240 255 208 240 255 208 240 255 208 240 255 208 240 255 145 168 178 208 240 255 208 240 255 208 240 255 208 240 255 208 240 255 221 240 230 221 240 230 221 240 230 221 240 230 243 234 208 243 234 208 243 234 208 243 234 208 216 224 164 216 224 164 216 224 164 216 224 164 176 215 143 176 215 143 155 200 126 155 200 126 155 200 126 155 200 126 155 200 126 143 187 119 143 187 119 143 187 119 143 187 119 100 130 83 100 130 83 100 130 83 108 140 88 108 140 88 108 140 88 155 200 126 155 200 126 155 200 126 155 200 126 176 215 143 176 215 143 176 215 143 176 215 143 176 215 143 216 224 164 216 224 164

115 184 235 115 184 235 122 190 238 122 190 238 130 194 240 130 194 240 130 194 240 91 135 168 91 135 168 96 138 171 96 138 171 138 198 245 138 198 245 96 138 171 96 138 171 96 138 171 96 138 171 96 138 171 144 204 238 100 142 166 100 142 166 144 204 238 151 214 239 105 149 167 105 149 167 105 149 167 105 149 167 151 214 239 159 221 240 111 154 168 111 154 168 111 154 168 159 221 240 111 154 168 159 221 240 111 154 168 111 154 168 111 154 168 111 154 168 111 154 168 159 221 240 111 154 168 111 154 168 111 154 168 111 154 168 111 154 168 111 154 168 111 154 168 166 224 247 116 156 172 116 156 172 116 156 172 116 156 172 116 156 172 174 227 255 174 227 255 174 227 255 121 158 178 121 158 178 121 158 178 121 158 178 121 158 178 174 227 255 186 234 255 186 234 255 121 158 178 130 163 178 186 234 255 208 240 255 208 240 255 208 240 255 208 240 255 221 240 230 221 240 230 208 240 255 208 240 255 221 240 230 221 240 230 221 240 230 221 240 230 154 168 161 154 168 161 221 240 230 221 240 230 221 240 230 221 240 230 243 234 208 243 234 208 216 224 164 216 224 164 176 215 143 176 215 143 155 200 126 155 200 126 143 187 119 143 187 119 143 187 119 154 190 126 154 190 126 154 190 126 166 192 134 154 190 126 154 190 126 154 190 126 154 190 126 154 190 126 166 192 134 166 192 134 175 195 141 122 136 98 122 136 98 175 195 141 185 199 146 185 199 146 185 199 146 185 199 150 195 206 160 195 206 160 195 206 160 205 215 171 215 222 176 215 222 176 215 222 176 224 228 180 234 231 186 240 235 191 240 235 191 168 164 133 168 164 133 237 230 186 237 230 186 237 230 186 237 230 186 168 164 133 237 230 186 168 164 133 240 235 191 168 164 133 168 164 133 163 161 130 168 164 133 240 235 191 163 161 130 163 161 130 156 159 126 156 159 126 156 159 126 150 155 123 150 155 123 143 150 119 143 150 119 143 150 119 143 150 119 136 144 112 136 144 112 129 139 105 129 139 105 129 139 102 122 136 98 116 134 93 116 134 93 116 134 93 107 133 88 107 133 88 100 130 83 100 130 83 100 130 83 108 140 88 108 140 88 108 140 88 108 140 88 123 150 100 123 150 100 123 150 100 123 150 100 151 156 114 151 156 114 151 156 114 170 163 145 170 163 145 243 234 208 243 234 208 243 234 208 170 163 145 154 168 161 154 168 161 154 168 161 154 168 161 221 240 230 221 240 230 221 240 230 145 168 178 221 240 230 145 168 178 208 240 255 208 240 255 208 240 255 208 240 255 208 240 255 221 240 230 221 240 230 208 240 255 145 168 178 145 168 178 208 240 255 208 240 255 208 240 255 208 240 255 208 240 255 208 240 255 145 168 178 145 168 178 208 240 255 208 240 255 208 240 255 208 240 255 208 240 255 221 240 230 221 240 230 243 234 208 243 234 208 243 234 208 216 224 164 216 224 164 216 224 164 216 224 164 216 224 164 216 224 164 176 215 143 176 215 143 155 200 126 155 200 126 155 200 126 155 200 126 155 200 126 155 200 126 143 187 119 143 187 119 100 130 83 143 187 119 143 187 119 100 130 83 143 187 119 108 140 88 155 200 126 155 200 126 155 200 126 155 200 126 143 187 119 155 200 126 108 140 88 155 200 126 155 200 126 155 200 126 176 215 143 151 156 114 216 224 164

115 184 235 122 190 238 122 190 238 122 190 238 130 194 240 91 135 168 91 135 168 91 135 168 138 198 245 138 198 245 138 198 245 138 198 245 96 138 171 96 138 171 96 138 171 96 138 171 96 138 171 138 198 245 144 204 238 144 204 238 100 142 166 144 204 238 144 204 238 100 142 166 100 142 166 100 142 166 100 142 166 105 149 167 151 214 239 105 149 167 105 149 167 105 149 167 159 221 240 111 154 168 111 154 168 111 154 168 105 149 167 105 149 167 111 154 168 159 221 240 111 154 168 111 154 168 111 154 168 105 149 167 105 149 167 105 149 167 105 149 167 159 221 240 111 154 168 111 154 168 111 154 168 111 154 168 111 154 168 116 156 172 116 156 172 116 156 172 116 156 172 121 158 178 116 156 172 121 158 178 174 227 255 174 227 255 174 227 255 174 227 255 121 158 178 121 158 178 186 234 255 186 234 255 186 234 255 130 163 178 208 240 255 208 240 255 145 168 178 145 168 178 145 168 178 221 240 230 221 240 230 154 168 161 221 240 230 154 168 161 145 168 178 145 168 178 221 240 230 154 168 161 221 240 230 221 240 230 221 240 230 243 234 208 243 234 208 216 224 164 176 215 143 176 215 143 155 200 126 155 200 126 143 187 119 143 187 119 143 187 119 154 190 126 154 190 126 154 190 126 154 190 126 107 133 88 107 133 88 107 133 88 107 133 88 107 133 88 166 192 134 166 192 134 175 195 141 122 136 98 122 136 98 175 195 141 185 199 146 185 199 146 185 199 150 185 199 150 185 199 150 195 206 160 195 206 160 205 215 171 215 222 176 215 222 176 215 222 176 224 228 180 234 231 186 234 231 186 163 161 130 168 164 133 240 235 191 237 230 186 168 164 133 237 230 186 168 164 133 237 230 186 240 235 191 237 230 186 240 235 191 168 164 133 168 164 133 163 161 130 163 161 130 163 161 130 163 161 130 163 161 130 234 231 186 224 228 180 156 159 126 150 155 123 150 155 123 150 155 123 143 150 119 143 150 119 143 150 119 136 144 112 136 144 112 129 139 105 129 139 102 129 139 102 122 136 98 122 136 98 116 134 93 107 133 88 107 133 88 107 133 88 100 130 83 100 130 83 100 130 83 108 140 88 108 140 88 108 140 88 123 150 100 123 150 100 123 150 100 151 156 114 151 156 114 151 156 114 216 224 164 216 224 164 170 163 145 243 234 208 243 234 208 243 234 208 170 163 145 170 163 145 154 168 161 154 168 161 154 168 161 145 168 178 221 240 230 221 240 230 145 168 178 221 240 230 145 168 178 145 168 178 208 240 255 145 168 178 208 240 255 208 240 255 208 240 255 208 240 255 221 240 230 145 168 178 145 168 178 208 240 255 208 240 255 130 163 178 208 240 255 145 168 178 145 168 178 145 168 178 208 240 255 145 168 178 208 240 255 208 240 255 208 240 255 208 240 255 208 240 255 221 240 230 221 240 230 243 234 208 243 234 208 243 234 208 216 224 164 216 224 164 216 224 164 216 224 164 176 215 143 176 215 143 176 215 143 176 215 143 176 215 143 108 140 88 155 200 126 155 200 126 155 200 126 143 187 119 143 187 119 143 187 119 143 187 119 143 187 119 143 187 119 143 187 119 143 187 119 143 187 119 155 200 126 155 200 126 155 200 126 155 200 126 143 187 119 108 140 88 155 200 126 155 200 126 155 200 126 108 140 88 155 200 126 123 150 100 176 215 143

122 190 238 122 190 238 80 128 164 122 190 238 122 190 238 85 133 166 91 135 168 130 194 240 138 198 245 138 198 245 138 198 245 138 198 245 96 138 171 96 138 171 91 135 168 91 135 168 91 135 168 138 198 245 138 198 245 96 138 171 100 142 166 96 138 171 100 142 166 100 142 166 144 204 238 144 204 238 144 204 238 100 142 166 151 214 239 105 149 167 151 214 239 151 214 239 151 214 239 105 149 167 105 149 167 105 149 167 105 149 167 151 214 239 105 149 167 105 149 167 105 149 167 105 149 167 105 149 167 105 149 167 105 149 167 100 142 166 105 149 167 105 149 167 159 221 240 111 154 168 159 221 240 111 154 168 111 154 168 111 154 168 111 154 168 116 156 172 116 156 172 116 156 172 116 156 172 174 227 255 174 227 255 174 227 255 174 227 255 174 227 255 121 158 178 174 227 255 186 234 255 186 234 255 186 234 255 130 163 178 208 240 255 208 240 255 208 240 255 221 240 230 221 240 230 221 240 230 145 168 178 145 168 178 145 168 178 145 168 178 145 168 178 145 168 178 221 240 230 145 168 178 221 240 230 221 240 230 243 234 208 243 234 208 243 234 208 216 224 164 176 215 143 176 215 143 176 215 143 155 200 126 143 187 119 100 130 83 143 187 119 154 190 126 154 190 126 154 190 126 154 190 126 107 133 88 107 133 88 107 133 88 154 190 126 154 190 126 166 192 134 166 192 134 166 192 134 116 134 93 175 195 141 175 195 141 185 199 146 185 199 146 185 199 146 185 199 150 185 199 150 195 206 160 195 206 160 205 215 171 205 215 171 215 222 176 215 222 176 224 228 180 234 231 186 234 231 186 234 231 186 240 235 191 240 235 191 168 164 133 168 164 133 240 235 191 237 230 186 240 235 191 165 161 130 237 230 186 168 164 133 168 164 133 163 161 130 163 161 130 234 231 186 234 231 186 240 235 191 163 161 130 163 161 130 156 159 126 156 159 126 150 155 123 150 155 123 143 150 119 143 150 119 205 215 171 143 150 119 136 144 112 136 144 112 129 139 105 129 139 102 129 139 102 129 139 102 122 136 98 116 134 93 107 133 88 107 133 88 100 130 83 154 190 126 100 130 83 108 140 88 108 140 88 108 140 88 123 150 100 123 150 100 123 150 100 123 150 100 123 150 100 216 224 164 216 224 164 216 224 164 151 156 114 170 163 145 243 234 208 243 234 208 243 234 208 170 163 145 170 163 145 243 234 208 221 240 230 154 168 161 154 168 161 221 240 230 145 168 178 221 240 230 221 240 230 145 168 178 221 240 230 208 240 255 208 240 255 208 240 255 145 168 178 208 240 255 208 240 255 221 240 230 145 168 178 145 168 178 145 168 178 145 168 178 130 163 178 186 234 255 208 240 255 208 240 255 130 163 178 145 168 178 145 168 178 208 240 255 208 240 255 221 240 230 221 240 230 221 240 230 243 234 208 243 234 208 243 234 208 243 234 208 243 234 208 216 224 164 216 224 164 216 224 164 216 224 164 176 215 143 176 215 143 176 215 143 176 215 143 155 200 126 155 200 126 155 200 126 155 200 126 143 187 119 143 187 119 154 190 126 143 187 119 143 187 119 143 187 119 154 190 126 143 187 119 143 187 119 100 130 83 143 187 119 143 187 119 155 200 126 155 200 126 143 187 119 108 140 88 143 187 119 155 200 126 108 140 88 108 140 88 155 200 126 123 150 100 155 200 126

122 190 238 80 128 164 80 128 164 80 128 164 122 190 238 122 190 238 122 190 238 130 194 240 138 198 245 91 135 168 96 138 171 96 138 171 96 138 171 91 135 168 91 135 168 91 135 168 130 194 240 138 198 245 138 198 245 138 198 245 138 198 245 96 138 171 96 138 171 96 138 171 144 204 238 100 142 166 144 204 238 100 142 166 144 204 238 105 149 167 105 149 167 105 149 167 105 149 167 105 149 167 105 149 167 105 149 167 100 142 166 105 149 167 105 149 167 105 149 167 100 142 166 100 142 166 100 142 166 105 149 167 100 142 166 100 142 166 151 214 239 105 149 167 151 214 239 105 149 167 159 221 240 111 154 168 111 154 168 111 154 168 111 154 168 159 221 240 166 224 247 166 224 247 166 224 247 174 227 255 174 227 255 121 158 178 174 227 255 121 158 178 174 227 255 174 227 255 174 227 255 130 163 178 186 234 255 130 163 178 186 234 255 145 168 178 145 168 178 145 168 178 145 168 178 145 168 178 145 168 178 208 240 255 145 168 178 145 168 178 145 168 178 145 168 178 145 168 178 145 168 178 221 240 230 221 240 230 221 240 230 243 234 208 243 234 208 216 224 164 216 224 164 176 215 143 176 215 143 155 200 126 155 200 126 143 187 119 154 190 126 154 190 126 154 190 126 154 190 126 107 133 88 107 133 88 107 133 88 154 190 126 154 190 126 154 190 126 166 192 134 166 192 134 166 192 134 166 192 134 175 195 141 175 195 141 175 195 141 185 199 146 185 199 146 185 199 150 185 199 150 185 199 150 195 206 160 195 206 160 205 215 171 143 150 119 215 222 176 224 228 180 224 228 180 234 231 186 240 235 191 240 235 191 240 235 191 168 164 133 240 235 191 168 164 133 168 164 133 168 164 133 168 164 133 168 164 133 168 164 133 168 164 133 168 164 133 163 161 130 234 231 186 163 161 130 163 161 130 163 161 130 234 231 186 163 161 130 156 159 126 150 155 123 150 155 123 143 150 119 143 150 119 143 150 119 136 144 112 129 139 105 129 139 105 129 139 102 129 139 102 122 136 98 122 136 98 122 136 98 116 134 93 107 133 88 107 133 88 107 133 88 100 130 83 100 130 83 108 140 88 108 140 88 108 140 88 123 150 100 123 150 100 176 215 143 151 156 114 123 150 100 151 156 114 216 224 164 176 215 143 216 224 164 216 224 164 243 234 208 170 163 145 170 163 145 170 163 145 243 234 208 154 168 161 154 168 161 154 168 161 221 240 230 221 240 230 221 240 230 221 240 230 221 240 230 221 240 230 221 240 230 145 168 178 145 168 178 145 168 178 145 168 178 208 240 255 208 240 255 208 240 255 145 168 178 145 168 178 145 168 178 208 240 255 130 163 178 186 234 255 186 234 255 130 163 178 130 163 178 208 240 255 208 240 255 208 240 255 221 240 230 221 240 230 243 234 208 243 234 208 243 234 208 243 234 208 243 234 208 243 234 208 243 234 208 243 234 208 216 224 164 216 224 164 216 224 164 176 215 143 123 150 100 176 215 143 176 215 143 155 200 126 155 200 126 155 200 126 155 200 126 143 187 119 143 187 119 154 190 126 100 130 83 154 190 126 154 190 126 154 190 126 107 133 88 100 130 83 100 130 83 143 187 119 100 130 83 108 140 88 143 187 119 143 187 119 143 187 119 108 140 88 108 140 88 108 140 88 155 200 126 155 200 126 155 200 126 155 200 126

122 190 238 80 128 164 80 128 164 115 184 235 115 184 235 85 133 166 85 133 166 130 194 240 138 198 245 91 135 168 91 135 168 138 198 245 96 138 171 91 135 168 138 198 245 130 194 240 130 194 240 130 194 240 91 135 168 138 198 245 96 138 171 96 138 171 96 138 171 96 138 171 144 204 238 144 204 238 100 142 166 96 138 171 100 142 166 96 138 171 100 142 166 100 142 166 105 149 167 100 142 166 100 142 166 100 142 166 100 142 166 144 204 238 100 142 166 100 142 166 100 142 166 144 204 238 144 204 238 100 142 166 100 142 166 100 142 166 100 142 166 100 142 166 100 142 166 105 149 167 151 214 239 159 221 240 111 154 168 111 154 168 159 221 240 159 221 240 166 224 247 116 156 172 166 224 247 174 227 255 174 227 255 121 158 178 121 158 178 174 227 255 174 227 255 121 158 178 121 158 178 174 227 255 121 158 178 121 158 178 186 234 255 186 234 255 208 240 255 208 240 255 145 168 178 145 168 178 208 240 255 145 168 178 208 240 255 145 168 178 145 168 178 208 240 255 208 240 255 208 240 255 208 240 255 221 240 230 221 240 230 243 234 208 243 234 208 243 234 208 216 224 164 151 156 114 176 215 143 155 200 126 155 200 126 143 187 119 154 190 126 154 190 126 154 190 126 154 190 126 107 133 88 107 133 88 107 133 88 154 190 126 154 190 126 154 190 126 166 192 134 166 192 134 116 134 93 166 192 134 175 195 141 175 195 141 175 195 141 185 199 146 185 199 146 185 199 150 185 199 150 195 206 160 195 206 160 195 206 160 195 206 160 205 215 171 215 222 176 224 228 180 234 231 186 234 231 186 240 235 191 240 235 191 237 230 186 168 164 133 240 235 191 240 235 191 240 235 191 168 164 133 168 164 133 168 164 133 168 164 133 163 161 130 163 161 130 163 161 130 234 231 186 234 231 186 234 231 186 234 231 186 240 235 191 156 159 126 156 159 126 150 155 123 150 155 123 143 150 119 143 150 119 136 144 112 129 139 105 129 139 105 129 139 102 129 139 102 129 139 102 122 136 98 122 136 98 122 136 98 116 134 93 107 133 88 107 133 88 154 190 126 100 130 83 100 130 83 108 140 88 108 140 88 123 150 100 123 150 100 176 215 143 123 150 100 123 150 100 216 224 164 176 215 143 216 224 164 176 215 143 151 156 114 151 156 114 170 163 145 170 163 145 243 234 208 243 234 208 170 163 145 243 234 208 243 234 208 221 240 230 145 168 178 145 168 178 145 168 178 221 240 230 221 240 230 243 234 208 221 240 230 145 168 178 145 168 178 145 168 178 145 168 178 208 240 255 208 240 255 145 168 178 145 168 178 145 168 178 145 168 178 130 163 178 130 163 178 130 163 178 130 163 178 130 163 178 186 234 255 208 240 255 208 240 255 221 240 230 221 240 230 243 234 208 243 234 208 216 224 164 243 234 208 243 234 208 170 163 145 243 234 208 216 224 164 216 224 164 216 224 164 216 224 164 216 224 164 176 215 143 176 215 143 176 215 143 176 215 143 155 200 126 155 200 126 155 200 126 155 200 126 143 187 119 143 187 119 154 190 126 100 130 83 100 130 83 100 130 83 154 190 126 100 130 83 100 130 83 100 130 83 100 130 83 100 130 83 143 187 119 143 187 119 143 187 119 100 130 83 143 187 119 155 200 126 155 200 126 155 200 126 155 200 126 155 200 126 143 187 119

115 184 235 80 128 164 80 128 164 115 184 235 80 128 164 115 184 235 122 190 238 130 194 240 130 194 240 91 135 168 130 194 240 130 194 240 91 135 168 138 198 245 91 135 168 91 135 168 91 135 168 91 135 168 91 135 168 130 194 240 91 135 168 91 135 168 96 138 171 138 198 245 138 198 245 96 138 171 96 138 171 96 138 171 96 138 171 96 138 171 138 198 245 100 142 166 100 142 166 100 142 166 100 142 166 100 142 166 100 142 166 100 142 166 100 142 166 100 142 166 100 142 166 144 204 238 100 142 166 100 142 166 100 142 166 100 142 166 144 204 238 100 142 166 100 142 166 144 204 238 105 149 167 105 149 167 105 149 167 105 149 167 105 149 167 159 221 240 159 221 240 111 154 168 111 154 168 166 224 247 116 156 172 121 158 178 174 227 255 174 227 255 121 158 178 121 158 178 121 158 178 174 227 255 121 158 178 186 234 255 186 234 255 186 234 255 186 234 255 145 168 178 145 168 178 145 168 178 208 240 255 208 240 255 145 168 178 145 168 178 145 168 178 208 240 255 208 240 255 221 240 230 208 240 255 221 240 230 221 240 230 243 234 208 216 224 164 216 224 164 216 224 164 216 224 164 176 215 143 155 200 126 155 200 126 143 187 119 143 187 119 107 133 88 154 190 126 154 190 126 154 190 126 154 190 126 154 190 126 154 190 126 154 190 126 154 190 126 154 190 126 107 133 88 107 133 88 166 192 134 166 192 134 175 195 141 185 199 146 185 199 146 185 199 150 185 199 150 185 199 150 195 206 160 195 206 160 195 206 160 205 215 171 215 222 176 215 222 176 224 228 180 234 231 186 234 231 186 240 235 191 168 164 133 240 235 191 168 164 133 240 235 191 240 235 191 240 235 191 168 164 133 240 235 191 240 235 191 163 161 130 168 164 133 163 161 130 240 235 191 240 235 191 234 231 186 234 231 186 234 231 186 163 161 130 163 161 130 156 159 126 156 159 126 150 155 123 143 150 119 143 150 119 136 144 112 129 139 105 129 139 105 129 139 102 129 139 102 122 136 98 122 136 98 116 134 93 116 134 93 107 133 88 107 133 88 100 130 83 100 130 83 100 130 83 108 140 88 108 140 88 123 150 100 123 150 100 123 150 100 123 150 100 123 150 100 176 215 143 176 215 143 176 215 143 176 215 143 176 215 143 151 156 114 151 156 114 151 156 114 170 163 145 243 234 208 243 234 208 170 163 145 243 234 208 170 163 145 154 168 161 145 168 178 208 240 255 145 168 178 221 240 230 221 240 230 154 168 161 154 168 161 145 168 178 208 240 255 130 163 178 130 163 178 130 163 178 145 168 178 145 168 178 145 168 178 208 240 255 130 163 178 130 163 178 130 163 178 130 163 178 186 234 255 130 163 178 186 234 255 208 240 255 208 240 255 221 240 230 221 240 230 221 240 230 243 234 208 243 234 208 170 163 145 170 163 145 170 163 145 243 234 208 216 224 164 216 224 164 216 224 164 216 224 164 151 156 114 216 224 164 151 156 114 123 150 100 176 215 143 155 200 126 155 200 126 155 200 126 155 200 126 143 187 119 143 187 119 100 130 83 100 130 83 100 130 83 143 187 119 154 190 126 107 133 88 100 130 83 100 130 83 100 130 83 143 187 119 100 130 83 143 187 119 143 187 119 143 187 119 108 140 88 108 140 88 155 200 126 143 187 119 143 187 119 143 187 119 143 187 119

115 184 235 80 128 164 80 128 164 115 184 235 115 184 235 115 184 235 122 190 238 122 190 238 85 133 166 85 133 166 91 135 168 91 135 168 91 135 168 91 135 168 91 135 168 130 194 240 138 198 245 130 194 240 130 194 240 138 198 245 138 198 245 91 135 168 138 198 245 138 198 245 96 138 171 138 198 245 96 138 171 96 138 171 96 138 171 96 138 171 96 138 171 96 138 171 96 138 171 96 138 171 96 138 171 96 138 171 144 204 238 96 138 171 100 142 166 144 204 238 144 204 238 96 138 171 96 138 171 96 138 171 96 138 171 96 138 171 144 204 238 96 138 171 144 204 238 144 204 238 151 214 239 151 214 239 151 214 239 105 149 167 105 149 167 151 214 239 105 149 167 159 221 240 166 224 247 166 224 247 174 227 255 166 224 247 116 156 172 116 156 172 116 156 172 116 156 172 174 227 255 174 227 255 121 158 178 174 227 255 186 234 255 186 234 255 186 234 255 130 163 178 130 163 178 208 240 255 208 240 255 145 168 178 208 240 255 208 240 255 208 240 255 208 240 255 208 240 255 208 240 255 221 240 230 221 240 230 221 240 230 243 234 208 216 224 164 216 224 164 176 215 143 176 215 143 176 215 143 176 215 143 155 200 126 155 200 126 143 187 119 143 187 119 100 130 83 154 190 126 154 190 126 154 190 126 154 190 126 154 190 126 154 190 126 154 190 126 166 192 134 166 192 134 166 192 134 166 192 134 166 192 134 175 195 141 185 199 146 185 199 146 185 199 150 185 199 150 195 206 160 195 206 160 195 206 160 195 206 160 205 215 171 215 222 176 224 228 180 224 228 180 234 231 186 234 231 186 234 231 186 168 164 133 240 235 191 168 164 133 240 235 191 168 164 133 240 235 191 168 164 133 168 164 133 163 161 130 240 235 191 234 231 186 240 235 191 240 235 191 240 235 191 240 235 191 240 235 191 234 231 186 234 231 186 156 159 126 156 159 126 150 155 123 150 155 123 143 150 119 143 150 119 136 144 112 129 139 105 129 139 102 129 139 102 129 139 102 122 136 98 122 136 98 116 134 93 107 133 88 107 133 88 107 133 88 100 130 83 100 130 83 108 140 88 108 140 88 123 150 100 123 150 100 151 156 114 151 156 114 151 156 114 151 156 114 176 215 143 176 215 143 151 156 114 151 156 114 123 150 100 151 156 114 151 156 114 170 163 145 170 163 145 243 234 208 243 234 208 170 163 145 243 234 208 154 168 161 154 168 161 145 168 178 145 168 178 145 168 178 208 240 255 221 240 230 154 168 161 145 168 178 145 168 178 145 168 178 145 168 178 208 240 255 208 240 255 208 240 255 208 240 255 145 168 178 208 240 255 208 240 255 186 234 255 130 163 178 130 163 178 186 234 255 186 234 255 186 234 255 208 240 255 208 240 255 221 240 230 221 240 230 221 240 230 221 240 230 170 163 145 170 163 145 243 234 208 243 234 208 216 224 164 216 224 164 216 224 164 216 224 164 216 224 164 216 224 164 176 215 143 216 224 164 176 215 143 176 215 143 155 200 126 155 200 126 155 200 126 155 200 126 143 187 119 143 187 119 143 187 119 143 187 119 143 187 119 143 187 119 154 190 126 100 130 83 100 130 83 143 187 119 143 187 119 143 187 119 100 130 83 143 187 119 143 187 119 143 187 119 100 130 83 143 187 119 155 200 126 143 187 119 143 187 119 143 187 119 143 187 119

109 180 231 76 126 161 76 126 161 80 128 164 80 128 164 80 128 164 80 128 164 85 133 166 122 190 238 130 194 240 122 190 238 130 194 240 130 194 240 130 194 240 91 135 168 130 194 240 91 135 168 91 135 168 130 194 240 130 194 240 91 135 168 91 135 168 138 198 245 138 198 245 138 198 245 138 198 245 96 138 171 96 138 171 91 135 168 138 198 245 91 135 168 91 135 168 91 135 168 91 135 168 96 138 171 96 138 171 96 138 171 96 138 171 138 198 245 100 142 166 100 142 166 96 138 171 96 138 171 96 138 171 96 138 171 138 198 245 138 198 245 96 138 171 138 198 245 144 204 238 144 204 238 151 214 239 105 149 167 105 149 167 151 214 239 151 214 239 105 149 167 159 221 240 159 221 240 111 154 168 166 224 247 116 156 172 116 156 172 116 156 172 166 224 247 166 224 247 116 156 172 116 156 172 116 156 172 174 227 255 174 227 255 130 163 178 130 163 178 130 163 178 186 234 255 208 240 255 208 240 255 208 240 255 208 240 255 208 240 255 145 168 178 208 240 255 208 240 255 208 240 255 221 240 230 221 240 230 243 234 208 243 234 208 243 234 208 216 224 164 176 215 143 176 215 143 176 215 143 176 215 143 155 200 126 143 187 119 143 187 119 100 130 83 143 187 119 154 190 126 154 190 126 107 133 88 107 133 88 107 133 88 166 192 134 154 190 126 166 192 134 166 192 134 166 192 134 116 134 93 116 134 93 175 195 141 175 195 141 185 199 146 185 199 150 185 199 150 185 199 150 195 206 160 195 206 160 195 206 160 205 215 171 215 222 176 224 228 180 224 228 180 234 231 186 234 231 186 234 231 186 240 235 191 240 235 191 240 235 191 240 235 191 240 235 191 240 235 191 240 235 191 240 235 191 163 161 130 234 231 186 168 164 133 240 235 191 168 164 133 240 235 191 168 164 133 163 161 130 163 161 130 163 161 130 156 159 126 156 159 126 150 155 123 143 150 119 143 150 119 143 150 119 136 144 112 129 139 105 129 139 102 129 139 102 122 136 98 116 134 93 116 134 93 107 133 88 107 133 88 107 133 88 107 133 88 100 130 83 108 140 88 108 140 88 123 150 100 123 150 100 123 150 100 151 156 114 151 156 114 151 156 114 216 224 164 176 215 143 123 150 100 151 156 114 151 156 114 151 156 114 151 156 114 216 224 164 170 163 145 243 234 208 216 224 164 243 234 208 170 163 145 243 234 208 154 168 161 154 168 161 154 168 161 221 240 230 208 240 255 145 168 178 145 168 178 145 168 178 145 168 178 208 240 255 145 168 178 208 240 255 130 163 178 208 240 255 208 240 255 130 163 178 145 168 178 208 240 255 145 168 178 130 163 178 130 163 178 186 234 255 186 234 255 186 234 255 186 234 255 208 240 255 208 240 255 208 240 255 154 168 161 154 168 161 221 240 230 221 240 230 243 234 208 243 234 208 216 224 164 243 234 208 216 224 164 216 224 164 216 224 164 216 224 164 176 215 143 151 156 114 176 215 143 176 215 143 155 200 126 155 200 126 155 200 126 143 187 119 143 187 119 143 187 119 143 187 119 143 187 119 143 187 119 143 187 119 154 190 126 154 190 126 107 133 88 143 187 119 143 187 119 143 187 119 143 187 119 143 187 119 143 187 119 143 187 119 100 130 83 143 187 119 143 187 119 143 187 119 143 187 119 154 190 126 154 190 126 154 190 126

109 180 231 76 126 161 76 126 161 76 126 161 115 184 235 76 126 161 80 128 164 115 184 235 122 190 238 122 190 238 130 194 240 130 194 240 130 194 240 130 194 240 91 135 168 130 194 240 91 135 168 130 194 240 130 194 240 130 194 240 91 135 168 130 194 240 138 198 245 138 198 245 138 198 245 91 135 168 91 135 168 91 135 168 91 135 168 130 194 240 91 135 168 91 135 168 91 135 168 85 133 166 91 135 168 91 135 168 91 135 168 91 135 168 96 138 171 96 138 171 96 138 171 96 138 171 96 138 171 138 198 245 138 198 245 138 198 245 96 138 171 96 138 171 144 204 238 144 204 238 144 204 238 100 142 166 151 214 239 151 214 239 151 214 239 105 149 167 105 149 167 151 214 239 111 154 168 159 221 240 166 224 247 111 154 168 111 154 168 116 156 172 166 224 247 116 156 172 116 156 172 111 154 168 116 156 172 166 224 247 174 227 255 174 227 255 186 234 255 186 234 255 186 234 255 208 240 255 208 240 255 145 168 178 145 168 178 221 240 230 221 240 230 208 240 255 221 240 230 208 240 255 221 240 230 243 234 208 243 234 208 243 234 208 216 224 164 216 224 164 176 215 143 176 215 143 176 215 143 176 215 143 155 200 126 155 200 126 143 187 119 100 130 83 143 187 119 154 190 126 154 190 126 154 190 126 107 133 88 107 133 88 166 192 134 107 133 88 154 190 126 107 133 88 166 192 134 116 134 93 166 192 134 175 195 141 185 199 146 185 199 146 185 199 150 185 199 150 195 206 160 195 206 160 195 206 160 205 215 171 205 215 171 215 222 176 224 228 180 234 231 186 234 231 186 234 231 186 240 235 191 240 235 191 237 230 186 237 230 186 168 164 133 240 235 191 240 235 191 168 164 133 168 164 133 163 161 130 163 161 130 234 231 186 163 161 130 163 161 130 163 161 130 163 161 130 240 235 191 163 161 130 156 159 126 156 159 126 150 155 123 150 155 123 150 155 123 205 215 171 143 150 119 136 144 112 129 139 105 129 139 102 129 139 102 122 136 98 116 134 93 116 134 93 107 133 88 107 133 88 107 133 88 100 130 83 100 130 83 108 140 88 123 150 100 123 150 100 123 150 100 151 156 114 151 156 114 216 224 164 216 224 164 176 215 143 176 215 143 176 215 143 176 215 143 216 224 164 176 215 143 216 224 164 151 156 114 170 163 145 216 224 164 216 224 164 170 163 145 243 234 208 243 234 208 154 168 161 243 234 208 221 240 230 221 240 230 145 168 178 208 240 255 208 240 255 221 240 230 208 240 255 208 240 255 145 168 178 145 168 178 130 163 178 208 240 255 208 240 255 130 163 178 208 240 255 145 168 178 145 168 178 208 240 255 130 163 178 186 234 255 186 234 255 186 234 255 186 234 255 208 240 255 208 240 255 208 240 255 145 168 178 221 240 230 221 240 230 243 234 208 243 234 208 243 234 208 216 224 164 216 224 164 243 234 208 216 224 164 216 224 164 216 224 164 151 156 114 151 156 114 216 224 164 176 215 143 176 215 143 155 200 126 143 187 119 143 187 119 143 187 119 154 190 126 143 187 119 100 130 83 143 187 119 154 190 126 154 190 126 154 190 126 154 190 126 154 190 126 143 187 119 154 190 126 143 187 119 154 190 126 143 187 119 143 187 119 100 130 83 143 187 119 143 187 119 143 187 119 143 187 119 154 190 126 154 190 126 154 190 126

102 175 227 71 122 158 71 122 158 71 122 158 109 180 231 76 126 161 109 180 231 115 184 235 122 190 238 85 133 166 130 194 240 130 194 240 85 133 166 85 133 166 91 135 168 130 194 240 91 135 168 130 194 240 130 194 240 130 194 240 130 194 240 138 198 245 138 198 245 138 198 245 138 198 245 96 138 171 138 198 245 91 135 168 130 194 240 91 135 168 91 135 168 91 135 168 85 133 166 85 133 166 85 133 166 85 133 166 91 135 168 91 135 168 130 194 240 96 138 171 96 138 171 96 138 171 96 138 171 96 138 171 96 138 171 96 138 171 96 138 171 138 198 245 138 198 245 144 204 238 100 142 166 100 142 166 144 204 238 100 142 166 151 214 239 151 214 239 151 214 239 151 214 239 159 221 240 159 221 240 159 221 240 111 154 168 159 221 240 166 224 247 166 224 247 116 156 172 111 154 168 166 224 247 166 224 247 166 224 247 174 227 255 174 227 255 121 158 178 121 158 178 186 234 255 208 240 255 208 240 255 208 240 255 221 240 230 221 240 230 221 240 230 154 168 161 221 240 230 145 168 178 221 240 230 221 240 230 243 234 208 243 234 208 216 224 164 151 156 114 216 224 164 176 215 143 176 215 143 176 215 143 155 200 126 155 200 126 155 200 126 108 140 88 143 187 119 143 187 119 107 133 88 154 190 126 154 190 126 154 190 126 154 190 126 107 133 88 107 133 88 166 192 134 166 192 134 166 192 134 166 192 134 175 195 141 175 195 141 185 199 146 185 199 146 185 199 150 195 206 160 195 206 160 195 206 160 205 215 171 215 222 176 224 228 180 224 228 180 234 231 186 234 231 186 240 235 191 240 235 191 237 230 186 237 230 186 237 230 186 237 230 186 240 235 191 240 235 191 168 164 133 168 164 133 168 164 133 163 161 130 163 161 130 163 161 130 234 231 186 163 161 130 163 161 130 234 231 186 163 161 130 163 161 130 156 159 126 224 228 180 150 155 123 143 150 119 143 150 119 136 144 112 136 144 112 129 139 105 129 139 102 129 139 102 122 136 98 116 134 93 116 134 93 107 133 88 107 133 88 100 130 83 100 130 83 100 130 83 108 140 88 123 150 100 123 150 100 123 150 100 176 215 143 216 224 164 216 224 164 151 156 114 176 215 143 176 215 143 151 156 114 151 156 114 151 156 114 151 156 114 151 156 114 151 156 114 151 156 114 216 224 164 216 224 164 170 163 145 243 234 208 170 163 145 243 234 208 154 168 161 154 168 161 154 168 161 145 168 178 208 240 255 145 168 178 221 240 230 221 240 230 208 240 255 145 168 178 130 163 178 145 168 178 130 163 178 130 163 178 130 163 178 208 240 255 208 240 255 208 240 255 130 163 178 130 163 178 186 234 255 208 240 255 208 240 255 208 240 255 208 240 255 208 240 255 208 240 255 208 240 255 221 240 230 221 240 230 243 234 208 170 163 145 243 234 208 243 234 208 170 163 145 151 156 114 216 224 164 216 224 164 216 224 164 151 156 114 216 224 164 176 215 143 176 215 143 155 200 126 155 200 126 143 187 119 143 187 119 154 190 126 143 187 119 100 130 83 143 187 119 143 187 119 154 190 126 154 190 126 154 190 126 154 190 126 154 190 126 154 190 126 154 190 126 154 190 126 154 190 126 154 190 126 100 130 83 143 187 119 143 187 119 143 187 119 154 190 126 154 190 126 154 190 126 154 190 126 154 190 126

102 175 227 71 122 158 71 122 158 71 122 158 102 175 227 76 126 161 115 184 235 115 184 235 122 190 238 122 190 238 122 190 238 130 194 240 91 135 168 122 190 238 130 194 240 130 194 240 85 133 166 91 135 168 130 194 240 91 135 168 130 194 240 130 194 240 138 198 245 138 198 245 138 198 245 96 138 171 138 198 245 91 135 168 130 194 240 91 135 168 91 135 168 85 133 166 80 128 164 85 133 166 85 133 166 85 133 166 122 190 238 130 194 240 130 194 240 91 135 168 91 135 168 91 135 168 91 135 168 91 135 168 138 198 245 91 135 168 91 135 168 138 198 245 138 198 245 96 138 171 96 138 171 96 138 171 144 204 238 151 214 239 151 214 239 151 214 239 151 214 239 151 214 239 151 214 239 159 221 240 159 221 240 159 221 240 159 221 240 111 154 168 111 154 168 111 154 168 111 154 168 159 221 240 111 154 168 116 156 172 166 224 247 174 227 255 174 227 255 174 227 255 186 234 255 208 240 255 208 240 255 208 240 255 221 240 230 221 240 230 221 240 230 221 240 230 221 240 230 154 168 161 221 240 230 154 168 161 221 240 230 170 163 145 243 234 208 216 224 164 176 215 143 176 215 143 176 215 143 123 150 100 176 215 143 123 150 100 155 200 126 155 200 126 143 187 119 143 187 119 154 190 126 154 190 126 154 190 126 154 190 126 154 190 126 154 190 126 154 190 126 154 190 126 107 133 88 166 192 134 166 192 134 175 195 141 175 195 141 185 199 146 185 199 146 185 199 150 185 199 150 195 206 160 205 215 171 205 215 171 215 222 176 224 228 180 234 231 186 234 231 186 240 235 191 240 235 191 237 230 186 237 230 186 232 225 178 232 225 178 232 225 178 237 230 186 237 230 186 168 164 133 168 164 133 163 161 130 163 161 130 234 231 186 240 235 191 234 231 186 234 231 186 234 231 186 234 231 186 163 161 130 163 161 130 163 161 130 224 228 180 150 155 123 143 150 119 143 150 119 136 144 112 136 144 112 136 144 112 129 139 105 129 139 102 122 136 98 116 134 93 116 134 93 107 133 88 107 133 88 100 130 83 108 140 88 108 140 88 108 140 88 108 140 88 123 150 100 176 215 143 151 156 114 151 156 114 151 156 114 151 156 114 216 224 164 151 156 114 151 156 114 216 224 164 151 156 114 151 156 114 151 156 114 216 224 164 216 224 164 216 224 164 216 224 164 216 224 164 243 234 208 170 163 145 170 163 145 154 168 161 154 168 161 154 168 161 145 168 178 208 240 255 208 240 255 221 240 230 145 168 178 145 168 178 145 168 178 130 163 178 130 163 178 130 163 178 208 240 255 208 240 255 208 240 255 130 163 178 130 163 178 130 163 178 130 163 178 208 240 255 208 240 255 208 240 255 208 240 255 208 240 255 208 240 255 208 240 255 221 240 230 221 240 230 221 240 230 221 240 230 243 234 208 243 234 208 170 163 145 216 224 164 216 224 164 216 224 164 216 224 164 216 224 164 151 156 114 176 215 143 176 215 143 155 200 126 155 200 126 155 200 126 143 187 119 143 187 119 154 190 126 154 190 126 154 190 126 143 187 119 154 190 126 154 190 126 154 190 126 166 192 134 166 192 134 166 192 134 166 192 134 166 192 134 154 190 126 154 190 126 154 190 126 100 130 83 143 187 119 154 190 126 154 190 126 154 190 126 154 190 126 154 190 126 154 190 126 166 192 134

95 171 224 66 119 156 71 122 158 71 122 158 71 122 158 109 180 231 109 180 231 115 184 235 122 190 238 122 190 238 122 190 238 85 133 166 85 133 166 85 133 166 122 190 238 130 194 240 130 194 240 130 194 240 130 194 240 138 198 245 138 198 245 138 198 245 138 198 245 138 198 245 138 198 245 96 138 171 91 135 168 91 135 168 85 133 166 85 133 166 85 133 166 85 133 166 80 128 164 115 184 235 80 128 164 122 190 238 122 190 238 122 190 238 85 133 166 85 133 166 85 133 166 91 135 168 91 135 168 130 194 240 130 194 240 138 198 245 130 194 240 138 198 245 138 198 245 138 198 245 144 204 238 144 204 238 144 204 238 144 204 238 100 142 166 105 149 167 105 149 167 151 214 239 105 149 167 159 221 240 159 221 240 111 154 168 105 149 167 105 149 167 111 154 168 111 154 168 111 154 168 159 221 240 166 224 247 166 224 247 166 224 247 166 224 247 116 156 172 174 227 255 186 234 255 186 234 255 208 240 255 221 240 230 221 240 230 221 240 230 221 240 230 221 240 230 221 240 230 221 240 230 221 240 230 221 240 230 221 240 230 243 234 208 243 234 208 216 224 164 216 224 164 176 215 143 176 215 143 176 215 143 176 215 143 176 215 143 176 215 143 155 200 126 143 187 119 154 190 126 154 190 126 154 190 126 154 190 126 107 133 88 154 190 126 107 133 88 154 190 126 154 190 126 166 192 134 166 192 134 166 192 134 116 134 93 116 134 93 175 195 141 185 199 146 185 199 150 195 206 160 195 206 160 205 215 171 215 222 176 215 222 176 224 228 180 234 231 186 234 231 186 240 235 191 237 230 186 237 230 186 232 225 178 232 225 178 232 225 178 232 225 178 165 161 130 168 164 133 168 164 133 240 235 191 240 235 191 234 231 186 234 231 186 240 235 191 240 235 191 240 235 191 240 235 191 240 235 191 240 235 191 240 235 191 234 231 186 156 159 126 156 159 126 150 155 123 143 150 119 136 144 112 136 144 112 136 144 112 129 139 105 129 139 102 122 136 98 116 134 93 107 133 88 107 133 88 100 130 83 108 140 88 108 140 88 108 140 88 155 200 126 108 140 88 123 150 100 176 215 143 123 150 100 216 224 164 151 156 114 216 224 164 216 224 164 176 215 143 176 215 143 151 156 114 151 156 114 151 156 114 151 156 114 216 224 164 216 224 164 216 224 164 151 156 114 216 224 164 170 163 145 170 163 145 154 168 161 154 168 161 154 168 161 145 168 178 145 168 178 145 168 178 208 240 255 145 168 178 145 168 178 145 168 178 145 168 178 130 163 178 130 163 178 186 234 255 208 240 255 130 163 178 130 163 178 130 163 178 130 163 178 130 163 178 208 240 255 208 240 255 208 240 255 145 168 178 208 240 255 145 168 178 145 168 178 145 168 178 208 240 255 221 240 230 221 240 230 221 240 230 243 234 208 170 163 145 170 163 145 243 234 208 216 224 164 151 156 114 216 224 164 176 215 143 216 224 164 216 224 164 176 215 143 176 215 143 155 200 126 155 200 126 143 187 119 143 187 119 154 190 126 154 190 126 154 190 126 154 190 126 154 190 126 154 190 126 166 192 134 166 192 134 166 192 134 166 192 134 116 134 93 166 192 134 107 133 88 154 190 126 107 133 88 154 190 126 154 190 126 154 190 126 154 190 126 154 190 126 154 190 126 166 192 134 154 190 126 166 192 134

91 169 221 95 171 224 95 171 224 102 175 227 102 175 227 109 180 231 109 180 231 115 184 235 115 184 235 80 128 164 85 133 166 122 190 238 130 194 240 85 133 166 85 133 166 85 133 166 130 194 240 130 194 240 130 194 240 138 198 245 138 198 245 138 198 245 138 198 245 138 198 245 144 204 238 96 138 171 91 135 168 91 135 168 91 135 168 85 133 166 85 133 166 85 133 166 80 128 164 80 128 164 80 128 164 115 184 235 122 190 238 122 190 238 85 133 166 85 133 166 122 190 238 130 194 240 91 135 168 91 135 168 130 194 240 130 194 240 138 198 245 138 198 245 96 138 171 138 198 245 144 204 238 144 204 238 144 204 238 151 214 239 151 214 239 151 214 239 100 142 166 151 214 239 151 214 239 159 221 240 159 221 240 159 221 240 105 149 167 105 149 167 105 149 167 105 149 167 159 221 240 159 221 240 166 224 247 166 224 247 166 224 247 166 224 247 166 224 247 174 227 255 186 234 255 186 234 255 208 240 255 221 240 230 221 240 230 221 240 230 243 234 208 221 240 230 154 168 161 221 240 230 221 240 230 221 240 230 243 234 208 243 234 208 243 234 208 216 224 164 176 215 143 176 215 143 176 215 143 176 215 143 155 200 126 176 215 143 176 215 143 155 200 126 143 187 119 143 187 119 154 190 126 154 190 126 154 190 126 154 190 126 107 133 88 107 133 88 107 133 88 107 133 88 154 190 126 166 192 134 166 192 134 166 192 134 116 134 93 175 195 141 185 199 146 185 199 150 195 206 160 205 215 171 205 215 171 215 222 176 224 228 180 224 228 180 234 231 186 240 235 191 237 230 186 237 230 186 232 225 178 232 225 178 222 214 149 162 157 124 162 157 124 165 161 130 165 161 130 240 235 191 240 235 191 168 164 133 240 235 191 240 235 191 240 235 191 168 164 133 240 235 191 240 235 191 240 235 191 168 164 133 240 235 191 163 161 130 156 159 126 156 159 126 224 228 180 143 150 119 143 150 119 136 144 112 129 139 105 129 139 102 129 139 102 122 136 98 116 134 93 107 133 88 107 133 88 100 130 83 108 140 88 108 140 88 143 187 119 155 200 126 108 140 88 123 150 100 123 150 100 151 156 114 151 156 114 151 156 114 216 224 164 151 156 114 176 215 143 176 215 143 151 156 114 151 156 114 170 163 145 170 163 145 216 224 164 216 224 164 151 156 114 151 156 114 216 224 164 170 163 145 170 163 145 154 168 161 154 168 161 154 168 161 145 168 178 145 168 178 145 168 178 208 240 255 145 168 178 145 168 178 145 168 178 130 163 178 130 163 178 130 163 178 186 234 255 208 240 255 130 163 178 130 163 178 130 163 178 130 163 178 186 234 255 186 234 255 208 240 255 208 240 255 208 240 255 208 240 255 145 168 178 208 240 255 208 240 255 221 240 230 221 240 230 221 240 230 221 240 230 221 240 230 243 234 208 243 234 208 243 234 208 216 224 164 216 224 164 216 224 164 176 215 143 151 156 114 176 215 143 176 215 143 176 215 143 155 200 126 155 200 126 143 187 119 154 190 126 154 190 126 154 190 126 100 130 83 154 190 126 154 190 126 166 192 134 166 192 134 175 195 141 166 192 134 166 192 134 166 192 134 166 192 134 107 133 88 107 133 88 107 133 88 154 190 126 154 190 126 154 190 126 154 190 126 166 192 134 166 192 134 166 192 134 166 192 134 175 195 141

